design/ux_analyses/Resolume/Resolume Arena/luts/Amater.cube
# Copyright: (C) Copyright 2010-2018 by IWLTBAP SAS
# Cannot be resold, shared or otherwise redistributed
# Website: https://luts.iwltbap.com
TITLE "IWLTBAP Amater (Rec.709, sRGB, DCI-P3)"
LUT_3D_SIZE 33
0.000000 0.000000 0.000793
0.015808 0.003937 0.003143
0.031555 0.007874 0.004730
0.052917 0.012604 0.007080
0.076141 0.017334 0.008667
0.103973 0.023651 0.010254
0.135529 0.029968 0.011810
0.173981 0.036255 0.012604
0.211487 0.042511 0.013397
0.251129 0.048981 0.013428
0.291992 0.054932 0.013428
0.333832 0.060455 0.013428
0.375183 0.065063 0.014191
0.416473 0.070526 0.014984
0.457306 0.075165 0.016541
0.501251 0.080536 0.018921
0.540802 0.086060 0.022064
0.578766 0.091736 0.026001
0.615234 0.097534 0.030731
0.650879 0.104156 0.035492
0.685242 0.110809 0.041748
0.717987 0.117737 0.047577
0.749725 0.125275 0.054291
0.779907 0.132721 0.061646
0.808929 0.140594 0.068939
0.841064 0.148621 0.076172
0.867920 0.156708 0.084259
0.893372 0.165100 0.091736
0.916748 0.173096 0.099121
0.937317 0.180695 0.106415
0.954803 0.187988 0.112915
0.969696 0.194763 0.119415
0.982941 0.201294 0.129547
0.011871 0.014191 0.004730
0.026825 0.017334 0.006287
0.042969 0.021271 0.007874
0.062805 0.025238 0.009460
0.086090 0.030731 0.011047
0.112457 0.036255 0.012604
0.142517 0.042511 0.013397
0.180237 0.048279 0.014191
0.218018 0.055573 0.014984
0.257538 0.062225 0.014984
0.298401 0.068390 0.014984
0.340057 0.074158 0.014984
0.381531 0.079559 0.015778
0.422943 0.085175 0.016541
0.464020 0.090881 0.018127
0.507965 0.096313 0.020508
0.547394 0.102234 0.024445
0.585236 0.108246 0.028381
0.622131 0.114655 0.033112
0.657623 0.121399 0.037842
0.691864 0.128418 0.044006
0.724548 0.135681 0.049652
0.755890 0.143127 0.056183
0.785614 0.150726 0.063385
0.814423 0.158447 0.070526
0.846191 0.166534 0.077637
0.872864 0.174896 0.085175
0.897858 0.183075 0.092590
0.920502 0.191071 0.099915
0.940399 0.198730 0.106781
0.957275 0.206085 0.113281
0.971466 0.212952 0.119415
0.984131 0.219604 0.128998
0.025269 0.029175 0.008667
0.040100 0.032318 0.009460
0.055359 0.035492 0.011047
0.073730 0.039429 0.011810
0.095215 0.044006 0.013397
0.120728 0.048981 0.014191
0.150482 0.054932 0.014984
0.187744 0.061646 0.015778
0.224823 0.068390 0.015778
0.264221 0.075165 0.015778
0.305237 0.081940 0.015778
0.346649 0.088287 0.016541
0.388123 0.094238 0.016541
0.429718 0.100311 0.018127
0.470917 0.106415 0.019714
0.514984 0.112549 0.022858
0.554413 0.118744 0.026001
0.592255 0.125275 0.029968
0.629242 0.132111 0.034698
0.664825 0.138885 0.040222
0.698700 0.146149 0.046173
0.731201 0.153595 0.052338
0.762115 0.161194 0.058655
0.791687 0.168915 0.065063
0.820099 0.176697 0.072083
0.851593 0.184784 0.079102
0.877777 0.193115 0.086517
0.902313 0.201294 0.093445
0.924316 0.209259 0.100311
0.943573 0.217133 0.107147
0.959747 0.224487 0.113281
0.973236 0.231445 0.119080
0.985229 0.238159 0.128387
0.039307 0.044006 0.012604
0.053528 0.046875 0.013397
0.068695 0.050354 0.013397
0.086548 0.053650 0.014191
0.106873 0.058044 0.014984
0.131775 0.062805 0.015778
0.159973 0.068390 0.016541
0.196564 0.075165 0.016541
0.232941 0.081940 0.017334
0.271820 0.088715 0.017334
0.312622 0.095886 0.017334
0.354034 0.102631 0.017334
0.395599 0.109344 0.018127
0.437195 0.115692 0.019714
0.478302 0.122375 0.021271
0.522614 0.129028 0.024445
0.561951 0.135681 0.028381
0.599915 0.142548 0.032318
0.636963 0.149658 0.037048
0.672241 0.156952 0.042511
0.706055 0.164368 0.048279
0.738281 0.171936 0.054291
0.768677 0.179596 0.060455
0.797913 0.187317 0.066742
0.826172 0.195343 0.073639
0.857208 0.203613 0.080536
0.883026 0.211853 0.087402
0.906982 0.220154 0.094269
0.928406 0.228241 0.101105
0.946960 0.236053 0.107544
0.962219 0.243408 0.113281
0.974976 0.253998 0.119080
0.986237 0.261200 0.127106
0.054749 0.059845 0.015778
0.068695 0.062805 0.016541
0.083496 0.065643 0.016541
0.101013 0.068939 0.017334
0.120422 0.072601 0.017334
0.143890 0.077637 0.018127
0.175354 0.083344 0.018127
0.207031 0.089142 0.018127
0.242615 0.096313 0.018127
0.280914 0.103394 0.018127
0.321289 0.110779 0.018127
0.362396 0.117737 0.018921
0.404053 0.124969 0.019714
0.445770 0.131805 0.021271
0.486908 0.138885 0.023651
0.531342 0.146149 0.026794
0.570404 0.153076 0.030731
0.608612 0.160461 0.034698
0.645386 0.167969 0.040222
0.680328 0.175354 0.045441
0.713959 0.183075 0.051025
0.745483 0.190674 0.056824
0.775665 0.198547 0.062225
0.804657 0.206451 0.068939
0.836426 0.214600 0.075165
0.863342 0.222931 0.081482
0.888641 0.231262 0.088287
0.911896 0.239594 0.095093
0.932648 0.248505 0.101471
0.950348 0.259521 0.107544
0.964783 0.266998 0.113281
0.976898 0.274200 0.118439
0.987427 0.281219 0.125824
0.072266 0.077148 0.020508
0.086548 0.080048 0.020508
0.101013 0.082886 0.020508
0.117798 0.085602 0.020508
0.136688 0.089142 0.020508
0.158997 0.093414 0.020508
0.189636 0.099121 0.019714
0.219971 0.104919 0.019714
0.254578 0.111847 0.019714
0.291595 0.118744 0.019714
0.331085 0.126221 0.019714
0.371887 0.133606 0.019714
0.413818 0.141144 0.021271
0.455536 0.148865 0.022858
0.499237 0.156433 0.025238
0.540863 0.163879 0.029175
0.580017 0.171478 0.033112
0.618195 0.179138 0.037842
0.654694 0.186920 0.042511
0.689331 0.194550 0.047577
0.722412 0.202454 0.052979
0.753357 0.210205 0.058655
0.783081 0.218018 0.064514
0.811829 0.226196 0.070526
0.843292 0.234406 0.076660
0.869598 0.242767 0.082886
0.894348 0.255219 0.089600
0.917114 0.263672 0.095490
0.937012 0.272003 0.101868
0.953766 0.279999 0.107544
0.967590 0.287628 0.112915
0.978821 0.294891 0.117737
0.988678 0.301941 0.123871
0.091980 0.095886 0.024445
0.106171 0.097931 0.024445
0.121063 0.100677 0.024445
0.137543 0.103760 0.024445
0.156036 0.107147 0.023651
0.181335 0.111145 0.022858
0.206635 0.116028 0.022858
0.235870 0.121735 0.022064
0.268616 0.128418 0.021271
0.304260 0.135376 0.021271
0.342896 0.142853 0.021271
0.383270 0.150726 0.022064
0.424805 0.158722 0.022858
0.466400 0.166779 0.025238
0.511292 0.174683 0.028381
0.551422 0.182434 0.031525
0.590881 0.190674 0.036255
0.628754 0.198547 0.040985
0.664917 0.206635 0.045441
0.699188 0.214600 0.051025
0.731323 0.222412 0.056183
0.761932 0.230255 0.061646
0.791321 0.238312 0.067291
0.819550 0.246521 0.072601
0.850616 0.258789 0.078613
0.876465 0.267273 0.084717
0.900604 0.275909 0.090454
0.922394 0.284454 0.096313
0.941528 0.292847 0.101868
0.957367 0.300964 0.107147
0.970245 0.308685 0.112213
0.980713 0.316101 0.117065
0.989990 0.323395 0.121399
0.114502 0.115692 0.029968
0.128479 0.117737 0.029175
0.143616 0.120422 0.029175
0.160217 0.123352 0.029175
0.182220 0.126221 0.028381
0.203217 0.129974 0.026794
0.227386 0.134796 0.026001
0.254578 0.140015 0.025238
0.285400 0.146423 0.024445
0.319458 0.153076 0.023651
0.356842 0.160950 0.023651
0.396301 0.168915 0.024445
0.437134 0.177155 0.026001
0.478302 0.185638 0.028381
0.523315 0.193939 0.031525
0.563507 0.202454 0.035492
0.602844 0.210938 0.039429
0.640503 0.219269 0.044006
0.676086 0.227386 0.048981
0.709686 0.235382 0.054291
0.741089 0.243256 0.059265
0.771179 0.255219 0.064514
0.799988 0.263245 0.070007
0.828094 0.271423 0.075165
0.858246 0.279877 0.080536
0.883423 0.288422 0.086090
0.906952 0.297150 0.091736
0.927917 0.305756 0.097137
0.945984 0.314301 0.102631
0.960876 0.322571 0.107147
0.972870 0.330475 0.111877
0.982880 0.338043 0.116058
0.991608 0.345428 0.120087
0.139496 0.137146 0.035492
0.154541 0.139435 0.035492
0.173767 0.141724 0.034698
0.190247 0.144226 0.033905
0.208527 0.146973 0.033112
0.228577 0.150452 0.032318
0.251434 0.154907 0.030731
0.276886 0.159698 0.029175
0.305725 0.165802 0.028381
0.337921 0.172852 0.026794
0.373199 0.180450 0.026794
0.411194 0.188599 0.027588
0.451050 0.197144 0.029175
0.491608 0.205902 0.031525
0.536346 0.214783 0.034698
0.576843 0.223633 0.038635
0.615906 0.232422 0.043243
0.653046 0.241028 0.048279
0.687988 0.251556 0.052979
0.720581 0.261322 0.058044
0.751434 0.269165 0.062805
0.781067 0.277130 0.067841
0.809235 0.285248 0.072601
0.840271 0.293365 0.078125
0.866272 0.301697 0.083344
0.890717 0.310272 0.088287
0.913330 0.319000 0.093445
0.933350 0.327698 0.098328
0.950439 0.336212 0.103027
0.964417 0.344604 0.107147
0.975708 0.352631 0.111511
0.985107 0.360352 0.115021
0.993347 0.367889 0.118774
0.171936 0.160217 0.041748
0.187134 0.162170 0.041748
0.202820 0.163879 0.040985
0.219421 0.166290 0.040222
0.237335 0.168671 0.039429
0.257263 0.172150 0.037842
0.278778 0.176025 0.036255
0.303070 0.181122 0.034698
0.329895 0.187134 0.033112
0.359833 0.194153 0.032318
0.392853 0.202057 0.031525
0.428680 0.210388 0.031525
0.466827 0.219086 0.033112
0.510193 0.227905 0.035492
0.550629 0.237183 0.039429
0.590759 0.246521 0.043243
0.629181 0.259369 0.047577
0.665924 0.268158 0.052338
0.699951 0.276459 0.057434
0.732025 0.284454 0.062225
0.762299 0.292450 0.066742
0.791199 0.300323 0.071564
0.818726 0.308197 0.076172
0.849213 0.316315 0.080994
0.874359 0.324524 0.085602
0.898041 0.333069 0.090454
0.919647 0.341644 0.095093
0.938629 0.350189 0.099518
0.954651 0.358765 0.103424
0.968018 0.367218 0.107544
0.978729 0.375397 0.110809
0.987335 0.383026 0.114319
0.994995 0.390594 0.117401
0.203033 0.184143 0.048981
0.218536 0.185638 0.048279
0.234406 0.187134 0.047577
0.251434 0.189209 0.047577
0.269592 0.191681 0.046173
0.289032 0.194733 0.044739
0.310028 0.198547 0.043243
0.332855 0.203796 0.041748
0.357758 0.210022 0.040222
0.385284 0.217316 0.038635
0.415558 0.225342 0.037842
0.448792 0.234070 0.037048
0.484589 0.242920 0.038635
0.526764 0.256256 0.040222
0.565979 0.265564 0.044006
0.604919 0.274750 0.047577
0.642914 0.283905 0.052338
0.678467 0.292572 0.057434
0.711975 0.300964 0.061646
0.743469 0.309052 0.066742
0.773285 0.317017 0.071045
0.801422 0.324768 0.075653
0.829254 0.332489 0.080048
0.858063 0.340454 0.084259
0.882538 0.348419 0.088715
0.905304 0.356750 0.092590
0.925934 0.365051 0.096741
0.943878 0.373627 0.100708
0.959229 0.382233 0.104156
0.971588 0.390411 0.107544
0.981415 0.398499 0.110443
0.989502 0.406097 0.113281
0.996552 0.413544 0.115692
0.236847 0.209076 0.056824
0.252625 0.210388 0.056183
0.268768 0.211670 0.055573
0.285797 0.213135 0.054932
0.304138 0.215332 0.054291
0.323761 0.218384 0.052979
0.344269 0.222229 0.051666
0.366028 0.227386 0.050354
0.389008 0.233917 0.048279
0.413879 0.241669 0.046875
0.441376 0.253998 0.045441
0.471680 0.263672 0.044739
0.509064 0.273407 0.044739
0.544861 0.282806 0.046173
0.582092 0.292206 0.048981
0.619659 0.301331 0.052979
0.655945 0.310028 0.057434
0.690704 0.318542 0.061646
0.723602 0.326813 0.066193
0.754639 0.334808 0.071045
0.783844 0.342712 0.075165
0.811401 0.350372 0.079559
0.841705 0.357971 0.083344
0.866791 0.365662 0.087402
0.890442 0.373413 0.091339
0.912262 0.381378 0.095093
0.932037 0.389587 0.098724
0.949188 0.397949 0.101868
0.963501 0.406372 0.104919
0.974854 0.414368 0.107544
0.983978 0.422028 0.109711
0.991486 0.429413 0.111877
0.998230 0.436584 0.114319
0.272919 0.235077 0.065643
0.288513 0.235718 0.065063
0.304993 0.236847 0.064514
0.322418 0.238159 0.063934
0.340912 0.240082 0.062805
0.360443 0.242767 0.062225
0.380615 0.246521 0.061035
0.401398 0.255829 0.059845
0.422791 0.262665 0.058044
0.445374 0.271149 0.056183
0.470276 0.281097 0.054291
0.500824 0.291412 0.053650
0.531433 0.301575 0.052979
0.564087 0.311462 0.053650
0.598816 0.320831 0.055573
0.633789 0.329468 0.058655
0.668579 0.337738 0.062225
0.702332 0.345856 0.066193
0.734497 0.353851 0.070526
0.764954 0.361755 0.075165
0.793549 0.369324 0.079102
0.820770 0.376831 0.083344
0.850525 0.384247 0.086945
0.875031 0.391754 0.090454
0.897949 0.399261 0.094269
0.919220 0.407196 0.097137
0.938202 0.415192 0.100311
0.954346 0.423248 0.103027
0.967468 0.431213 0.105286
0.977966 0.438904 0.107544
0.986359 0.446228 0.109344
0.993286 0.453186 0.111145
0.999603 0.459991 0.112579
0.310150 0.265137 0.075165
0.325897 0.265717 0.074646
0.342377 0.266418 0.074158
0.360046 0.267548 0.073639
0.378754 0.269318 0.073120
0.398254 0.271698 0.072601
0.418274 0.275299 0.071564
0.438293 0.280701 0.070526
0.458618 0.288147 0.069458
0.479340 0.297546 0.067841
0.505188 0.308563 0.065643
0.528870 0.320160 0.063934
0.555328 0.331604 0.062225
0.584198 0.341858 0.062225
0.615234 0.351105 0.062805
0.647705 0.359467 0.064514
0.680634 0.367310 0.067841
0.713013 0.374756 0.071045
0.744293 0.382233 0.075165
0.774048 0.389496 0.079102
0.802246 0.396881 0.082886
0.830536 0.404022 0.086945
0.858398 0.411346 0.090454
0.882477 0.418579 0.093445
0.905212 0.426147 0.096741
0.925812 0.433899 0.099518
0.943817 0.441620 0.101868
0.958862 0.449402 0.104156
0.971130 0.456940 0.106049
0.980804 0.464203 0.107544
0.988586 0.471100 0.108978
0.994995 0.477539 0.110077
1.000000 0.483795 0.111511
0.347595 0.291687 0.085602
0.363464 0.292053 0.085175
0.380066 0.292450 0.084717
0.397736 0.293488 0.084259
0.416809 0.295013 0.084259
0.436584 0.297272 0.083801
0.456787 0.300964 0.083344
0.476196 0.306244 0.082886
0.496307 0.313934 0.081940
0.517822 0.324066 0.080536
0.536896 0.336212 0.078613
0.557129 0.349243 0.076172
0.579407 0.361847 0.073639
0.604248 0.373230 0.072083
0.631897 0.383026 0.071564
0.661438 0.391296 0.072083
0.692078 0.398499 0.074158
0.722900 0.405243 0.076660
0.752991 0.411835 0.080048
0.781982 0.418396 0.083344
0.809692 0.425079 0.086945
0.840118 0.431854 0.090027
0.865387 0.438751 0.093445
0.889465 0.446075 0.096313
0.911774 0.453522 0.099121
0.931702 0.460999 0.101471
0.948914 0.468597 0.103424
0.963043 0.475983 0.105286
0.974365 0.483215 0.106415
0.983368 0.490112 0.107910
0.990479 0.496429 0.108978
0.996552 0.502472 0.109711
1.000000 0.508118 0.110809
0.384460 0.318207 0.097534
0.400696 0.318665 0.097107
0.417542 0.319244 0.096710
0.435730 0.320160 0.096313
0.454865 0.321533 0.096313
0.474670 0.323608 0.096313
0.494598 0.326904 0.096313
0.517181 0.331940 0.096313
0.534973 0.339722 0.095886
0.551605 0.350189 0.095093
0.567749 0.363190 0.092987
0.584595 0.377502 0.090027
0.603302 0.392090 0.086945
0.624573 0.405151 0.083801
0.648560 0.416046 0.081940
0.674957 0.424744 0.080994
0.703094 0.431610 0.081482
0.731842 0.437439 0.082886
0.760559 0.442932 0.085175
0.788757 0.448456 0.087830
0.815918 0.454193 0.090881
0.846222 0.460419 0.093842
0.871613 0.467102 0.096741
0.895538 0.474060 0.099121
0.917511 0.481262 0.101471
0.936951 0.488525 0.103424
0.953339 0.495758 0.105286
0.966675 0.502930 0.106415
0.977234 0.509857 0.107544
0.985504 0.516327 0.108643
0.991974 0.522125 0.109344
0.997528 0.527557 0.109711
1.000000 0.532562 0.110443
0.420258 0.344910 0.109711
0.436646 0.345428 0.109344
0.453888 0.346161 0.109344
0.472107 0.347137 0.109344
0.491272 0.348297 0.109344
0.514923 0.350189 0.109711
0.534119 0.353027 0.110413
0.552063 0.357574 0.110779
0.568390 0.364868 0.110779
0.583160 0.375397 0.110077
0.596985 0.389130 0.108246
0.611053 0.405243 0.105286
0.626495 0.421814 0.101471
0.644379 0.437225 0.097931
0.664856 0.449768 0.094238
0.688110 0.459381 0.092163
0.713593 0.466370 0.090881
0.740295 0.471466 0.090454
0.767426 0.475830 0.091309
0.794525 0.480103 0.092987
0.821533 0.484985 0.095490
0.851746 0.490387 0.097534
0.876953 0.496216 0.099915
0.900635 0.502502 0.102264
0.922302 0.509216 0.104156
0.941223 0.516174 0.105682
0.957062 0.523254 0.107147
0.969666 0.530121 0.107910
0.979401 0.536560 0.108643
0.986938 0.542450 0.109344
0.992920 0.547821 0.110077
0.998108 0.552734 0.110443
1.000000 0.557251 0.110809
0.453888 0.371399 0.124481
0.470612 0.372284 0.124481
0.487946 0.373138 0.124481
0.510040 0.373993 0.124481
0.528992 0.375061 0.125153
0.548157 0.376556 0.126434
0.566589 0.378845 0.128387
0.583832 0.382965 0.130157
0.599091 0.389862 0.130798
0.612335 0.400391 0.130493
0.624298 0.414703 0.128998
0.636017 0.432190 0.123199
0.648590 0.450836 0.118408
0.663208 0.468597 0.113953
0.680573 0.483551 0.109344
0.700775 0.494690 0.105286
0.723572 0.502319 0.102234
0.748230 0.507294 0.100311
0.774139 0.511017 0.099518
0.800507 0.514221 0.099915
0.826721 0.517639 0.100677
0.856476 0.521729 0.102264
0.881439 0.526489 0.104156
0.904907 0.531860 0.105682
0.926270 0.537964 0.107147
0.944794 0.544281 0.108276
0.959808 0.550659 0.109344
0.971802 0.557037 0.110077
0.980865 0.563080 0.110443
0.988007 0.568665 0.110809
0.993774 0.573578 0.111145
0.998688 0.578003 0.111511
1.000000 0.582001 0.111877
0.484680 0.397522 0.140778
0.505371 0.398560 0.141052
0.522736 0.399506 0.141052
0.540741 0.400665 0.141632
0.559479 0.401733 0.142242
0.578064 0.403046 0.143372
0.595917 0.405060 0.144806
0.612274 0.408752 0.146484
0.626556 0.415100 0.147888
0.638733 0.425354 0.148438
0.649078 0.439941 0.147614
0.658783 0.458435 0.145386
0.669067 0.479004 0.141632
0.680908 0.499207 0.136627
0.695343 0.516754 0.130798
0.713043 0.530396 0.121399
0.733765 0.539673 0.116364
0.756592 0.545227 0.112549
0.780945 0.548401 0.109711
0.806091 0.550415 0.108246
0.835510 0.552490 0.107880
0.860870 0.554993 0.108276
0.885437 0.558289 0.108978
0.908539 0.562531 0.109711
0.929291 0.567200 0.110809
0.947266 0.572571 0.111511
0.961884 0.578308 0.111877
0.973389 0.584229 0.112213
0.982147 0.589722 0.112579
0.988953 0.594879 0.112579
0.994354 0.599426 0.112915
0.999023 0.603333 0.113281
1.000000 0.606903 0.113281
0.516510 0.423523 0.155457
0.533264 0.424988 0.155975
0.550629 0.426331 0.156738
0.568542 0.427643 0.157532
0.586670 0.428864 0.158569
0.604675 0.430023 0.160126
0.621857 0.431885 0.162140
0.637360 0.435181 0.164368
0.650726 0.440979 0.166595
0.661896 0.450745 0.167816
0.671112 0.465332 0.168060
0.679291 0.484406 0.166595
0.687500 0.506378 0.163147
0.697144 0.528931 0.157806
0.709686 0.549561 0.151459
0.725220 0.566010 0.144531
0.743622 0.577332 0.137238
0.764648 0.583923 0.131104
0.787628 0.587250 0.123199
0.811707 0.588715 0.118774
0.840271 0.589417 0.116394
0.864929 0.590332 0.115356
0.888916 0.591858 0.115021
0.911499 0.594299 0.114685
0.931885 0.597595 0.115021
0.949341 0.601807 0.115021
0.963593 0.606628 0.115021
0.974640 0.611572 0.115021
0.983063 0.616608 0.115021
0.989563 0.621216 0.115021
0.994812 0.625214 0.115021
0.999359 0.628693 0.115356
1.000000 0.631897 0.115356
0.542023 0.450104 0.171661
0.558563 0.451843 0.172821
0.575623 0.453552 0.173767
0.593079 0.455109 0.175171
0.610535 0.456329 0.176788
0.627686 0.457611 0.178833
0.644043 0.459320 0.181519
0.658752 0.462311 0.184387
0.671387 0.467834 0.187225
0.681732 0.477020 0.189362
0.690002 0.491211 0.190430
0.697052 0.510315 0.190002
0.704041 0.533386 0.187439
0.712341 0.558105 0.182404
0.722992 0.581390 0.175415
0.736389 0.600494 0.167114
0.753082 0.614319 0.157806
0.772491 0.622803 0.148987
0.793854 0.626678 0.141357
0.816803 0.627899 0.135132
0.844604 0.627777 0.130493
0.868561 0.627319 0.125824
0.892059 0.627228 0.121918
0.914215 0.627960 0.120422
0.934204 0.629608 0.119751
0.951233 0.632355 0.119080
0.965088 0.635864 0.118774
0.975800 0.639862 0.118439
0.983856 0.643921 0.118073
0.990112 0.647919 0.117737
0.995209 0.651398 0.117737
0.999634 0.654449 0.117737
1.000000 0.657104 0.117737
0.564789 0.477173 0.189789
0.580994 0.479279 0.191254
0.597473 0.481354 0.192932
0.614166 0.482941 0.194794
0.630890 0.484406 0.197052
0.647125 0.485687 0.199677
0.662598 0.487488 0.202881
0.676392 0.490479 0.206390
0.688385 0.495575 0.210022
0.698151 0.504333 0.213409
0.705872 0.517883 0.215424
0.712494 0.537018 0.216339
0.718750 0.560608 0.214691
0.725769 0.586456 0.210205
0.734894 0.611664 0.202881
0.746857 0.633331 0.193176
0.761536 0.649353 0.181763
0.779236 0.659760 0.170258
0.799561 0.665344 0.159363
0.821655 0.667267 0.149841
0.848724 0.666992 0.142548
0.872284 0.665741 0.136963
0.895386 0.664429 0.133270
0.917114 0.663605 0.130493
0.936554 0.663574 0.128387
0.953125 0.664551 0.125824
0.966400 0.666504 0.123871
0.976715 0.669189 0.121918
0.984467 0.672211 0.121094
0.990509 0.675293 0.120758
0.995453 0.678162 0.120422
0.999756 0.680603 0.120422
1.000000 0.682922 0.120422
0.584869 0.505005 0.209839
0.600464 0.507355 0.211884
0.616150 0.509552 0.214142
0.631989 0.511414 0.216522
0.647766 0.513062 0.219421
0.663055 0.514679 0.223022
0.677643 0.516632 0.226837
0.690674 0.519714 0.231171
0.702209 0.524719 0.235687
0.711700 0.533234 0.239990
0.719299 0.546295 0.243500
0.725525 0.564606 0.245453
0.731201 0.587921 0.244812
0.737366 0.614075 0.240967
0.745331 0.640350 0.233368
0.755676 0.663605 0.222504
0.769226 0.682037 0.209259
0.785889 0.694855 0.194611
0.805267 0.702515 0.180389
0.826569 0.705780 0.167603
0.853149 0.706268 0.156738
0.876190 0.704987 0.148193
0.898865 0.702911 0.141632
0.920105 0.700836 0.137238
0.938965 0.699188 0.134216
0.954926 0.698425 0.131744
0.967682 0.698730 0.130188
0.977539 0.699860 0.128387
0.985046 0.701660 0.127106
0.990753 0.703705 0.125824
0.995544 0.705658 0.124542
0.999786 0.707611 0.124542
1.000000 0.709412 0.124542
0.602081 0.533417 0.232361
0.616882 0.536011 0.235016
0.631744 0.538452 0.237854
0.646637 0.540588 0.241119
0.661407 0.542511 0.244812
0.676025 0.544708 0.249054
0.689758 0.547058 0.253845
0.702454 0.550476 0.259094
0.713440 0.555634 0.264557
0.722656 0.563629 0.269714
0.730103 0.575897 0.274200
0.736084 0.593231 0.277283
0.741455 0.615540 0.277679
0.747009 0.641052 0.274353
0.753906 0.667297 0.266998
0.763489 0.691803 0.255371
0.776123 0.712158 0.240326
0.792053 0.727264 0.223022
0.810638 0.737122 0.205231
0.835327 0.742462 0.188293
0.857483 0.744293 0.173553
0.880127 0.743744 0.161652
0.902252 0.741699 0.151733
0.923004 0.738953 0.144531
0.941284 0.736237 0.139618
0.956665 0.734039 0.136047
0.968872 0.732666 0.133270
0.978180 0.732147 0.131744
0.985321 0.732483 0.130493
0.990906 0.733307 0.129852
0.995575 0.734314 0.129547
0.999786 0.735474 0.129547
1.000000 0.736633 0.128998
0.616669 0.562592 0.257629
0.630676 0.565460 0.261200
0.644775 0.568329 0.264862
0.658783 0.570892 0.268890
0.672760 0.573364 0.273254
0.686371 0.575958 0.278381
0.699310 0.578796 0.283905
0.711273 0.582611 0.289948
0.721863 0.587738 0.296173
0.730927 0.595520 0.302338
0.738281 0.606903 0.307709
0.744293 0.622894 0.311584
0.749329 0.643311 0.312744
0.754517 0.667389 0.310272
0.761169 0.693237 0.303070
0.770203 0.718079 0.291016
0.782318 0.739655 0.274628
0.797577 0.760651 0.255066
0.815643 0.772705 0.234039
0.839844 0.780243 0.213226
0.861603 0.783966 0.194000
0.883759 0.784790 0.177704
0.905457 0.783508 0.164368
0.925690 0.780945 0.153870
0.943451 0.777740 0.145966
0.958130 0.774475 0.140198
0.969788 0.771790 0.136353
0.978729 0.769775 0.133881
0.985565 0.768585 0.132050
0.990967 0.768005 0.131134
0.995514 0.768097 0.130798
0.999634 0.768402 0.130798
1.000000 0.768860 0.130798
0.628845 0.592590 0.286316
0.641937 0.595947 0.290619
0.655060 0.599152 0.295166
0.668182 0.602173 0.299957
0.681244 0.605194 0.305145
0.694031 0.608368 0.310974
0.706299 0.611725 0.317383
0.717804 0.615997 0.324066
0.728058 0.621216 0.330963
0.736938 0.628601 0.337616
0.744171 0.638794 0.343567
0.750122 0.652954 0.348083
0.755280 0.671509 0.349976
0.760559 0.693817 0.348114
0.767273 0.718353 0.341431
0.776093 0.742676 0.329254
0.787750 0.768677 0.311951
0.802429 0.786987 0.290497
0.820007 0.800964 0.266571
0.843689 0.810516 0.242096
0.864960 0.816437 0.218903
0.886749 0.819214 0.197876
0.908112 0.819458 0.180176
0.927826 0.817688 0.165649
0.945068 0.814758 0.154663
0.959351 0.811188 0.146240
0.970551 0.807526 0.139923
0.979156 0.804260 0.135742
0.985657 0.801727 0.133270
0.990906 0.799927 0.131744
0.995422 0.798920 0.131134
0.999451 0.798279 0.131134
1.000000 0.798065 0.131134
0.638428 0.623199 0.317993
0.650604 0.627014 0.323273
0.662933 0.630859 0.328674
0.675110 0.634430 0.334381
0.687500 0.638123 0.340454
0.699554 0.641876 0.346954
0.711151 0.645752 0.353760
0.722046 0.650116 0.360840
0.731934 0.655396 0.368073
0.740662 0.662140 0.377563
0.747955 0.671326 0.385315
0.754089 0.683777 0.390228
0.759735 0.700226 0.392609
0.765442 0.720276 0.391235
0.772278 0.742828 0.384918
0.781097 0.769897 0.368774
0.792480 0.791626 0.351013
0.806763 0.810577 0.328369
0.823669 0.825806 0.302582
0.846802 0.837311 0.275330
0.867615 0.845428 0.248291
0.889221 0.850464 0.223022
0.910309 0.852722 0.200714
