design/ux_analyses/Resolume/Resolume Arena/luts/Amater.cube
# Copyright: (C) Copyright 2010-2018 by IWLTBAP SAS
# Cannot be resold, shared or otherwise redistributed
# Website: https://luts.iwltbap.com
TITLE "IWLTBAP Amater (Rec.709, sRGB, DCI-P3)"
LUT_3D_SIZE 9
0.000000 0.000000 0.000793
0.076141 0.017334 0.008667
0.211487 0.042511 0.013397
0.375183 0.065063 0.014191
0.540802 0.086060 0.022064
0.685242 0.110809 0.041748
0.808929 0.140594 0.068939
0.916748 0.173096 0.099121
0.982941 0.201294 0.129547
0.054749 0.059845 0.015778
0.120422 0.072601 0.017334
0.242615 0.096313 0.018127
0.404053 0.124969 0.019714
0.570404 0.153076 0.030731
0.713959 0.183075 0.051025
0.836426 0.214600 0.075165
0.932648 0.248505 0.101471
0.987427 0.281219 0.125824
0.139496 0.137146 0.035492
0.208527 0.146973 0.033112
0.305725 0.165802 0.028381
0.451050 0.197144 0.029175
0.615906 0.232422 0.043243
0.751434 0.269165 0.062805
0.866272 0.301697 0.083344
0.950439 0.336212 0.103027
0.993347 0.367889 0.118774
0.272919 0.235077 0.065643
0.340912 0.240082 0.062805
0.422791 0.262665 0.058044
0.531433 0.301575 0.052979
0.668579 0.337738 0.062225
0.793549 0.369324 0.079102
0.897949 0.399261 0.094269
0.967468 0.431213 0.105286
0.999603 0.459991 0.112579
0.420258 0.344910 0.109711
0.491272 0.348297 0.109344
0.568390 0.364868 0.110779
0.626495 0.421814 0.101471
0.713593 0.466370 0.090881
0.821533 0.484985 0.095490
0.922302 0.509216 0.104156
0.979401 0.536560 0.108643
1.000000 0.557251 0.110809
0.542023 0.450104 0.171661
0.610535 0.456329 0.176788
0.671387 0.467834 0.187225
0.704041 0.533386 0.187439
0.753082 0.614319 0.157806
0.844604 0.627777 0.130493
0.934204 0.629608 0.119751
0.983856 0.643921 0.118073
1.000000 0.657104 0.117737
0.616669 0.562592 0.257629
0.672760 0.573364 0.273254
0.721863 0.587738 0.296173
0.749329 0.643311 0.312744
0.782318 0.739655 0.274628
0.861603 0.783966 0.194000
0.943451 0.777740 0.145966
0.985565 0.768585 0.132050
1.000000 0.768860 0.130798
0.651062 0.685394 0.393341
0.693909 0.704895 0.421173
0.735657 0.723785 0.449799
0.766144 0.761627 0.470062
0.801025 0.832733 0.434692
0.871765 0.893005 0.318573
0.947723 0.912109 0.204041
0.987213 0.899719 0.139038
1.000000 0.888367 0.121918
0.667450 0.817413 0.551819
0.703033 0.833893 0.570892
0.742432 0.848572 0.588562
0.777863 0.865814 0.602783
0.820160 0.905090 0.581573
0.877563 0.958588 0.479919
0.942505 0.985931 0.336029
0.986115 0.986267 0.183105
1.000000 0.980316 0.105682
0.000824 0.012604 0.037048
0.076630 0.026794 0.051025
0.213501 0.047577 0.061035
0.383728 0.070526 0.066193
0.550507 0.094238 0.077148
0.690735 0.121063 0.099518
0.808441 0.149689 0.131744
0.913361 0.179810 0.161377
0.982025 0.205902 0.186798
0.025269 0.070526 0.060455
0.102509 0.085175 0.068939
0.234589 0.108978 0.076660
0.406799 0.137146 0.078613
0.575989 0.163879 0.086517
0.716339 0.192719 0.106781
0.833588 0.222076 0.135742
0.929413 0.256714 0.161652
0.986542 0.283661 0.183533
0.103607 0.156952 0.087830
0.173767 0.164612 0.089600
0.286194 0.184570 0.091309
0.448730 0.215149 0.092163
0.615631 0.246063 0.099121
0.748749 0.278656 0.114655
0.861481 0.308319 0.138733
0.946869 0.340363 0.158844
0.992401 0.369720 0.175415
0.238800 0.269318 0.130798
0.299744 0.268738 0.121399
0.392853 0.283081 0.118408
0.525146 0.319244 0.115356
0.665192 0.351898 0.118408
0.788574 0.378479 0.133575
0.893036 0.405060 0.146790
0.965271 0.435638 0.159088
0.999146 0.463623 0.168060
0.388672 0.380432 0.179749
0.449097 0.375061 0.172089
0.535217 0.385071 0.169739
0.618042 0.433258 0.165344
0.709900 0.478638 0.156250
0.817719 0.496216 0.157806
0.919220 0.516052 0.163391
0.978394 0.540771 0.166840
1.000000 0.561279 0.169739
0.512817 0.478210 0.232361
0.571960 0.475616 0.227875
0.644287 0.484985 0.233856
0.697754 0.538849 0.241913
0.750641 0.619080 0.221588
0.841309 0.637268 0.194397
0.932343 0.637695 0.186584
0.983551 0.650116 0.183746
1.000000 0.663574 0.183075
0.591156 0.573425 0.302704
0.643555 0.581360 0.311462
0.702606 0.598999 0.334473
0.744354 0.645477 0.359741
0.780945 0.736816 0.337189
0.858612 0.787292 0.259369
0.942078 0.782928 0.209259
0.985413 0.774170 0.195801
1.000000 0.775787 0.197266
0.636383 0.683411 0.421906
0.676422 0.703735 0.447083
0.722778 0.731110 0.482941
0.761749 0.766510 0.510651
0.799500 0.829376 0.490112
0.868469 0.891602 0.386688
0.945862 0.913757 0.269318
0.987122 0.903259 0.204590
1.000000 0.893494 0.196014
0.663666 0.817078 0.581757
0.695221 0.836121 0.599548
0.734985 0.859375 0.623169
0.775482 0.877228 0.640686
0.818359 0.905975 0.624573
0.874603 0.955750 0.534271
0.939758 0.985596 0.405304
0.985535 0.987000 0.255371
1.000000 0.981354 0.185272
0.001617 0.029175 0.080994
0.066101 0.044006 0.113251
0.218903 0.063934 0.121918
0.405518 0.088287 0.137848
0.576233 0.113617 0.148956
0.709961 0.140594 0.170471
0.817322 0.166534 0.197052
0.914490 0.192108 0.224609
0.981110 0.213715 0.248444
0.014221 0.080048 0.100311
0.063934 0.098724 0.126434
0.217651 0.124969 0.146210
0.410461 0.152557 0.155182
0.589722 0.178711 0.162384
0.725952 0.205139 0.179291
0.836426 0.231445 0.201874
0.927460 0.262665 0.226013
0.985474 0.286316 0.246857
0.042267 0.154907 0.135132
0.093994 0.172607 0.154144
0.238312 0.205688 0.173309
0.430420 0.238312 0.183289
0.613708 0.270569 0.186798
0.747681 0.293884 0.193573
0.857788 0.318420 0.207733
0.943451 0.346527 0.225128
0.991333 0.372864 0.240784
0.143341 0.284180 0.204224
0.223297 0.301453 0.203064
0.322876 0.313324 0.206970
0.487122 0.347778 0.214508
0.652344 0.379028 0.217438
0.778839 0.399261 0.215790
0.885437 0.419067 0.217621
0.961792 0.445160 0.225128
0.998322 0.471100 0.234192
0.332855 0.431213 0.271698
0.384186 0.422180 0.260010
0.459808 0.422760 0.253540
0.580841 0.456085 0.252625
0.697662 0.500031 0.251038
0.808228 0.517761 0.247803
0.912415 0.531616 0.241760
0.975739 0.550842 0.237701
1.000000 0.570099 0.238678
0.463318 0.531494 0.328674
0.515930 0.519714 0.313568
0.583344 0.518738 0.308685
0.665802 0.553589 0.315857
0.742584 0.626801 0.310730
0.833038 0.652008 0.286041
0.927887 0.652130 0.270874
0.982300 0.661346 0.261475
1.000000 0.673798 0.258636
0.556671 0.617126 0.395782
0.600769 0.611176 0.386963
0.658417 0.618988 0.395691
0.720337 0.652527 0.419983
0.775177 0.733215 0.420471
0.853058 0.791260 0.352325
0.938751 0.791656 0.294250
0.984863 0.783691 0.276581
1.000000 0.786682 0.283661
0.617218 0.710876 0.492096
0.652588 0.715485 0.495514
0.697235 0.735840 0.519348
0.746002 0.770325 0.551147
0.795013 0.825378 0.554291
0.863922 0.888824 0.475769
0.942444 0.916260 0.360748
0.986725 0.908569 0.292969
1.000000 0.900970 0.297913
0.641022 0.817719 0.615112
0.677795 0.833252 0.632233
0.721313 0.859802 0.654480
0.765686 0.885834 0.675812
0.814362 0.908905 0.674835
0.872070 0.951416 0.607056
0.936188 0.984497 0.497009
0.984436 0.987946 0.357880
1.000000 0.982666 0.294128
0.000000 0.054932 0.143951
0.038605 0.065063 0.167572
0.203979 0.088287 0.195587
0.419189 0.118744 0.218170
0.607574 0.145050 0.234192
0.739014 0.170532 0.254456
0.840027 0.192322 0.275909
0.924194 0.211884 0.296814
0.982880 0.228424 0.316315
0.007141 0.102997 0.158569
0.040100 0.114655 0.179749
0.185211 0.148041 0.219604
0.409607 0.177582 0.237518
0.611053 0.204376 0.250885
0.745087 0.228241 0.266541
0.847778 0.253387 0.285370
0.931488 0.274902 0.303802
0.985229 0.293365 0.320709
0.022888 0.162170 0.179504
0.055359 0.174896 0.197876
0.145477 0.209656 0.236694
0.396942 0.265442 0.276733
0.613037 0.294525 0.289062
0.751160 0.315277 0.295532
0.858612 0.335144 0.305511
0.942627 0.356354 0.317139
0.990723 0.376923 0.329254
0.070251 0.268311 0.236694
0.107239 0.280548 0.250275
0.182220 0.309662 0.279327
0.409515 0.377686 0.330841
0.622864 0.411926 0.345856
0.762848 0.431152 0.343445
0.874847 0.445679 0.336548
0.957214 0.463989 0.335358
0.997284 0.484039 0.339813
0.187988 0.409088 0.327484
0.235077 0.424011 0.339935
0.310150 0.449158 0.364166
0.481567 0.491669 0.379089
0.659363 0.530396 0.388824
0.788269 0.551544 0.387512
0.898895 0.562012 0.368958
0.970367 0.574036 0.354065
1.000000 0.588806 0.349762
0.333954 0.541290 0.423248
0.393951 0.557648 0.438202
0.483032 0.574646 0.429810
0.585846 0.588043 0.429077
0.713501 0.640686 0.432739
0.816315 0.672943 0.418884
0.918243 0.676819 0.401245
0.979004 0.682922 0.384460
1.000000 0.692444 0.372925
0.463531 0.645447 0.505249
0.528381 0.659119 0.492249
0.590942 0.661346 0.491882
0.663483 0.674622 0.499969
0.755707 0.732819 0.512177
0.843323 0.795502 0.477753
0.932129 0.805664 0.424133
0.983551 0.800690 0.402313
1.000000 0.804901 0.410431
0.552460 0.729584 0.565460
0.609039 0.741882 0.568665
0.660431 0.756714 0.578308
0.712402 0.775848 0.597168
0.781799 0.821320 0.615936
0.857269 0.883728 0.577240
0.936859 0.919403 0.486572
0.985779 0.917175 0.420990
1.000000 0.912720 0.432587
0.622589 0.812897 0.660492
0.650024 0.829803 0.658539
0.691467 0.846649 0.673676
0.739044 0.874268 0.696808
0.803528 0.907166 0.716248
0.868652 0.945709 0.685822
0.931976 0.982147 0.599274
0.982971 0.989197 0.483490
1.000000 0.984528 0.421722
0.000000 0.084717 0.203247
0.017365 0.087402 0.225647
0.138947 0.102234 0.306854
0.404144 0.151520 0.298553
0.623993 0.180023 0.321075
0.757965 0.203217 0.345123
0.855835 0.224335 0.368256
0.935608 0.241058 0.390839
0.986237 0.257782 0.406372
0.000824 0.132111 0.222473
0.025269 0.140289 0.240143
0.119110 0.163147 0.273529
0.385742 0.207764 0.319489
0.621887 0.237183 0.341003
0.760498 0.263397 0.360748
0.859772 0.283661 0.384552
0.939453 0.299835 0.400360
0.987396 0.313110 0.414062
0.018158 0.185425 0.240967
0.045074 0.197144 0.259094
0.107239 0.218018 0.287506
0.356934 0.290100 0.360352
0.609375 0.320404 0.385956
0.757904 0.339813 0.398102
0.862152 0.357056 0.409821
0.944000 0.372559 0.420471
0.990204 0.387299 0.431458
0.053528 0.267120 0.283508
0.080811 0.280151 0.300201
0.123566 0.299591 0.324890
0.282104 0.365356 0.401062
0.583344 0.434540 0.459045
0.749878 0.453522 0.464020
0.865875 0.466736 0.461884
0.952362 0.479492 0.459656
0.995117 0.493347 0.462463
0.120422 0.382507 0.362061
0.148895 0.396362 0.381134
0.189423 0.411926 0.399109
0.295258 0.457611 0.445740
0.581543 0.555267 0.525513
0.757843 0.579956 0.528290
0.880402 0.591125 0.515594
0.962738 0.599579 0.498566
0.998596 0.608765 0.490234
0.225891 0.507019 0.455963
0.257843 0.520050 0.468292
0.298645 0.534637 0.481812
0.390015 0.570099 0.512543
0.627869 0.660095 0.568207
0.785858 0.693542 0.561462
0.902588 0.704895 0.546143
0.973358 0.710724 0.526947
1.000000 0.716736 0.513733
0.344269 0.617554 0.538635
0.380707 0.629242 0.547943
0.428619 0.644470 0.559845
0.520538 0.677673 0.587524
0.694519 0.744171 0.616394
0.817932 0.798370 0.600891
0.921661 0.821960 0.565094
0.980988 0.824066 0.545959
1.000000 0.829102 0.546844
0.457520 0.709656 0.607880
0.501434 0.721832 0.616760
0.552155 0.739868 0.634918
0.626923 0.773773 0.660187
0.746613 0.825348 0.683502
0.844482 0.876862 0.672729
0.928894 0.921021 0.611694
0.983765 0.928558 0.559845
1.000000 0.928040 0.568024
0.565399 0.799835 0.677216
0.604645 0.814423 0.688934
0.647522 0.832092 0.703735
0.697479 0.855988 0.722412
0.775696 0.899200 0.745361
0.861694 0.939240 0.748505
0.927002 0.977051 0.699493
0.980957 0.990295 0.605011
1.000000 0.986908 0.546082
0.000000 0.117065 0.269043
0.000000 0.114319 0.289581
0.089081 0.131195 0.319000
0.353516 0.181122 0.381165
0.609467 0.214813 0.406189
0.763062 0.234100 0.431122
0.860046 0.256897 0.456421
0.938232 0.274200 0.479828
0.987915 0.289215 0.502289
0.000000 0.167236 0.295654
0.018158 0.171936 0.308929
0.085236 0.182648 0.331390
0.311920 0.233093 0.411743
0.599701 0.272980 0.428101
0.763031 0.294128 0.450531
0.862976 0.313446 0.474121
0.941589 0.330841 0.495514
0.988983 0.346283 0.516602
0.020538 0.219086 0.316193
0.047760 0.229584 0.332611
0.093628 0.242615 0.353760
0.259003 0.296539 0.419128
0.577332 0.347565 0.469910
0.756714 0.367676 0.486969
0.863159 0.384613 0.504608
0.944489 0.399872 0.520813
0.990295 0.414276 0.537476
0.058899 0.288544 0.351013
0.083923 0.302185 0.369720
0.116180 0.317017 0.394684
0.221710 0.356964 0.444580
0.530579 0.452789 0.544373
0.735535 0.474121 0.556580
0.859772 0.486298 0.564117
0.947815 0.495850 0.567688
0.992615 0.506287 0.573944
0.109680 0.376465 0.412415
0.133209 0.390228 0.429749
0.159485 0.404022 0.448608
0.227570 0.433563 0.485321
0.429382 0.518280 0.574188
0.718353 0.596161 0.641205
0.861237 0.607697 0.639313
0.953186 0.613220 0.629944
0.995270 0.619324 0.620483
0.182861 0.480591 0.488037
0.206848 0.493439 0.502869
0.233917 0.506897 0.518982
0.282501 0.528625 0.543793
0.435333 0.595337 0.607513
0.722931 0.702667 0.692566
0.875275 0.722900 0.688141
0.962921 0.730957 0.674713
0.998779 0.735901 0.662018
0.273895 0.586914 0.566895
0.299133 0.598022 0.578186
0.328583 0.610352 0.590637
0.376709 0.630432 0.609772
0.503387 0.682037 0.656738
0.750610 0.796692 0.725189
0.895660 0.832184 0.711060
0.973511 0.846985 0.699799
1.000000 0.854279 0.697021
0.372925 0.682739 0.637085
0.402527 0.694519 0.647430
0.436981 0.707825 0.658447
0.485168 0.726349 0.673187
0.594391 0.774689 0.707489
0.786682 0.868591 0.760712
0.909363 0.916840 0.737213
0.978821 0.939880 0.705841
1.000000 0.944550 0.711975
0.471436 0.775116 0.693573
0.509552 0.788025 0.703735
0.549469 0.802917 0.714996
0.596802 0.820801 0.727997
0.683197 0.860809 0.758209
0.816833 0.926544 0.798676
0.914642 0.968018 0.789337
0.976807 0.990234 0.732147
1.000000 0.990204 0.681458
0.000000 0.149933 0.336334
0.000000 0.144257 0.346863
0.051666 0.151520 0.379700
0.246521 0.182220 0.493408
0.561249 0.248810 0.481323
0.749817 0.271301 0.504730
0.856873 0.285675 0.532349
0.933319 0.300232 0.559326
0.987701 0.315857 0.588684
0.000000 0.202454 0.369537
0.017365 0.204559 0.383331
0.067657 0.208160 0.398102
0.216034 0.239746 0.462616
0.541901 0.302460 0.504669
0.744507 0.325897 0.526794
0.856415 0.342377 0.554352
0.935455 0.359070 0.582031
0.988983 0.377594 0.612732
0.029999 0.258789 0.397675
0.057739 0.266998 0.411133
0.093201 0.274902 0.426636
0.201294 0.300201 0.465942
0.514343 0.372162 0.546875
0.732056 0.397156 0.565643
0.852722 0.413788 0.591125
0.936646 0.430420 0.617004
0.990234 0.449005 0.648743
0.073242 0.320282 0.432281
0.096771 0.332611 0.449158
0.125397 0.344818 0.466827
0.197754 0.368835 0.500305
0.412720 0.443848 0.584442
0.702148 0.495575 0.637207
0.845276 0.510712 0.655426
0.937531 0.521973 0.672302
0.991150 0.535065 0.689514
0.117798 0.391479 0.475403
0.140045 0.404266 0.492249
0.168915 0.417755 0.510468
0.215881 0.439636 0.538574
0.356842 0.495636 0.601776
0.664032 0.604065 0.713562
0.838287 0.621155 0.724823
0.940094 0.627106 0.730530
0.992279 0.634430 0.736481
0.176697 0.473511 0.530670
0.199127 0.485962 0.545715
0.222931 0.498901 0.562012
0.259003 0.516266 0.582916
0.357544 0.558014 0.631195
0.592499 0.656555 0.726135
0.836578 0.726074 0.781738
0.945953 0.737000 0.784973
0.994598 0.744141 0.785278
0.247620 0.564453 0.594910
0.269318 0.575287 0.606689
0.293152 0.586853 0.619690
0.325806 0.601959 0.639893
0.398438 0.633148 0.670288
0.583069 0.712830 0.739899
0.842010 0.823853 0.819061
0.954437 0.852081 0.824768
1.000000 0.866852 0.830444
0.323883 0.652740 0.657288
0.345123 0.662720 0.666809
0.369873 0.674255 0.677673
0.404327 0.690369 0.692200
0.468201 0.719086 0.716522
0.615540 0.785309 0.764832
0.851990 0.899780 0.837097
0.962524 0.939941 0.835876
1.000000 0.955475 0.845886
0.396667 0.733063 0.705231
0.420288 0.743866 0.714111
0.448944 0.760742 0.724213
0.487213 0.777832 0.736969
0.552795 0.804840 0.756317
0.675873 0.857941 0.796173
0.861633 0.948029 0.853668
0.965424 0.986633 0.845551
1.000000 0.993805 0.820282
0.000000 0.182007 0.406708
0.000000 0.174469 0.412170
0.025269 0.175598 0.436707
0.176910 0.203033 0.520508
0.500214 0.280273 0.553467
0.710449 0.310394 0.573761
0.836243 0.324677 0.607422
0.919800 0.336548 0.645416
0.984283 0.348724 0.676300
0.000000 0.234406 0.443268
0.024475 0.235382 0.450623
0.065552 0.236053 0.461517
0.174683 0.257782 0.495056
0.444702 0.321655 0.586060
0.698608 0.362366 0.598114
0.828278 0.380432 0.635498
0.919678 0.394379 0.670654
0.985687 0.408813 0.702454
0.045746 0.292328 0.470642
0.073242 0.299164 0.481873
0.102875 0.303925 0.493469
0.175568 0.316315 0.518829
0.383453 0.367371 0.629089
0.680023 0.427216 0.640778
0.821350 0.447998 0.671417
0.918793 0.462158 0.705078
0.987366 0.477448 0.735779
0.091187 0.353149 0.506012
0.114502 0.363373 0.519623
0.141388 0.372864 0.533203
0.193939 0.387482 0.555420
0.338226 0.430511 0.610443
0.643707 0.513000 0.702545
0.810730 0.533905 0.723450
0.918304 0.546295 0.750916
0.988800 0.560852 0.778076
0.134979 0.416901 0.542694
0.157257 0.428619 0.557159
0.185852 0.440430 0.571899
0.225189 0.457458 0.592651
0.324554 0.494965 0.641144
0.553162 0.578247 0.728455
0.796967 0.630371 0.782837
0.919647 0.640869 0.801453
0.990662 0.652863 0.822906
0.188599 0.485687 0.583801
0.210205 0.497223 0.597046
0.233765 0.509216 0.611115
0.266357 0.524292 0.632202
0.338135 0.554504 0.664917
0.515991 0.623962 0.736755
0.782227 0.720703 0.831299
0.921753 0.737244 0.849457
0.992676 0.752991 0.868042
0.246552 0.559784 0.633698
0.267059 0.570099 0.644623
0.289429 0.580902 0.656769
0.318329 0.594330 0.671234
0.370667 0.616943 0.694397
0.505463 0.671600 0.747101
0.734619 0.776947 0.839142
0.923523 0.838440 0.895416
0.997345 0.861023 0.920837
0.306213 0.633392 0.678131
0.324677 0.642548 0.687012
0.345642 0.652435 0.697021
0.373901 0.665741 0.710022
0.416656 0.685394 0.728210
0.520874 0.729370 0.767120
0.719452 0.824158 0.843018
0.929047 0.919006 0.919006
1.000000 0.952606 0.948059
0.363312 0.705963 0.720520
0.380981 0.714111 0.727844
0.402344 0.724030 0.736633
0.433441 0.739258 0.749634
0.475372 0.764008 0.766388
0.559601 0.800079 0.794342
0.728302 0.875214 0.852478
0.928864 0.972443 0.927490
1.000000 0.997620 0.944061
0.000000 0.217316 0.481384
0.000000 0.207428 0.481323
0.017365 0.204559 0.497894
0.146027 0.227234 0.539001
0.384460 0.278656 0.662079
0.655579 0.352234 0.648438
0.787537 0.378021 0.682648
0.889221 0.388794 0.729584
0.966003 0.399353 0.770996
0.013428 0.272125 0.514008
0.040833 0.271698 0.518768
0.073730 0.270447 0.525726
0.148407 0.279327 0.550873
0.339630 0.316925 0.667297
0.641022 0.397675 0.673950
0.783722 0.427795 0.704895
0.889771 0.441315 0.752350
0.969482 0.452820 0.792358
0.067139 0.326355 0.541260
0.092804 0.331177 0.549805
0.118469 0.333832 0.558289
0.169128 0.339722 0.575287
0.310608 0.373047 0.626892
0.598663 0.449005 0.710449
0.779358 0.485199 0.736237
0.891266 0.500458 0.779968
0.973175 0.511353 0.816406
0.113495 0.386322 0.574768
0.136688 0.394318 0.584778
0.163483 0.401367 0.594940
0.202637 0.410400 0.609619
0.292999 0.433807 0.649628
0.502655 0.491974 0.753540
0.763428 0.555634 0.781158
0.890717 0.571350 0.813873
0.976898 0.583069 0.847076
0.158752 0.446930 0.607483
0.183929 0.456726 0.617767
0.209259 0.467041 0.633026
0.244354 0.480072 0.648071
0.312256 0.504395 0.678223
0.458984 0.552094 0.738037
0.717438 0.627716 0.825195
0.887421 0.651031 0.851685
0.982208 0.664703 0.886963
0.208160 0.506256 0.640839
0.228424 0.516052 0.651276
0.252319 0.527100 0.662964
0.284363 0.540955 0.677429
0.340271 0.564056 0.702454
0.460968 0.609985 0.754852
0.680084 0.688202 0.847900
0.885132 0.733917 0.892426
0.988617 0.753357 0.923828
0.256683 0.567596 0.672485
0.275818 0.576294 0.681641
0.297150 0.586212 0.691803
0.324921 0.598633 0.704315
0.367676 0.617218 0.723419
0.466125 0.657623 0.765747
0.660858 0.734436 0.841034
0.883728 0.821167 0.926147
0.993347 0.843109 0.961060
0.303192 0.628174 0.703857
0.320618 0.636292 0.711487
0.340271 0.645477 0.720428
0.366211 0.657349 0.731873
0.401489 0.673248 0.747101
0.476990 0.704865 0.778076
0.646423 0.779297 0.842834
0.860046 0.875732 0.931152
0.996033 0.931305 0.987122
0.345001 0.687225 0.734497
0.362305 0.695587 0.741241
0.381561 0.704498 0.749390
0.409271 0.716888 0.761108
0.445618 0.734009 0.776062
0.507874 0.763885 0.799255
0.643799 0.824280 0.850891
0.847992 0.919617 0.933807
1.000000 0.999969 1.000000
