design/ux_analyses/Resolume/Resolume Arena/luts/Amater.cube
# Copyright: (C) Copyright 2010-2018 by IWLTBAP SAS
# Cannot be resold, shared or otherwise redistributed
# Website: https://luts.iwltbap.com
TITLE "IWLTBAP Amater (Rec.709, sRGB, DCI-P3)"
LUT_3D_SIZE 5
0.000000 0.000000 0.000793
0.211487 0.042511 0.013397
0.540802 0.086060 0.022064
0.808929 0.140594 0.068939
0.982941 0.201294 0.129547
0.139496 0.137146 0.035492
0.305725 0.165802 0.028381
0.615906 0.232422 0.043243
0.866272 0.301697 0.083344
0.993347 0.367889 0.118774
0.420258 0.344910 0.109711
0.568390 0.364868 0.110779
0.713593 0.466370 0.090881
0.922302 0.509216 0.104156
1.000000 0.557251 0.110809
0.616669 0.562592 0.257629
0.721863 0.587738 0.296173
0.782318 0.739655 0.274628
0.943451 0.777740 0.145966
1.000000 0.768860 0.130798
0.667450 0.817413 0.551819
0.742432 0.848572 0.588562
0.820160 0.905090 0.581573
0.942505 0.985931 0.336029
1.000000 0.980316 0.105682
0.001617 0.029175 0.080994
0.218903 0.063934 0.121918
0.576233 0.113617 0.148956
0.817322 0.166534 0.197052
0.981110 0.213715 0.248444
0.042267 0.154907 0.135132
0.238312 0.205688 0.173309
0.613708 0.270569 0.186798
0.857788 0.318420 0.207733
0.991333 0.372864 0.240784
0.332855 0.431213 0.271698
0.459808 0.422760 0.253540
0.697662 0.500031 0.251038
0.912415 0.531616 0.241760
1.000000 0.570099 0.238678
0.556671 0.617126 0.395782
0.658417 0.618988 0.395691
0.775177 0.733215 0.420471
0.938751 0.791656 0.294250
1.000000 0.786682 0.283661
0.641022 0.817719 0.615112
0.721313 0.859802 0.654480
0.814362 0.908905 0.674835
0.936188 0.984497 0.497009
1.000000 0.982666 0.294128
0.000000 0.084717 0.203247
0.138947 0.102234 0.306854
0.623993 0.180023 0.321075
0.855835 0.224335 0.368256
0.986237 0.257782 0.406372
0.018158 0.185425 0.240967
0.107239 0.218018 0.287506
0.609375 0.320404 0.385956
0.862152 0.357056 0.409821
0.990204 0.387299 0.431458
0.120422 0.382507 0.362061
0.189423 0.411926 0.399109
0.581543 0.555267 0.525513
0.880402 0.591125 0.515594
0.998596 0.608765 0.490234
0.344269 0.617554 0.538635
0.428619 0.644470 0.559845
0.694519 0.744171 0.616394
0.921661 0.821960 0.565094
1.000000 0.829102 0.546844
0.565399 0.799835 0.677216
0.647522 0.832092 0.703735
0.775696 0.899200 0.745361
0.927002 0.977051 0.699493
1.000000 0.986908 0.546082
0.000000 0.149933 0.336334
0.051666 0.151520 0.379700
0.561249 0.248810 0.481323
0.856873 0.285675 0.532349
0.987701 0.315857 0.588684
0.029999 0.258789 0.397675
0.093201 0.274902 0.426636
0.514343 0.372162 0.546875
0.852722 0.413788 0.591125
0.990234 0.449005 0.648743
0.117798 0.391479 0.475403
0.168915 0.417755 0.510468
0.356842 0.495636 0.601776
0.838287 0.621155 0.724823
0.992279 0.634430 0.736481
0.247620 0.564453 0.594910
0.293152 0.586853 0.619690
0.398438 0.633148 0.670288
0.842010 0.823853 0.819061
1.000000 0.866852 0.830444
0.396667 0.733063 0.705231
0.448944 0.760742 0.724213
0.552795 0.804840 0.756317
0.861633 0.948029 0.853668
1.000000 0.993805 0.820282
0.000000 0.217316 0.481384
0.017365 0.204559 0.497894
0.384460 0.278656 0.662079
0.787537 0.378021 0.682648
0.966003 0.399353 0.770996
0.067139 0.326355 0.541260
0.118469 0.333832 0.558289
0.310608 0.373047 0.626892
0.779358 0.485199 0.736237
0.973175 0.511353 0.816406
0.158752 0.446930 0.607483
0.209259 0.467041 0.633026
0.312256 0.504395 0.678223
0.717438 0.627716 0.825195
0.982208 0.664703 0.886963
0.256683 0.567596 0.672485
0.297150 0.586212 0.691803
0.367676 0.617218 0.723419
0.660858 0.734436 0.841034
0.993347 0.843109 0.961060
0.345001 0.687225 0.734497
0.381561 0.704498 0.749390
0.445618 0.734009 0.776062
0.643799 0.824280 0.850891
1.000000 0.999969 1.000000
