design/ux_analyses/Resolume/Resolume Arena/luts/Bularita.cube
# Copyright: (C) Copyright 2010-2018 by IWLTBAP SAS
# Cannot be resold, shared or otherwise redistributed
# Website: https://luts.iwltbap.com
TITLE "IWLTBAP Bularita (Rec.709, sRGB, DCI-P3)"
LUT_3D_SIZE 5
0.000000 0.000000 0.000000
0.248535 0.032776 0.034210
0.491028 0.045532 0.024109
0.723511 0.040558 0.010925
0.954926 0.028290 0.005920
0.266479 0.156433 0.195770
0.392273 0.111267 0.167175
0.524139 0.263306 0.048645
0.758942 0.260864 0.012085
0.992798 0.255249 0.005432
0.670898 0.326691 0.273621
0.722565 0.182648 0.285278
0.682068 0.441101 0.449371
0.757324 0.506805 0.070709
0.999939 0.502869 0.007050
0.804169 0.646729 0.701660
0.882202 0.622467 0.720978
0.823669 0.702881 0.815491
0.791870 0.747681 0.759613
0.990417 0.749329 0.057556
0.861786 0.865753 0.899933
0.886932 0.870453 0.901733
0.888550 0.883667 0.902344
0.912048 0.913116 0.917908
0.960724 0.958710 0.928925
0.018127 0.039429 0.077148
0.177582 0.061646 0.172852
0.417206 0.054718 0.209442
0.663635 0.042816 0.216095
0.912964 0.029907 0.228394
0.068939 0.169617 0.232941
0.235565 0.228088 0.308136
0.517212 0.279053 0.279449
0.742523 0.261139 0.250122
0.972412 0.253204 0.244995
0.178284 0.314728 0.402527
0.435577 0.359741 0.410370
0.614777 0.508759 0.563782
0.764679 0.512756 0.289459
0.999908 0.505707 0.256134
0.397827 0.529999 0.630096
0.648407 0.624207 0.740753
0.788605 0.710815 0.837585
0.799438 0.751801 0.776123
0.993774 0.750549 0.282684
0.738525 0.816986 0.872467
0.825897 0.853271 0.893494
0.885651 0.884155 0.906464
0.914215 0.914978 0.923889
0.962555 0.960724 0.940918
0.030762 0.095886 0.161194
0.284485 0.033142 0.042511
0.472900 0.062805 0.210022
0.631042 0.095673 0.429199
0.818756 0.058655 0.435974
0.080994 0.218384 0.310730
0.225342 0.222931 0.295258
0.540131 0.286713 0.380432
0.708771 0.280396 0.491150
0.902466 0.259674 0.473480
0.158966 0.350067 0.452576
0.213135 0.348816 0.441162
0.509766 0.510284 0.596954
0.765320 0.523560 0.526520
0.990204 0.510498 0.505615
0.324799 0.495575 0.604156
0.396942 0.537445 0.637573
0.615112 0.673523 0.776794
0.803650 0.759979 0.779236
0.997864 0.753479 0.515289
0.558136 0.722717 0.794708
0.635315 0.769501 0.831909
0.798645 0.854309 0.888245
0.919373 0.920135 0.932617
0.967651 0.967010 0.956329
0.069489 0.168915 0.271149
0.367645 0.082886 0.099518
0.556000 0.018127 0.195953
0.647461 0.090027 0.298645
0.785645 0.121521 0.533203
0.117065 0.245605 0.363403
0.298126 0.237976 0.270294
0.623596 0.225525 0.251587
0.762054 0.249451 0.370636
0.872040 0.286682 0.615417
0.173767 0.360260 0.477753
0.223816 0.356750 0.464325
0.482758 0.492737 0.579834
0.786865 0.597595 0.720276
0.957611 0.547119 0.760040
0.311096 0.511261 0.632477
0.356445 0.525543 0.633698
0.505035 0.629974 0.721008
0.773010 0.767731 0.823059
0.996002 0.757416 0.756073
0.546631 0.701111 0.824677
0.585876 0.732971 0.842041
0.683319 0.801147 0.870361
0.878876 0.908112 0.929840
0.981445 0.980591 0.976807
0.174927 0.226898 0.325684
0.399719 0.206848 0.194763
0.536560 0.117065 0.305847
0.696991 0.110809 0.314392
0.842346 0.230621 0.407745
0.184601 0.265106 0.380341
0.329437 0.292603 0.330902
0.626862 0.295135 0.312286
0.837921 0.323425 0.368164
0.934418 0.405762 0.517792
0.226410 0.354950 0.473206
0.288269 0.398254 0.518829
0.525696 0.508087 0.557648
0.828827 0.600555 0.612976
0.931335 0.662201 0.817749
0.340179 0.520752 0.631348
0.382294 0.552307 0.660522
0.493286 0.638641 0.748749
0.722961 0.767731 0.880798
0.911682 0.835358 0.926392
0.543549 0.698944 0.822754
0.576111 0.731293 0.865326
0.659119 0.787476 0.894379
0.829224 0.889130 0.936340
0.999939 0.999878 1.000000
