design/ux_analyses/Resolume/Resolume Arena/luts/Bularita.cube
# Copyright: (C) Copyright 2010-2018 by IWLTBAP SAS
# Cannot be resold, shared or otherwise redistributed
# Website: https://luts.iwltbap.com
TITLE "IWLTBAP Bularita (Rec.709, sRGB, DCI-P3)"
LUT_3D_SIZE 33
0.000000 0.000000 0.000000
0.031525 0.005493 0.006287
0.062225 0.010925 0.012482
0.093414 0.016266 0.017822
0.124023 0.020691 0.022217
0.155701 0.024963 0.027252
0.186554 0.028259 0.030518
0.217407 0.030609 0.032806
0.248535 0.032776 0.034210
0.279419 0.034790 0.034821
0.309753 0.036652 0.033997
0.340271 0.039490 0.033203
0.370300 0.040863 0.031799
0.400665 0.042572 0.029755
0.430847 0.044037 0.028442
0.460938 0.044861 0.025940
0.491028 0.045532 0.024109
0.520782 0.046112 0.021790
0.550507 0.046143 0.020142
0.579712 0.045746 0.017975
0.608856 0.045288 0.016449
0.637756 0.044464 0.014465
0.666412 0.043243 0.013062
0.695007 0.042053 0.011749
0.723511 0.040558 0.010925
0.751953 0.039062 0.009705
0.780487 0.037598 0.008972
0.809143 0.035858 0.008270
0.838043 0.034454 0.007996
0.866974 0.032806 0.007355
0.896149 0.031464 0.006714
0.925446 0.029846 0.006104
0.954926 0.028290 0.005920
0.017334 0.018921 0.037842
0.046143 0.023651 0.042480
0.074341 0.028442 0.044281
0.104156 0.034576 0.046661
0.134338 0.039825 0.047516
0.164154 0.044647 0.046875
0.195343 0.049591 0.045441
0.226776 0.053925 0.043915
0.257629 0.057251 0.041107
0.288483 0.060730 0.038971
0.319122 0.063354 0.036865
0.349426 0.065277 0.034180
0.379333 0.067017 0.032135
0.409241 0.068176 0.029510
0.438904 0.069183 0.027588
0.468506 0.069733 0.025146
0.498291 0.070160 0.023376
0.527557 0.070190 0.021088
0.556732 0.070190 0.019440
0.585815 0.069794 0.017334
0.614594 0.069397 0.015839
0.643280 0.068695 0.014404
0.671661 0.067688 0.013000
0.700134 0.066681 0.011688
0.728455 0.065430 0.010406
0.756866 0.064209 0.009644
0.785278 0.062744 0.008911
0.813812 0.061554 0.008636
0.842499 0.060150 0.007965
0.871307 0.059021 0.007324
0.900360 0.057678 0.006683
0.929535 0.056366 0.006470
0.958954 0.055084 0.005890
0.035492 0.037048 0.075134
0.062195 0.041748 0.078583
0.089539 0.046204 0.079956
0.116180 0.051605 0.075989
0.144867 0.057739 0.073395
0.174347 0.064362 0.069153
0.204407 0.070770 0.063232
0.234802 0.076477 0.057190
0.265717 0.081573 0.050903
0.296722 0.086151 0.045563
0.327240 0.089569 0.040649
0.357178 0.091675 0.036255
0.387024 0.093292 0.032440
0.416779 0.094147 0.029846
0.446198 0.094879 0.026733
0.475464 0.095276 0.024353
0.504700 0.095306 0.022034
0.533905 0.095306 0.020355
0.562775 0.095032 0.018219
0.591583 0.094696 0.016693
0.620148 0.094360 0.015228
0.648712 0.093536 0.013794
0.677002 0.092712 0.012421
0.705261 0.091888 0.011139
0.733459 0.090851 0.010345
0.761749 0.089630 0.009613
0.790161 0.088654 0.008881
0.818573 0.087463 0.008606
0.847107 0.086517 0.007935
0.875854 0.085388 0.007294
0.904785 0.084290 0.007050
0.933838 0.083221 0.006439
0.963104 0.082153 0.005859
0.056183 0.056183 0.112213
0.081940 0.058655 0.112915
0.108246 0.061646 0.112915
0.134705 0.065674 0.110596
0.158752 0.073212 0.098907
0.185974 0.080536 0.091553
0.214294 0.088501 0.083405
0.243713 0.096680 0.074524
0.273224 0.104004 0.065063
0.303223 0.109924 0.055878
0.333466 0.114716 0.047546
0.363373 0.117767 0.040863
0.393280 0.119812 0.034973
0.422760 0.120972 0.030670
0.452179 0.121552 0.027008
0.481415 0.121613 0.024078
0.510498 0.121613 0.021790
0.539551 0.121399 0.019592
0.568451 0.121155 0.017487
0.597046 0.120667 0.015991
0.625580 0.119995 0.014557
0.653931 0.119324 0.013184
0.682190 0.118652 0.011841
0.710480 0.117798 0.011047
0.738708 0.116791 0.010284
0.766876 0.115967 0.009521
0.795258 0.114990 0.008820
0.823639 0.114197 0.008545
0.852112 0.113251 0.007874
0.880798 0.112488 0.007233
0.909576 0.111450 0.007019
0.938538 0.110718 0.006409
0.967651 0.109711 0.006165
0.081940 0.076172 0.145874
0.108246 0.075165 0.143127
0.133881 0.074646 0.139740
0.158936 0.076172 0.135956
0.183533 0.081116 0.131439
0.203461 0.092102 0.114746
0.227356 0.102600 0.103271
0.253815 0.112885 0.093842
0.281464 0.122803 0.082886
0.309845 0.131348 0.071075
0.339020 0.138336 0.059753
0.368500 0.143127 0.049530
0.398041 0.146332 0.040863
0.427582 0.148254 0.034241
0.456940 0.149109 0.028961
0.486176 0.149139 0.024872
0.515350 0.149170 0.021484
0.544403 0.148773 0.019348
0.573242 0.148224 0.017273
0.601807 0.147675 0.015289
0.630432 0.146942 0.014374
0.658844 0.146240 0.013031
0.687225 0.145538 0.011719
0.715454 0.144684 0.010925
0.743835 0.143860 0.010162
0.772064 0.143036 0.009430
0.800507 0.142242 0.009155
0.828918 0.141602 0.008484
0.857361 0.140839 0.007812
0.886047 0.140076 0.007568
0.914703 0.139343 0.006958
0.943573 0.138519 0.006348
0.972656 0.137817 0.006134
0.116028 0.096710 0.173065
0.143097 0.090454 0.164612
0.168884 0.084717 0.156189
0.193115 0.082886 0.150452
0.215668 0.085175 0.147247
0.236389 0.092804 0.143738
0.249634 0.109070 0.125488
0.268463 0.124084 0.111115
0.292236 0.136749 0.101807
0.317902 0.148560 0.089996
0.344727 0.158386 0.076904
0.372864 0.166107 0.063782
0.401703 0.171539 0.051422
0.431030 0.175049 0.041656
0.460419 0.176910 0.033417
0.489746 0.177551 0.027252
0.518890 0.177704 0.023346
0.548096 0.177216 0.020111
0.577026 0.176605 0.017517
0.605927 0.175995 0.015564
0.634613 0.175110 0.014191
0.663269 0.174377 0.012848
0.691772 0.173523 0.012024
0.720276 0.172699 0.011261
0.748688 0.171875 0.010498
0.777130 0.171082 0.009766
0.805603 0.170441 0.009064
0.834198 0.169678 0.008362
0.862732 0.169037 0.007721
0.891418 0.168335 0.007477
0.920135 0.167725 0.006866
0.948975 0.167053 0.006287
0.977997 0.166382 0.006073
0.158447 0.117401 0.190674
0.187317 0.103760 0.174469
0.214417 0.091736 0.160706
0.237640 0.084259 0.151794
0.257385 0.082886 0.148346
0.274414 0.087860 0.149139
0.289856 0.099884 0.150848
0.295746 0.123871 0.133850
0.308411 0.144867 0.117767
0.329376 0.160400 0.108795
0.352905 0.174255 0.096985
0.378479 0.185608 0.082611
0.405609 0.194244 0.068054
0.433990 0.200256 0.054291
0.462860 0.203949 0.042999
0.492096 0.205933 0.033997
0.521484 0.206696 0.027191
0.550812 0.206665 0.022369
0.579926 0.206116 0.019287
0.608948 0.205353 0.016815
0.637909 0.204346 0.014923
0.666809 0.203491 0.013580
0.695587 0.202545 0.012299
0.724274 0.201630 0.011536
0.752960 0.200836 0.010345
0.781647 0.200073 0.009613
0.810394 0.199310 0.008911
0.839111 0.198578 0.008240
0.867889 0.197968 0.008026
0.896637 0.197296 0.007385
0.925476 0.196716 0.006775
0.954346 0.196136 0.006195
0.983368 0.195526 0.005981
0.209259 0.137726 0.197754
0.239899 0.115356 0.174011
0.267487 0.095093 0.154144
0.290161 0.080536 0.142029
0.308350 0.074158 0.138611
0.321838 0.076660 0.142578
0.332611 0.087402 0.150208
0.342377 0.105133 0.157379
0.340790 0.137939 0.142517
0.348083 0.164886 0.126617
0.365326 0.184601 0.115967
0.386963 0.200470 0.104187
0.411102 0.213348 0.089203
0.437439 0.222961 0.073181
0.465179 0.229492 0.058044
0.493866 0.233398 0.045105
0.523041 0.235474 0.035278
0.552429 0.236176 0.028076
0.581757 0.235992 0.022919
0.611115 0.235413 0.019440
0.640289 0.234558 0.016541
0.669403 0.233521 0.014740
0.698395 0.232422 0.013458
0.727386 0.231445 0.012238
0.756378 0.230499 0.011017
0.785400 0.229645 0.010284
0.814392 0.228851 0.009186
0.843353 0.228119 0.008514
0.872375 0.227448 0.007874
0.901337 0.226868 0.007263
0.930389 0.226227 0.006653
0.959351 0.225708 0.006073
0.988464 0.225189 0.005554
0.266479 0.156433 0.195770
0.297607 0.124969 0.166565
0.325226 0.096313 0.142883
0.347046 0.074677 0.128448
0.363464 0.062805 0.124664
0.374512 0.061066 0.129974
0.382080 0.070007 0.141449
0.387665 0.086975 0.155182
0.392273 0.111267 0.167175
0.384186 0.152924 0.153564
0.386627 0.186371 0.137360
0.399567 0.210693 0.123688
0.419769 0.228363 0.112152
0.442810 0.242462 0.096527
0.468231 0.252502 0.079437
0.495605 0.259308 0.062744
0.524139 0.263306 0.048645
0.553314 0.265289 0.037354
0.582764 0.265930 0.029114
0.612274 0.265747 0.023346
0.641693 0.264984 0.019501
0.671051 0.264008 0.016724
0.700409 0.262939 0.014984
0.729614 0.261932 0.013275
0.758942 0.260864 0.012085
0.788177 0.259918 0.010498
0.817444 0.259064 0.009827
0.846710 0.258240 0.008759
0.876007 0.257568 0.008118
0.905212 0.256866 0.007111
0.934418 0.256348 0.006531
0.963562 0.255737 0.005981
0.992798 0.255249 0.005432
0.327209 0.173523 0.189026
0.357422 0.133911 0.158234
0.383545 0.097534 0.133942
0.404144 0.069489 0.119080
0.418365 0.051697 0.115356
0.427704 0.046173 0.120758
0.433136 0.052368 0.133026
0.436279 0.067322 0.149139
0.438385 0.090881 0.166779
0.439240 0.122162 0.181824
0.425568 0.172180 0.168091
0.423950 0.211517 0.150970
0.432556 0.240021 0.132629
0.451385 0.258698 0.121124
0.473511 0.273102 0.104889
0.498383 0.283264 0.086304
0.525482 0.289764 0.068298
0.553925 0.293579 0.052399
0.583069 0.295288 0.039886
0.612671 0.295868 0.031036
0.642334 0.295563 0.024536
0.671967 0.294830 0.020386
0.701508 0.293762 0.017242
0.730988 0.292725 0.014679
0.760529 0.291656 0.013062
0.789978 0.290619 0.011475
0.819519 0.289734 0.010376
0.848999 0.288818 0.009338
0.878540 0.288055 0.008301
0.908051 0.287354 0.007324
0.937408 0.286743 0.006744
0.966705 0.286133 0.005859
0.996002 0.285614 0.005310
0.388184 0.189423 0.181793
0.415619 0.143982 0.153900
0.439362 0.102264 0.132111
0.457367 0.068939 0.119751
0.469971 0.046906 0.117065
0.477966 0.037872 0.122040
0.482666 0.039429 0.132996
0.484863 0.052368 0.147797
0.485352 0.074158 0.165588
0.484863 0.104156 0.184784
0.483246 0.141602 0.201874
0.464844 0.198425 0.186646
0.459564 0.241516 0.167786
0.464508 0.272705 0.144653
0.481720 0.291656 0.131134
0.503235 0.305481 0.113861
0.527802 0.314941 0.093689
0.554718 0.320831 0.073578
0.583252 0.324158 0.056305
0.612610 0.325562 0.042633
0.642303 0.325836 0.032440
0.672150 0.325439 0.025391
0.701904 0.324677 0.020660
0.731659 0.323700 0.017212
0.761383 0.322662 0.014740
0.791046 0.321594 0.012787
0.820801 0.320648 0.011261
0.850494 0.319733 0.009857
0.880249 0.318909 0.008820
0.909882 0.318146 0.007843
0.939362 0.317474 0.006927
0.968719 0.316833 0.006042
0.998047 0.316284 0.005524
0.446594 0.206268 0.179382
0.470337 0.157227 0.156708
0.490356 0.111877 0.140045
0.505859 0.075684 0.131500
0.516479 0.051025 0.130585
0.523254 0.038635 0.135376
0.527527 0.037079 0.144226
0.529785 0.046875 0.155914
0.530518 0.066193 0.170776
0.530151 0.094238 0.188385
0.528259 0.129974 0.208527
0.524292 0.172211 0.227020
0.502167 0.232483 0.209930
0.493530 0.276947 0.188202
0.496155 0.308044 0.161469
0.510956 0.326996 0.141907
0.532135 0.339294 0.122894
0.556671 0.347443 0.100739
0.583679 0.352264 0.078918
0.612335 0.354767 0.060059
0.641876 0.355835 0.045044
0.671783 0.355896 0.033997
0.701752 0.355377 0.026276
0.731720 0.354614 0.020782
0.761688 0.353699 0.017120
0.791565 0.352722 0.014740
0.821472 0.351746 0.012451
0.851288 0.350769 0.010681
0.881165 0.349915 0.009308
0.910919 0.349121 0.008331
0.940491 0.348389 0.007080
0.969879 0.347778 0.006195
0.999176 0.347168 0.005371
0.500122 0.224823 0.185242
0.520294 0.174469 0.167969
0.537018 0.127838 0.156433
0.549316 0.090027 0.151764
0.557770 0.063385 0.152832
0.563599 0.048981 0.158203
0.567535 0.046173 0.165344
0.570404 0.052979 0.174225
0.572357 0.069458 0.184784
0.572968 0.095093 0.198334
0.572052 0.128418 0.215881
0.569214 0.168671 0.237518
0.563171 0.213898 0.257965
0.537231 0.273926 0.238068
0.525665 0.317200 0.212555
0.526489 0.346283 0.181000
0.539124 0.363586 0.152679
0.560364 0.373871 0.131531
0.585175 0.380188 0.107330
0.612427 0.383759 0.083679
0.641357 0.385498 0.063263
0.671051 0.386017 0.047089
0.701172 0.385895 0.035278
0.731354 0.385406 0.026825
0.761505 0.384613 0.021118
0.791565 0.383728 0.017273
0.821686 0.382843 0.014282
0.851654 0.381897 0.012115
0.881592 0.381012 0.010376
0.911407 0.380249 0.008759
0.941010 0.379517 0.007507
0.970398 0.378815 0.006622
0.999695 0.378235 0.005798
0.548737 0.246368 0.199707
0.565613 0.195770 0.186920
0.579163 0.149170 0.178925
0.588959 0.110809 0.177155
0.595734 0.084259 0.180023
0.600342 0.068939 0.185638
0.604187 0.065063 0.192322
0.607361 0.071045 0.198944
0.610779 0.085175 0.206451
0.613342 0.107880 0.215515
0.614410 0.138306 0.228577
0.612823 0.175568 0.247131
0.608337 0.218201 0.271393
0.599274 0.264191 0.294983
0.569794 0.321381 0.271423
0.555878 0.361023 0.240875
0.555420 0.386261 0.202698
0.566498 0.400696 0.162811
0.588226 0.408356 0.139252
0.613464 0.412811 0.112854
0.641144 0.415039 0.087494
0.670319 0.416016 0.065979
0.700256 0.416199 0.048920
0.730560 0.415955 0.036255
0.760925 0.415375 0.027344
0.791199 0.414673 0.021240
0.821472 0.413849 0.016968
0.851624 0.412994 0.013763
0.881714 0.412170 0.011353
0.911591 0.411407 0.009735
0.941254 0.410645 0.008179
0.970612 0.409973 0.007019
0.999847 0.409363 0.006195
0.592377 0.270844 0.221191
0.607239 0.220886 0.210785
0.618683 0.174927 0.205322
0.626678 0.137726 0.204926
0.631866 0.111145 0.208710
0.635620 0.096313 0.214600
0.639313 0.092590 0.221008
0.643005 0.097931 0.226715
0.647430 0.111145 0.232086
0.651825 0.131500 0.238159
0.655151 0.158722 0.246826
0.655884 0.192719 0.260925
0.652679 0.232422 0.282654
0.645020 0.275940 0.311432
0.632263 0.321136 0.338898
0.599426 0.372467 0.310394
0.583801 0.406342 0.272400
0.583038 0.426544 0.225708
0.593994 0.437042 0.175323
0.615875 0.442200 0.145355
0.641754 0.444855 0.117065
0.669861 0.446014 0.090576
0.699310 0.446411 0.068176
0.729462 0.446350 0.050415
0.759888 0.445923 0.037140
0.790405 0.445404 0.027527
0.820892 0.444733 0.021118
0.851288 0.444000 0.016235
0.881531 0.443237 0.013214
0.911530 0.442474 0.010620
0.941254 0.441803 0.009094
0.970673 0.441132 0.007629
0.999939 0.440521 0.006531
0.632629 0.297638 0.246521
0.646545 0.249176 0.237366
0.656738 0.204773 0.232605
0.663544 0.168671 0.232941
0.668030 0.143402 0.237030
0.671234 0.129333 0.242920
0.674805 0.126221 0.249298
0.679047 0.131500 0.254578
0.684326 0.144226 0.259003
0.690033 0.163147 0.263214
0.695129 0.188171 0.268768
0.697968 0.218903 0.278778
0.696472 0.255341 0.296631
0.689606 0.296021 0.324005
0.677460 0.338776 0.359039
0.660187 0.381134 0.390289
0.625183 0.424622 0.354340
0.609283 0.451355 0.306061
0.609467 0.465820 0.248840
0.621674 0.472321 0.189636
0.643524 0.475067 0.149414
0.670105 0.476288 0.119843
0.698639 0.476685 0.092682
0.728333 0.476654 0.069702
0.758667 0.476379 0.051483
0.789246 0.475952 0.037659
0.819946 0.475403 0.027863
0.850555 0.474823 0.020813
0.881042 0.474213 0.015747
0.911255 0.473541 0.012604
0.941101 0.472870 0.010193
0.970612 0.472321 0.008179
0.999939 0.471680 0.006836
0.670898 0.326691 0.273621
0.684540 0.280151 0.264526
0.694427 0.237701 0.260040
0.700958 0.203430 0.260315
0.705139 0.179596 0.264221
0.708282 0.167023 0.270142
0.711945 0.164368 0.276215
0.716675 0.170074 0.281311
0.722565 0.182648 0.285278
0.729156 0.201080 0.288635
0.735474 0.224487 0.292755
0.739471 0.252625 0.299988
0.739349 0.285675 0.314362
0.733337 0.322968 0.338867
0.720734 0.363190 0.374451
0.703094 0.403534 0.416290
0.682068 0.441101 0.449371
0.647034 0.475159 0.401642
0.632904 0.494293 0.340057
0.635284 0.503235 0.270874
0.649170 0.506348 0.202759
0.671326 0.506958 0.151184
0.698547 0.507233 0.121094
0.727386 0.507080 0.093781
0.757324 0.506805 0.070709
0.787842 0.506439 0.052246
0.818604 0.506012 0.038116
0.849457 0.505554 0.027771
0.880188 0.505035 0.020355
0.910645 0.504486 0.015198
0.940735 0.503937 0.011688
0.970398 0.503387 0.009155
0.999939 0.502869 0.007050
0.707367 0.357758 0.301361
0.721588 0.313934 0.292236
0.732147 0.273895 0.287506
0.739136 0.241852 0.287476
0.743652 0.219971 0.291229
0.747253 0.208527 0.296783
0.751160 0.206848 0.302582
0.756256 0.213135 0.307404
0.762482 0.225861 0.311218
0.769226 0.243713 0.314484
0.775452 0.265930 0.318298
0.779572 0.292236 0.324554
0.779785 0.322296 0.336731
0.774200 0.356140 0.358643
0.761505 0.392944 0.392670
0.742554 0.431000 0.437042
0.720367 0.466980 0.483704
0.697662 0.498047 0.513672
0.665833 0.522217 0.449280
0.655365 0.534119 0.371826
0.660706 0.538452 0.290436
0.676575 0.538910 0.214081
0.699188 0.537994 0.150787
0.726929 0.537689 0.120880
0.756134 0.537292 0.093933
0.786255 0.536865 0.071045
0.816986 0.536469 0.052582
0.847961 0.536102 0.038239
0.878906 0.535675 0.027557
0.909668 0.535248 0.019897
0.940094 0.534821 0.014526
0.970093 0.534393 0.010529
0.999908 0.533966 0.007446
0.741486 0.391266 0.331543
0.757080 0.350800 0.322327
0.768921 0.313934 0.317047
0.776978 0.284485 0.316711
0.782349 0.264679 0.320038
0.786560 0.254883 0.325226
0.790894 0.253998 0.330780
0.796021 0.260773 0.335571
0.801910 0.273621 0.339508
0.808105 0.291077 0.343323
0.813416 0.312256 0.347809
0.816589 0.336853 0.354523
0.815979 0.364258 0.366211
0.809967 0.394623 0.386475
0.797058 0.427795 0.418549
0.777435 0.462494 0.462433
0.753510 0.496216 0.512512
0.729706 0.526093 0.557831
0.708862 0.549500 0.578217
0.683044 0.564545 0.493317
0.677521 0.570587 0.399475
0.686096 0.571533 0.306824
0.703918 0.570435 0.223602
0.727417 0.568695 0.154480
0.755341 0.567902 0.119354
0.784851 0.567383 0.093170
0.815247 0.566925 0.070770
0.846130 0.566559 0.052429
0.877258 0.566223 0.038025
0.908325 0.565918 0.027252
0.939056 0.565582 0.019073
0.969513 0.565277 0.013123
0.999756 0.564941 0.008209
0.771118 0.427887 0.367462
0.788574 0.391479 0.358063
0.802216 0.358368 0.352539
0.811829 0.332092 0.351593
0.818512 0.314636 0.354523
0.823303 0.306458 0.359528
0.827728 0.306458 0.365051
0.832550 0.313690 0.370148
0.837555 0.326355 0.374817
0.842316 0.343201 0.379669
0.845856 0.363281 0.385559
0.847168 0.386017 0.393677
0.845001 0.410858 0.406128
0.837982 0.438049 0.425873
0.824707 0.467346 0.455963
0.805084 0.498138 0.497467
0.780853 0.528564 0.546722
0.755890 0.556213 0.595154
0.734558 0.578461 0.631378
0.718658 0.594238 0.636871
0.700348 0.602112 0.530579
0.699890 0.604004 0.421814
0.711487 0.603058 0.320007
0.730988 0.601074 0.231506
0.755615 0.599121 0.159210
0.783752 0.597961 0.116638
0.813568 0.597443 0.091614
0.844208 0.597015 0.069946
0.875275 0.596710 0.051910
0.906555 0.596436 0.037506
0.937714 0.596222 0.026154
0.968628 0.596039 0.017426
0.999390 0.595856 0.009949
0.793732 0.468048 0.413635
0.813110 0.436371 0.404236
0.828766 0.407593 0.398529
0.840179 0.384857 0.397186
0.848053 0.370087 0.399719
0.853607 0.363464 0.404663
0.857941 0.364655 0.410461
0.861755 0.371887 0.416290
0.865356 0.384094 0.422150
0.868042 0.400085 0.428528
0.869293 0.418610 0.436096
0.868347 0.439240 0.446075
0.864227 0.461548 0.459656
0.855988 0.485413 0.479126
0.842499 0.510803 0.507172
0.823608 0.537262 0.544708
0.800629 0.563599 0.589874
0.776459 0.587799 0.636322
0.754913 0.607910 0.674927
0.739227 0.622925 0.696411
0.729553 0.632416 0.684570
0.718506 0.635590 0.559113
0.722473 0.635193 0.438599
0.736664 0.633301 0.330261
0.757782 0.631134 0.238220
0.783539 0.629242 0.163544
0.812256 0.627991 0.112915
0.842377 0.627502 0.089233
0.873260 0.627167 0.068420
0.904510 0.626923 0.050781
0.935944 0.626770 0.036102
0.967316 0.626678 0.024109
0.998596 0.626587 0.013611
0.807190 0.511780 0.472748
0.828400 0.485291 0.463898
0.845795 0.461121 0.458191
0.858917 0.442322 0.456787
0.867828 0.430206 0.459076
0.873810 0.425385 0.464020
0.877838 0.427155 0.470276
0.880585 0.434387 0.476990
0.882324 0.445831 0.484131
0.882904 0.460388 0.492065
0.881805 0.477051 0.501312
0.878723 0.495270 0.512573
0.872986 0.514618 0.526978
0.863922 0.535095 0.545898
0.850739 0.556458 0.571075
0.833405 0.578400 0.603638
0.812836 0.600128 0.642426
0.791107 0.620300 0.683350
0.771088 0.637482 0.719391
0.755615 0.650818 0.742645
0.746368 0.660034 0.746887
0.742523 0.665375 0.718658
0.737549 0.666077 0.578796
0.745178 0.664764 0.450684
0.761627 0.662781 0.338593
0.784271 0.660797 0.244293
0.811188 0.659180 0.167725
0.840942 0.658020 0.108185
0.871338 0.657654 0.085968
0.902435 0.657410 0.066071
0.933899 0.657288 0.048676
0.965546 0.657257 0.033569
0.997192 0.657227 0.020203
0.811584 0.557800 0.544128
0.833893 0.536499 0.536316
0.852722 0.517181 0.531189
0.866974 0.502106 0.529785
0.876862 0.492767 0.532104
0.883240 0.489288 0.536957
0.886810 0.491455 0.543427
0.888550 0.498199 0.550842
0.888672 0.508484 0.558990
0.887360 0.521301 0.567993
0.884430 0.535706 0.578186
0.879730 0.551239 0.590057
0.873016 0.567596 0.604156
0.863800 0.584564 0.621613
0.851654 0.601898 0.643402
0.836548 0.619446 0.670258
0.818970 0.636597 0.701477
0.800568 0.652588 0.734741
0.783386 0.666473 0.764801
0.769379 0.677765 0.785492
0.760406 0.686096 0.791473
0.756775 0.691681 0.779907
0.757477 0.694733 0.739624
0.757355 0.694611 0.591553
0.767944 0.693329 0.459808
0.786377 0.691589 0.345978
0.810516 0.690094 0.250244
0.838684 0.688965 0.172089
0.869537 0.688232 0.110474
0.900574 0.687958 0.082001
0.931824 0.687836 0.063019
0.963409 0.687805 0.045807
0.995148 0.687836 0.030182
0.809357 0.603638 0.622955
0.832123 0.587280 0.616638
0.851654 0.572418 0.612579
0.866760 0.560883 0.611542
0.877289 0.553741 0.613739
0.883820 0.551483 0.618378
0.887238 0.553680 0.624786
0.888184 0.559662 0.632324
0.887207 0.568390 0.640656
0.884705 0.579132 0.649902
0.880707 0.591217 0.660065
0.875153 0.604034 0.671417
0.868195 0.617279 0.684296
0.859344 0.630798 0.699249
0.848694 0.644501 0.716980
0.835968 0.658142 0.737854
0.821716 0.671265 0.761475
0.806885 0.683472 0.786163
0.792938 0.694366 0.808533
0.781281 0.703522 0.824036
0.773224 0.710785 0.828461
0.769653 0.716187 0.819611
0.770325 0.719879 0.797668
0.774048 0.721802 0.751465
0.777649 0.721954 0.600647
0.790710 0.721161 0.467957
0.810944 0.720154 0.353424
0.836609 0.719299 0.256592
0.866058 0.718750 0.176880
0.897949 0.718506 0.113464
0.929993 0.718445 0.077545
0.961243 0.718445 0.059692
0.992737 0.718536 0.043152
0.804169 0.646729 0.701660
0.826874 0.634735 0.697296
0.846527 0.623596 0.694489
0.861969 0.615082 0.694092
0.872925 0.609833 0.696259
0.879700 0.608276 0.700500
0.882996 0.610291 0.706299
0.883636 0.615234 0.713165
0.882202 0.622467 0.720978
0.879089 0.631104 0.729370
0.874695 0.640808 0.738464
0.869080 0.651031 0.748291
0.862366 0.661621 0.759003
0.854431 0.672150 0.770844
0.845306 0.682678 0.784210
0.834961 0.693024 0.799194
0.823669 0.702881 0.815491
0.812225 0.712128 0.832001
0.801331 0.720490 0.846375
0.792175 0.727905 0.855774
0.785736 0.734100 0.857391
0.782562 0.739227 0.849640
0.782837 0.743225 0.832489
0.786224 0.745941 0.806610
0.791870 0.747681 0.759613
0.798340 0.748566 0.609009
0.813507 0.748688 0.476685
0.835480 0.748566 0.361938
0.862518 0.748505 0.264191
0.893158 0.748627 0.183014
0.926056 0.748932 0.117767
0.959412 0.749237 0.073517
0.990417 0.749329 0.057556
0.799805 0.685333 0.772400
0.821777 0.676697 0.770020
0.841064 0.668762 0.768616
0.856415 0.662445 0.768860
0.867493 0.658691 0.770935
0.874481 0.657715 0.774536
0.877869 0.659363 0.779358
0.878540 0.663269 0.785034
0.877014 0.668945 0.791351
0.873871 0.675812 0.798187
0.869598 0.683472 0.805450
0.864319 0.691437 0.812988
0.858215 0.699707 0.820923
0.851349 0.707916 0.829346
0.843750 0.715881 0.838318
0.835449 0.723694 0.847839
0.826813 0.731201 0.857727
0.818085 0.738281 0.867096
0.809998 0.744873 0.874695
0.803192 0.750824 0.878754
0.798370 0.756256 0.877808
0.795990 0.761139 0.870819
0.796051 0.765198 0.857544
0.798706 0.768555 0.838257
0.803650 0.771027 0.813110
0.810425 0.772888 0.768005
0.819336 0.774963 0.619110
0.836365 0.776184 0.487640
0.859863 0.777130 0.372833
0.888092 0.777954 0.274353
0.919647 0.778778 0.192047
0.953369 0.779602 0.125061
0.988495 0.780304 0.072327
0.798615 0.718903 0.828522
0.819458 0.712952 0.828003
0.837891 0.707336 0.827942
0.852753 0.702881 0.828705
0.863647 0.700226 0.830627
0.870544 0.699524 0.833496
0.874054 0.700775 0.837067
0.874878 0.703918 0.841187
0.873596 0.708344 0.845673
0.870789 0.713623 0.850403
0.866882 0.719604 0.855316
0.862152 0.725830 0.860321
0.856903 0.732208 0.865356
0.851135 0.738556 0.870422
0.844971 0.744720 0.875458
0.838501 0.750793 0.880615
0.831879 0.756622 0.885468
0.825562 0.762299 0.889648
0.819763 0.767670 0.892456
0.814941 0.772705 0.892975
0.811584 0.777466 0.890564
0.809937 0.781982 0.884583
0.810120 0.786194 0.874817
