design/ux_analyses/Resolume/Resolume Arena/luts/Bularita.cube
# Copyright: (C) Copyright 2010-2018 by IWLTBAP SAS
# Cannot be resold, shared or otherwise redistributed
# Website: https://luts.iwltbap.com
TITLE "IWLTBAP Bularita (Rec.709, sRGB, DCI-P3)"
LUT_3D_SIZE 9
0.000000 0.000000 0.000000
0.124023 0.020691 0.022217
0.248535 0.032776 0.034210
0.370300 0.040863 0.031799
0.491028 0.045532 0.024109
0.608856 0.045288 0.016449
0.723511 0.040558 0.010925
0.838043 0.034454 0.007996
0.954926 0.028290 0.005920
0.081940 0.076172 0.145874
0.183533 0.081116 0.131439
0.281464 0.122803 0.082886
0.398041 0.146332 0.040863
0.515350 0.149170 0.021484
0.630432 0.146942 0.014374
0.743835 0.143860 0.010162
0.857361 0.140839 0.007812
0.972656 0.137817 0.006134
0.266479 0.156433 0.195770
0.363464 0.062805 0.124664
0.392273 0.111267 0.167175
0.419769 0.228363 0.112152
0.524139 0.263306 0.048645
0.641693 0.264984 0.019501
0.758942 0.260864 0.012085
0.876007 0.257568 0.008118
0.992798 0.255249 0.005432
0.500122 0.224823 0.185242
0.557770 0.063385 0.152832
0.572357 0.069458 0.184784
0.563171 0.213898 0.257965
0.539124 0.363586 0.152679
0.641357 0.385498 0.063263
0.761505 0.384613 0.021118
0.881592 0.381012 0.010376
0.999695 0.378235 0.005798
0.670898 0.326691 0.273621
0.705139 0.179596 0.264221
0.722565 0.182648 0.285278
0.739349 0.285675 0.314362
0.682068 0.441101 0.449371
0.649170 0.506348 0.202759
0.757324 0.506805 0.070709
0.880188 0.505035 0.020355
0.999939 0.502869 0.007050
0.793732 0.468048 0.413635
0.848053 0.370087 0.399719
0.865356 0.384094 0.422150
0.864227 0.461548 0.459656
0.800629 0.563599 0.589874
0.729553 0.632416 0.684570
0.757782 0.631134 0.238220
0.873260 0.627167 0.068420
0.998596 0.626587 0.013611
0.804169 0.646729 0.701660
0.872925 0.609833 0.696259
0.882202 0.622467 0.720978
0.862366 0.661621 0.759003
0.823669 0.702881 0.815491
0.785736 0.734100 0.857391
0.791870 0.747681 0.759613
0.862518 0.748505 0.264191
0.990417 0.749329 0.057556
0.809174 0.774353 0.888763
0.863342 0.765961 0.894562
0.873474 0.771393 0.899902
0.862274 0.786011 0.904114
0.848022 0.801941 0.905579
0.839539 0.818024 0.901123
0.845398 0.834503 0.881958
0.865265 0.851379 0.831909
0.959686 0.868835 0.335083
0.861786 0.865753 0.899933
0.882233 0.867096 0.901672
0.886932 0.870453 0.901733
0.886749 0.875946 0.901672
0.888550 0.883667 0.902344
0.896240 0.895569 0.906738
0.912048 0.913116 0.917908
0.932068 0.932861 0.932343
0.960724 0.958710 0.928925
0.009460 0.015778 0.034698
0.092163 0.043243 0.084717
0.198456 0.054474 0.111267
0.321228 0.051971 0.111450
0.452728 0.047516 0.110352
0.581787 0.045135 0.113037
0.703674 0.041077 0.115601
0.822235 0.034393 0.116852
0.941803 0.026794 0.117340
0.043243 0.082397 0.130585
0.125275 0.104523 0.163391
0.247223 0.140808 0.162415
0.377686 0.156158 0.144775
0.499176 0.152924 0.131561
0.616577 0.147705 0.126007
0.731049 0.143066 0.123077
0.845459 0.138489 0.121399
0.961884 0.134399 0.120453
0.104919 0.160217 0.231934
0.210938 0.152313 0.225525
0.317108 0.199829 0.253204
0.410797 0.259369 0.208282
0.525635 0.272308 0.162567
0.641266 0.268127 0.140961
0.756287 0.262268 0.133179
0.871307 0.257568 0.128448
0.987030 0.254181 0.125519
0.204407 0.244171 0.314972
0.364380 0.190460 0.231110
0.476166 0.208130 0.240387
0.522400 0.307434 0.335663
0.537842 0.382141 0.244232
0.645508 0.390656 0.172821
0.763947 0.387115 0.141296
0.882629 0.382538 0.132935
0.999084 0.379028 0.128998
0.316956 0.334290 0.399109
0.512848 0.274170 0.294250
0.649261 0.278229 0.278229
0.701965 0.359833 0.349762
0.662231 0.475586 0.498627
0.650574 0.510651 0.279449
0.760590 0.509155 0.178436
0.882050 0.506500 0.139526
1.000000 0.503754 0.129944
0.435760 0.454132 0.529602
0.634430 0.431396 0.463226
0.773865 0.442169 0.447510
0.828339 0.496826 0.485626
0.781921 0.581085 0.618378
0.728973 0.637054 0.699066
0.760925 0.632629 0.312897
0.875488 0.628296 0.177734
0.999054 0.627319 0.134186
0.553528 0.601562 0.710052
0.703308 0.616547 0.719543
0.804718 0.637878 0.736145
0.839355 0.669861 0.768311
0.817810 0.706512 0.821808
0.785126 0.735718 0.860229
0.795135 0.749176 0.768463
0.865784 0.749512 0.338165
0.991791 0.749756 0.169708
0.683838 0.737885 0.835388
0.769897 0.754608 0.867950
0.829285 0.770325 0.890717
0.851135 0.786469 0.903137
0.847046 0.802734 0.907104
0.839905 0.818848 0.903015
0.846558 0.835327 0.884155
0.867889 0.851807 0.835876
0.962799 0.869141 0.401733
0.819794 0.852509 0.892151
0.850922 0.860748 0.898163
0.872345 0.868378 0.901550
0.883606 0.875854 0.903259
0.889221 0.884277 0.904663
0.897034 0.896271 0.909302
0.912781 0.913727 0.920654
0.932800 0.933594 0.935364
0.961334 0.959320 0.934631
0.018127 0.039429 0.077148
0.078613 0.054291 0.137146
0.177582 0.061646 0.172852
0.295441 0.060394 0.201752
0.417206 0.054718 0.209442
0.541168 0.048401 0.211670
0.663635 0.042816 0.216095
0.787689 0.036499 0.222656
0.912964 0.029907 0.228394
0.036255 0.097534 0.146423
0.090881 0.114319 0.190857
0.204742 0.145599 0.232605
0.349976 0.164001 0.252594
0.473999 0.157745 0.244293
0.587646 0.146179 0.233093
0.701569 0.138977 0.229675
0.818115 0.135193 0.231079
0.938660 0.132690 0.234619
0.068939 0.169617 0.232941
0.121399 0.182861 0.264221
0.235565 0.228088 0.308136
0.387878 0.273041 0.302765
0.517212 0.279053 0.279449
0.630615 0.269348 0.259521
0.742523 0.261139 0.250122
0.856262 0.256134 0.246185
0.972412 0.253204 0.244995
0.117401 0.244659 0.320953
0.189209 0.250671 0.334900
0.305725 0.288513 0.366486
0.438568 0.364838 0.425446
0.532562 0.396454 0.335175
0.648468 0.396606 0.286407
0.764404 0.390015 0.264435
0.880768 0.384186 0.256927
0.995728 0.380310 0.253235
0.178284 0.314728 0.402527
0.286316 0.326019 0.407043
0.435577 0.359741 0.410370
0.560547 0.432343 0.478424
0.614777 0.508759 0.563782
0.650696 0.515442 0.356232
0.764679 0.512756 0.289459
0.884338 0.508728 0.262115
0.999908 0.505707 0.256134
0.267090 0.402954 0.500458
0.394928 0.434845 0.528015
0.561005 0.479828 0.541931
0.694672 0.539001 0.578308
0.724487 0.604675 0.680389
0.723053 0.643921 0.715057
0.763824 0.634521 0.382019
0.878479 0.630188 0.288910
0.999481 0.628754 0.257721
0.397827 0.529999 0.630096
0.510498 0.573456 0.687378
0.648407 0.624207 0.740753
0.757019 0.672058 0.786865
0.788605 0.710815 0.837585
0.779968 0.738281 0.863037
0.799438 0.751801 0.776123
0.870209 0.751099 0.407928
0.993774 0.750549 0.282684
0.562988 0.677551 0.763550
0.641357 0.710693 0.806335
0.733307 0.747681 0.853119
0.805878 0.779510 0.888641
0.834686 0.802216 0.904449
0.838654 0.820007 0.903595
0.848267 0.836731 0.885925
0.872375 0.852631 0.838013
0.968140 0.869690 0.462402
0.738525 0.816986 0.872467
0.780182 0.834167 0.883118
0.825897 0.853271 0.893494
0.863831 0.870514 0.901459
0.885651 0.884155 0.906464
0.898468 0.897583 0.912354
0.914215 0.914978 0.923889
0.934143 0.934814 0.938782
0.962555 0.960724 0.940918
0.026001 0.067841 0.119415
0.098328 0.065643 0.146973
0.221375 0.048981 0.121735
0.319580 0.062225 0.192535
0.425934 0.078400 0.296478
0.531586 0.074493 0.331848
0.631500 0.060883 0.330109
0.738251 0.047699 0.327179
0.859436 0.037781 0.331604
0.039429 0.122040 0.185211
0.094666 0.128113 0.216766
0.219269 0.138306 0.220490
0.360535 0.161682 0.269745
0.476135 0.171509 0.343903
0.573395 0.159576 0.356293
0.669495 0.144684 0.344421
0.775146 0.136078 0.339203
0.894501 0.133179 0.343170
0.072083 0.194336 0.269745
0.102234 0.198334 0.286560
0.199524 0.225525 0.321045
0.365234 0.278381 0.376801
0.509399 0.292511 0.402222
0.616333 0.277618 0.386749
0.717834 0.262543 0.367828
0.826019 0.255157 0.360413
0.942352 0.253235 0.360687
0.113617 0.266205 0.350250
0.132690 0.265381 0.354034
0.206848 0.290436 0.384003
0.365326 0.364746 0.452393
0.520416 0.402924 0.430786
0.644073 0.402924 0.406891
0.756226 0.392975 0.387756
0.868500 0.385803 0.378906
0.982544 0.381927 0.375275
0.162659 0.326355 0.416656
0.187744 0.330109 0.424561
0.263794 0.359039 0.456482
0.407562 0.437134 0.536407
0.559631 0.518646 0.590210
0.650757 0.520966 0.445129
0.767487 0.517120 0.404114
0.884735 0.511383 0.386627
0.998444 0.508057 0.382660
0.234589 0.393585 0.490387
0.273193 0.410706 0.512482
0.364075 0.453949 0.560455
0.507660 0.531189 0.640137
0.629395 0.608490 0.726227
0.707977 0.649628 0.717285
0.763977 0.635254 0.447510
0.881836 0.632660 0.402161
0.999786 0.630951 0.383972
0.342377 0.495178 0.592285
0.390289 0.523315 0.624847
0.482880 0.574188 0.685150
0.612579 0.643463 0.766449
0.713074 0.703125 0.836182
0.761597 0.739197 0.853271
0.803528 0.755676 0.779663
0.875153 0.753174 0.475586
0.995941 0.751862 0.397797
0.478943 0.626495 0.712921
0.526794 0.654755 0.741302
0.606689 0.698120 0.786896
0.709229 0.750397 0.842987
0.789124 0.792603 0.884216
0.827240 0.819611 0.897919
0.849487 0.838867 0.886017
0.878143 0.855011 0.842865
0.973999 0.871674 0.525970
0.626312 0.760559 0.828796
0.668884 0.783112 0.845551
0.730469 0.813873 0.866241
0.802185 0.848053 0.887085
0.859863 0.876526 0.902893
0.897095 0.898682 0.915405
0.916626 0.917175 0.927917
0.936310 0.936981 0.942871
0.964630 0.963196 0.948090
0.030762 0.095886 0.161194
0.136566 0.082886 0.138306
0.284485 0.033142 0.042511
0.389648 0.018921 0.089142
0.472900 0.062805 0.210022
0.548889 0.100433 0.359863
0.631042 0.095673 0.429199
0.719574 0.076599 0.440186
0.818756 0.058655 0.435974
0.048981 0.149384 0.228088
0.123993 0.147797 0.227570
0.282654 0.120087 0.142273
0.433899 0.100311 0.141998
0.529175 0.132996 0.250214
0.589783 0.169708 0.395844
0.665894 0.167786 0.453247
0.753693 0.154358 0.457031
0.853241 0.144165 0.451599
0.080994 0.218384 0.310730
0.113953 0.216400 0.314850
0.225342 0.222931 0.295258
0.398346 0.249146 0.300354
0.540131 0.286713 0.380432
0.625244 0.294373 0.472839
0.708771 0.280396 0.491150
0.800201 0.266785 0.481415
0.902466 0.259674 0.473480
0.116730 0.288269 0.387390
0.129333 0.279449 0.377747
0.187531 0.288635 0.385925
0.333405 0.350067 0.447113
0.513489 0.423859 0.526093
0.644073 0.426575 0.540070
0.747772 0.408478 0.521057
0.848755 0.394257 0.503113
0.956360 0.387024 0.494324
0.158966 0.350067 0.452576
0.170532 0.342072 0.439850
0.213135 0.348816 0.441162
0.331329 0.412720 0.506409
0.509766 0.510284 0.596954
0.645020 0.526611 0.547241
0.765320 0.523560 0.526520
0.878357 0.515625 0.511932
0.990204 0.510498 0.505615
0.225037 0.412567 0.520752
0.242310 0.414001 0.517487
0.286316 0.430908 0.528839
0.389191 0.492554 0.591125
0.541473 0.586426 0.685150
0.684021 0.651031 0.706543
0.765442 0.638550 0.545135
0.883759 0.635498 0.518707
0.999268 0.632935 0.509308
0.324799 0.495575 0.604156
0.348511 0.508362 0.613037
0.396942 0.537445 0.637573
0.490326 0.596649 0.696747
0.615112 0.673523 0.776794
0.724030 0.732819 0.819519
0.803650 0.759979 0.779236
0.878326 0.753998 0.545135
0.997864 0.753479 0.515289
0.442474 0.604980 0.700104
0.469299 0.623016 0.714935
0.518829 0.655121 0.742279
0.603027 0.706146 0.787964
0.706787 0.764771 0.841644
0.792297 0.811646 0.878479
0.845551 0.840454 0.881958
0.885925 0.858582 0.847717
0.982635 0.874115 0.588715
0.558136 0.722717 0.794708
0.586243 0.740479 0.809601
0.635315 0.769501 0.831909
0.711029 0.810425 0.860260
0.798645 0.854309 0.888245
0.873352 0.892151 0.912781
0.919373 0.920135 0.932617
0.939728 0.940277 0.947815
0.967651 0.967010 0.956329
0.042511 0.130890 0.212433
0.166748 0.114685 0.161713
0.334137 0.041016 0.053650
0.443237 0.003937 0.096710
0.529938 0.011047 0.157196
0.583221 0.068939 0.253387
0.634308 0.116852 0.404449
0.711823 0.109100 0.493439
0.804779 0.088257 0.533661
0.065063 0.177582 0.273346
0.154114 0.171936 0.244995
0.328888 0.125580 0.128723
0.480530 0.081482 0.129974
0.581085 0.076172 0.186279
0.630707 0.120728 0.276886
0.671753 0.171021 0.431885
0.746033 0.174774 0.518738
0.838501 0.164520 0.555054
0.094666 0.235565 0.343750
0.137146 0.230927 0.332550
0.268463 0.225006 0.268463
0.453674 0.222778 0.222595
0.600250 0.235870 0.260193
0.677368 0.264496 0.358337
0.721985 0.286194 0.505127
0.794769 0.283844 0.571045
0.885834 0.275574 0.589417
0.124969 0.298401 0.410461
0.140015 0.287109 0.396057
0.202454 0.292358 0.390747
0.351898 0.339294 0.409271
0.534271 0.402954 0.459442
0.672699 0.446075 0.543243
0.757385 0.436523 0.617310
0.841156 0.417328 0.628510
0.933868 0.403168 0.619934
0.160706 0.364288 0.477051
0.172394 0.350891 0.456879
0.208344 0.350464 0.449860
0.308716 0.403473 0.504120
0.476685 0.499603 0.604828
0.650330 0.569916 0.678680
0.769257 0.554230 0.669312
0.870331 0.534546 0.647980
0.972504 0.521179 0.632141
0.219635 0.431885 0.548340
0.234070 0.425232 0.534912
0.266785 0.429016 0.528717
0.344879 0.474304 0.567596
0.484131 0.565308 0.657623
0.650391 0.649384 0.726685
0.762543 0.643188 0.655090
0.880707 0.640320 0.641235
0.994476 0.635834 0.633270
0.314850 0.506683 0.626648
0.332214 0.510803 0.625244
0.365326 0.526062 0.631226
0.430511 0.569061 0.664001
0.540588 0.643036 0.729034
0.676178 0.719482 0.789673
0.794678 0.764313 0.788818
0.879486 0.755493 0.647949
0.998840 0.755066 0.634888
0.431305 0.600372 0.714478
0.449554 0.611969 0.720734
0.481506 0.633942 0.734375
0.538849 0.674194 0.762848
0.629303 0.732300 0.806702
0.738525 0.793884 0.852356
0.830414 0.838959 0.874603
0.891754 0.863800 0.858093
0.994080 0.875458 0.654266
0.546692 0.708374 0.803589
0.563385 0.721588 0.811768
0.592896 0.743744 0.825317
0.645691 0.778503 0.845581
0.726929 0.824463 0.871643
0.826843 0.875397 0.903137
0.913574 0.920471 0.935242
0.945007 0.944824 0.953674
0.972900 0.972565 0.966125
0.069489 0.168915 0.271149
0.192932 0.156433 0.204376
0.367645 0.082886 0.099518
0.473816 0.034698 0.158203
0.556000 0.018127 0.195953
0.617950 0.022858 0.228271
0.647461 0.090027 0.298645
0.700439 0.130066 0.438110
0.785645 0.121521 0.533203
0.091309 0.203400 0.315186
0.182861 0.199127 0.269745
0.353333 0.157440 0.158234
0.496155 0.114319 0.178467
0.588837 0.095093 0.228577
0.656006 0.091309 0.255035
0.689972 0.131195 0.317413
0.738007 0.174530 0.458038
0.818665 0.182373 0.554016
0.117065 0.245605 0.363403
0.164856 0.243408 0.344177
0.298126 0.237976 0.270294
0.481995 0.226562 0.220856
0.623596 0.225525 0.251587
0.717010 0.227753 0.291351
0.762054 0.249451 0.370636
0.799225 0.278351 0.522278
0.872040 0.286682 0.615417
0.141144 0.296539 0.415741
0.159454 0.289551 0.404602
0.229767 0.300720 0.396667
0.387665 0.338013 0.379028
0.577972 0.380432 0.375763
0.727081 0.411713 0.419281
0.807831 0.436798 0.518921
0.852539 0.434631 0.647858
0.925476 0.423096 0.706085
0.173767 0.360260 0.477753
0.187134 0.350281 0.461487
0.223816 0.356750 0.464325
0.320374 0.408600 0.512909
0.482758 0.492737 0.579834
0.656281 0.562897 0.647095
0.786865 0.597595 0.720276
0.870117 0.570648 0.760162
0.957611 0.547119 0.760040
0.226410 0.434326 0.551666
0.240540 0.427490 0.538300
0.271271 0.433228 0.536621
0.338989 0.475647 0.577118
0.459717 0.558624 0.663696
0.619324 0.645752 0.753662
0.767944 0.695801 0.801605
0.874115 0.670380 0.779694
0.978729 0.653839 0.763489
0.311096 0.511261 0.632477
0.326904 0.513123 0.628937
0.356445 0.525543 0.633698
0.411530 0.563110 0.662903
0.505035 0.629974 0.721008
0.636658 0.708710 0.787781
0.773010 0.767731 0.823059
0.876801 0.758148 0.762177
0.996002 0.757416 0.756073
0.423767 0.599213 0.725220
0.440338 0.608490 0.729492
0.467865 0.626984 0.740265
0.514008 0.661285 0.762970
0.587280 0.713348 0.798309
0.692139 0.776917 0.840240
0.805176 0.833923 0.872681
0.888580 0.870270 0.876770
0.997620 0.876068 0.759247
0.546631 0.701111 0.824677
0.561798 0.713409 0.831970
0.585876 0.732971 0.842041
0.624146 0.761932 0.854889
0.683319 0.801147 0.870361
0.773254 0.852112 0.894531
0.878876 0.908112 0.929840
0.951141 0.950500 0.960388
0.981445 0.980591 0.976807
0.112579 0.201294 0.314514
0.222931 0.197571 0.243896
0.386383 0.147522 0.149139
0.478821 0.105682 0.217316
0.546692 0.079102 0.257263
0.624115 0.049683 0.253845
0.676575 0.066193 0.283051
0.711578 0.124969 0.339630
0.783844 0.151245 0.474945
0.134186 0.224335 0.337494
0.212769 0.225525 0.293518
0.366028 0.199921 0.196777
0.499329 0.163147 0.219269
0.574799 0.145325 0.283051
0.659180 0.125275 0.287628
0.718536 0.132111 0.310974
0.757660 0.168427 0.360748
0.822144 0.200256 0.496735
0.151520 0.253693 0.370270
0.195160 0.257996 0.357056
0.316345 0.261627 0.293762
0.492065 0.251282 0.243866
0.624084 0.248535 0.283966
0.726166 0.247131 0.312408
0.797546 0.252319 0.346558
0.834503 0.275787 0.411621
0.878113 0.303894 0.562195
0.164856 0.293640 0.414825
0.186920 0.297150 0.415741
0.259888 0.317963 0.413574
0.414734 0.352417 0.381439
0.601654 0.383179 0.358856
0.759064 0.405182 0.374725
0.859467 0.421661 0.432343
0.895142 0.447357 0.535522
0.927124 0.452362 0.681519
0.196960 0.351807 0.469513
0.212769 0.352936 0.467773
0.252472 0.372559 0.486877
0.348724 0.425232 0.527771
0.506989 0.494873 0.555939
0.682434 0.553436 0.582611
0.813293 0.592651 0.650238
0.883026 0.613586 0.740936
0.947815 0.586670 0.824097
0.246368 0.428284 0.542358
0.261353 0.429962 0.539978
0.292114 0.445618 0.553070
0.353821 0.490051 0.599731
0.460449 0.563110 0.675629
0.608246 0.643555 0.756439
0.752075 0.700745 0.825836
0.856018 0.723663 0.866425
0.952728 0.692627 0.874939
0.320160 0.512207 0.628113
0.335785 0.517883 0.630035
0.363983 0.534454 0.642303
0.413818 0.571472 0.675476
0.493622 0.630707 0.731842
0.611267 0.703918 0.801727
0.745361 0.767670 0.857208
0.855408 0.802429 0.876648
0.969147 0.783142 0.874939
0.421509 0.601410 0.727142
0.437775 0.611450 0.734314
0.464752 0.630280 0.747955
0.507843 0.662628 0.772186
0.571350 0.709198 0.805969
0.664795 0.768250 0.846130
0.779602 0.828308 0.882935
0.880005 0.874237 0.899811
0.996948 0.877014 0.877319
0.543030 0.696899 0.828674
0.556641 0.709869 0.842834
0.581268 0.729034 0.856323
0.618042 0.755646 0.869629
0.667297 0.789795 0.881836
0.740845 0.835754 0.897980
0.843445 0.893677 0.927429
0.944153 0.951019 0.963959
0.990875 0.990570 0.988770
0.174927 0.226898 0.325684
0.253540 0.233765 0.277435
0.399719 0.206848 0.194763
0.492432 0.152832 0.250519
0.536560 0.117065 0.305847
0.616882 0.101868 0.295532
0.696991 0.110809 0.314392
0.768555 0.162689 0.361725
0.842346 0.230621 0.407745
0.180908 0.241852 0.345947
0.241364 0.251587 0.318909
0.373413 0.245453 0.241516
0.509521 0.211304 0.243408
0.573364 0.191895 0.322876
0.663849 0.189850 0.335571
0.756775 0.203400 0.346375
0.828125 0.245422 0.387482
0.890778 0.299622 0.440704
0.184601 0.265106 0.380341
0.225861 0.276886 0.376068
0.329437 0.292603 0.330902
0.494202 0.291718 0.275269
0.626862 0.295135 0.312286
0.738556 0.307648 0.349152
0.837921 0.323425 0.368164
0.903717 0.353516 0.420929
0.934418 0.405762 0.517792
0.193939 0.300873 0.424347
0.220306 0.314606 0.436432
0.291351 0.343414 0.440857
0.430511 0.379486 0.408325
0.606323 0.409271 0.378845
0.766022 0.435944 0.389557
0.884857 0.457001 0.425537
0.938202 0.491791 0.522247
0.948456 0.538513 0.642914
0.226410 0.354950 0.473206
0.245758 0.368225 0.487610
0.288269 0.398254 0.518829
0.380341 0.449097 0.550323
0.525696 0.508087 0.557648
0.694580 0.559448 0.562897
0.828827 0.600555 0.612976
0.892151 0.637695 0.716797
0.931335 0.662201 0.817749
0.274597 0.431793 0.543610
0.290955 0.443237 0.554688
0.321625 0.467560 0.580627
0.377808 0.511719 0.628571
0.472778 0.574127 0.689056
0.608398 0.644928 0.749847
0.743469 0.704712 0.818298
0.839783 0.740265 0.884277
0.911041 0.756683 0.920685
0.340179 0.520752 0.631348
0.355652 0.531586 0.640961
0.382294 0.552307 0.660522
0.426514 0.587921 0.695923
0.493286 0.638641 0.748749
0.596100 0.703369 0.817108
0.722961 0.767731 0.880798
0.830566 0.810486 0.914673
0.911682 0.835358 0.926392
0.428772 0.611267 0.731964
0.444489 0.622955 0.742706
0.470276 0.642456 0.759735
0.509644 0.672607 0.785217
0.565247 0.713379 0.818573
0.650299 0.766876 0.859650
0.762604 0.826416 0.900635
0.863892 0.875305 0.929474
0.937805 0.910217 0.946442
0.543549 0.698944 0.822754
0.554260 0.712433 0.844696
0.576111 0.731293 0.865326
0.611877 0.756042 0.880615
0.659119 0.787476 0.894379
0.729889 0.831787 0.910645
0.829224 0.889130 0.936340
0.925568 0.946564 0.969452
0.999939 0.999878 1.000000
