design/ux_analyses/Resolume/Resolume Arena/luts/Elenno.cube
# Copyright: (C) Copyright 2010-2018 by IWLTBAP SAS
# Cannot be resold, shared or otherwise redistributed
# Website: https://luts.iwltbap.com
TITLE "IWLTBAP Elenno (Rec.709, sRGB, DCI-P3)"
LUT_3D_SIZE 5
0.000000 0.000000 0.000000
0.128723 0.038635 0.036285
0.235077 0.083344 0.029175
0.443085 0.133911 0.024445
0.623657 0.153107 0.057434
0.002380 0.244019 0.251282
0.263641 0.364258 0.369385
0.336945 0.182434 0.046173
0.502502 0.203796 0.025238
0.666077 0.254120 0.038635
0.000000 0.506470 0.518005
0.268890 0.576263 0.574677
0.678253 0.765076 0.766602
0.724548 0.517853 0.314819
0.787415 0.425964 0.062805
0.021271 0.632446 0.636749
0.156677 0.675171 0.654175
0.594513 0.783112 0.735046
0.814453 0.866943 0.853668
0.897400 0.781860 0.595245
0.018921 0.705322 0.655396
0.080536 0.726349 0.655670
0.541870 0.817078 0.721985
0.861359 0.897583 0.867493
0.954254 0.952820 0.946960
0.000793 0.063385 0.088715
0.126221 0.080048 0.101471
0.292755 0.122375 0.035492
0.470856 0.117737 0.067322
0.636658 0.126862 0.135681
0.006317 0.151520 0.160217
0.150726 0.206451 0.209839
0.381531 0.210388 0.155670
0.530701 0.206451 0.062225
0.685669 0.234894 0.105286
0.000000 0.455536 0.464539
0.233093 0.515961 0.514587
0.657959 0.712830 0.714172
0.692566 0.447510 0.251740
0.801819 0.433380 0.077148
0.017334 0.662323 0.669800
0.208130 0.694397 0.683289
0.604919 0.792664 0.763733
0.860870 0.894287 0.896088
0.894958 0.797791 0.662140
0.044006 0.726807 0.706238
0.183502 0.757751 0.704529
0.608673 0.838623 0.776489
0.873230 0.907104 0.892700
0.962311 0.964844 0.964355
0.000000 0.142853 0.173309
0.074158 0.132690 0.207581
0.340149 0.162170 0.237671
0.557800 0.216064 0.066193
0.683167 0.184998 0.264526
0.000000 0.219604 0.245422
0.075653 0.258270 0.292480
0.386017 0.273895 0.336639
0.602692 0.276215 0.218201
0.729614 0.277710 0.264099
0.000000 0.369293 0.390625
0.116364 0.379395 0.392059
0.471619 0.485413 0.488495
0.716675 0.494080 0.432556
0.836853 0.469635 0.267487
0.014191 0.652679 0.665375
0.253845 0.672760 0.658569
0.591827 0.761597 0.734619
0.859802 0.877441 0.878967
0.897034 0.724976 0.538574
0.183075 0.769287 0.749023
0.332520 0.793701 0.758789
0.681671 0.865906 0.830444
0.892090 0.922546 0.919617
0.984619 0.988831 0.988647
0.001556 0.249908 0.316376
0.007904 0.209106 0.362305
0.311554 0.257721 0.434570
0.583832 0.289948 0.436432
0.752625 0.324677 0.483582
0.000000 0.343231 0.402618
0.013397 0.329559 0.402588
0.318207 0.342255 0.473969
0.617035 0.372253 0.486115
0.790405 0.386658 0.491760
0.000000 0.380981 0.425385
0.009460 0.412384 0.459015
0.409943 0.548492 0.594482
0.701324 0.582306 0.641968
0.857666 0.532501 0.509125
0.006287 0.625061 0.658875
0.151489 0.633667 0.660889
0.503937 0.680725 0.684845
0.779022 0.773499 0.770996
0.895203 0.761810 0.697815
0.382385 0.810547 0.802612
0.479004 0.828033 0.808807
0.688690 0.869415 0.838379
0.883240 0.918701 0.914551
0.988281 0.991394 0.990936
0.048981 0.302582 0.489777
0.000000 0.301361 0.569916
0.325012 0.357758 0.644226
0.627075 0.400970 0.650330
0.797638 0.397552 0.696594
0.010254 0.416870 0.531464
0.072632 0.376984 0.552765
0.257263 0.399567 0.645325
0.632721 0.459442 0.685791
0.821777 0.459656 0.716431
0.000000 0.575745 0.656982
0.000000 0.590179 0.670715
0.052338 0.581604 0.667908
0.631653 0.621521 0.763672
0.855408 0.605652 0.764404
0.001556 0.658112 0.709473
0.106384 0.669952 0.717102
0.427063 0.714752 0.745117
0.708008 0.811096 0.829926
0.897400 0.821564 0.859863
0.474823 0.840302 0.848022
0.553589 0.855896 0.857391
0.729156 0.885437 0.884796
0.895691 0.927490 0.929474
1.000000 1.000000 0.999146
