design/ux_analyses/Resolume/Resolume Arena/luts/Elenno.cube
# Copyright: (C) Copyright 2010-2018 by IWLTBAP SAS
# Cannot be resold, shared or otherwise redistributed
# Website: https://luts.iwltbap.com
TITLE "IWLTBAP Elenno (Rec.709, sRGB, DCI-P3)"
LUT_3D_SIZE 33
0.000000 0.000000 0.000000
0.019714 0.004730 0.010254
0.039429 0.009460 0.018127
0.058655 0.013397 0.024445
0.076172 0.018127 0.028381
0.091309 0.022858 0.031525
0.104523 0.027588 0.033905
0.116730 0.033112 0.035492
0.128723 0.038635 0.036285
0.140869 0.044739 0.036285
0.152039 0.051025 0.036285
0.162659 0.057434 0.035492
0.173981 0.062805 0.034698
0.186066 0.067841 0.033142
0.199921 0.072601 0.032349
0.216034 0.078125 0.030762
0.235077 0.083344 0.029175
0.255768 0.089172 0.027618
0.278503 0.095093 0.026825
0.303894 0.101868 0.026031
0.331635 0.108276 0.025238
0.360046 0.115021 0.024445
0.388489 0.121735 0.024445
0.416656 0.128113 0.024445
0.443085 0.133911 0.024445
0.467926 0.138885 0.026031
0.492218 0.143677 0.026825
0.516052 0.148071 0.029175
0.538666 0.151520 0.032349
0.560089 0.153625 0.036285
0.581482 0.154388 0.042511
0.603027 0.153870 0.049683
0.623657 0.153107 0.057434
0.000793 0.019714 0.018921
0.017334 0.025238 0.028381
0.035492 0.029968 0.035492
0.055573 0.031525 0.037048
0.074158 0.033112 0.037048
0.090454 0.036255 0.036255
0.104523 0.040222 0.036255
0.117401 0.044739 0.037048
0.129974 0.048981 0.037048
0.142548 0.054291 0.036285
0.154114 0.059845 0.036285
0.165344 0.065063 0.035492
0.177155 0.070007 0.034698
0.189850 0.074646 0.033142
0.204163 0.079559 0.032349
0.221008 0.084717 0.030762
0.240387 0.090027 0.029175
0.261627 0.095490 0.028381
0.284485 0.101868 0.026825
0.310150 0.107880 0.026031
0.337708 0.114655 0.025238
0.365723 0.121063 0.024445
0.393738 0.127472 0.023651
0.421417 0.133911 0.023651
0.447510 0.140015 0.024445
0.472198 0.145599 0.025238
0.496307 0.151245 0.026031
0.519623 0.155670 0.027618
0.541779 0.158722 0.029968
0.562927 0.160706 0.034698
0.584259 0.161194 0.040222
0.605713 0.160706 0.047607
0.626282 0.159943 0.055573
0.001556 0.039429 0.039429
0.015778 0.047577 0.049652
0.031525 0.052979 0.056183
0.050354 0.055573 0.057434
0.069458 0.055573 0.053650
0.087830 0.054291 0.048279
0.104156 0.054932 0.043243
0.118408 0.057434 0.039429
0.131500 0.060455 0.037872
0.144501 0.064514 0.037079
0.156952 0.068390 0.036285
0.168671 0.072601 0.035492
0.180908 0.077148 0.033905
0.194153 0.081940 0.033142
0.209259 0.086517 0.031555
0.226898 0.091309 0.030762
0.246674 0.097107 0.029175
0.268066 0.102631 0.028381
0.291595 0.108612 0.026825
0.317383 0.114990 0.026031
0.344696 0.121399 0.025238
0.372253 0.127808 0.024445
0.399811 0.134186 0.024445
0.426941 0.140594 0.023651
0.452484 0.146973 0.023651
0.476990 0.153076 0.024445
0.500946 0.158722 0.025238
0.523773 0.163147 0.026825
0.545258 0.166290 0.028381
0.566254 0.168182 0.032349
0.587555 0.168915 0.037872
0.608795 0.168671 0.045471
0.629333 0.167480 0.053009
0.002350 0.061646 0.062225
0.014984 0.070007 0.071564
0.029175 0.077637 0.080048
0.046875 0.083801 0.085175
0.065643 0.085602 0.084259
0.084717 0.083344 0.076172
0.102631 0.079102 0.063385
0.119080 0.075653 0.051666
0.134186 0.074646 0.044006
0.148041 0.075653 0.039429
0.160706 0.078613 0.037079
0.173065 0.081940 0.035492
0.186066 0.085602 0.033905
0.199921 0.089600 0.033142
0.216034 0.094238 0.031555
0.234253 0.099121 0.030762
0.254272 0.104919 0.029175
0.275940 0.110413 0.028381
0.299866 0.116730 0.027618
0.326019 0.122711 0.026031
0.353027 0.129333 0.025238
0.380157 0.135681 0.024445
0.407318 0.142273 0.024445
0.433594 0.148865 0.023651
0.458405 0.155151 0.023651
0.482483 0.161194 0.024445
0.506042 0.166290 0.024445
0.528442 0.170776 0.026031
0.549561 0.174438 0.027618
0.570526 0.176697 0.030762
0.591827 0.177826 0.035492
0.612823 0.177826 0.042511
0.632935 0.176910 0.050354
0.004730 0.086060 0.087830
0.014191 0.094666 0.096710
0.027588 0.104156 0.106781
0.046875 0.114655 0.117401
0.067291 0.123352 0.124329
0.086517 0.124969 0.122040
0.104919 0.119080 0.108246
0.122711 0.108978 0.087402
0.139435 0.099518 0.066742
0.154388 0.093842 0.051025
0.167236 0.092163 0.041748
0.179810 0.092987 0.037079
0.193115 0.095886 0.034698
0.207977 0.099518 0.033142
0.224823 0.103760 0.031555
0.243408 0.108246 0.030762
0.263641 0.113617 0.029175
0.285522 0.119415 0.028381
0.309906 0.125275 0.027618
0.335876 0.131805 0.026031
0.362488 0.138306 0.025238
0.389282 0.145050 0.025238
0.415894 0.151764 0.024445
0.441223 0.158203 0.024445
0.465332 0.163879 0.024445
0.488831 0.169373 0.024445
0.511963 0.174438 0.024445
0.533905 0.179138 0.025238
0.554749 0.183289 0.026825
0.575745 0.186493 0.029175
0.597015 0.188385 0.033142
0.617737 0.188812 0.039429
0.637390 0.188385 0.046906
0.006287 0.116364 0.119080
0.014191 0.124969 0.128418
0.027588 0.135376 0.139435
0.049652 0.149109 0.153320
0.075165 0.163879 0.167694
0.098328 0.174194 0.176453
0.117401 0.174194 0.171906
0.135376 0.164124 0.152283
0.152832 0.147522 0.122040
0.167969 0.130585 0.090454
0.180450 0.118408 0.064514
0.191895 0.112213 0.048279
0.204559 0.110413 0.039429
0.219421 0.112213 0.034698
0.236542 0.115356 0.032349
0.255188 0.119751 0.030762
0.275269 0.124634 0.029968
0.297516 0.129974 0.028381
0.321838 0.135956 0.027618
0.347382 0.142273 0.026825
0.373291 0.148865 0.026031
0.399567 0.155670 0.025238
0.425293 0.161926 0.024445
0.449860 0.167725 0.024445
0.473267 0.173065 0.024445
0.496368 0.178467 0.024445
0.518951 0.183502 0.025238
0.540344 0.188385 0.025238
0.561005 0.193115 0.026825
0.581909 0.197144 0.028381
0.603027 0.199921 0.031555
0.623413 0.201477 0.036285
0.642731 0.201874 0.043274
0.007080 0.154388 0.158966
0.013397 0.163147 0.168182
0.027588 0.173737 0.178894
0.051666 0.188354 0.193726
0.084717 0.206268 0.211853
0.117371 0.223785 0.229065
0.142548 0.234070 0.237976
0.161194 0.232574 0.231415
0.178040 0.218170 0.206451
0.193542 0.194946 0.166992
0.206451 0.170319 0.123688
0.216400 0.150452 0.086060
0.226044 0.137726 0.059845
0.237823 0.132111 0.044006
0.252777 0.131805 0.036255
0.270294 0.134491 0.032349
0.290192 0.138580 0.029968
0.312256 0.143402 0.029175
0.336090 0.148865 0.027618
0.360626 0.154633 0.026825
0.385559 0.160706 0.026031
0.410950 0.166534 0.025238
0.435638 0.172150 0.025238
0.459137 0.177368 0.024445
0.482147 0.182648 0.024445
0.504852 0.187958 0.024445
0.526855 0.193329 0.025238
0.547791 0.198547 0.026031
0.568329 0.203796 0.026825
0.589325 0.208710 0.028381
0.610077 0.212585 0.030762
0.630127 0.215515 0.034698
0.649170 0.217651 0.040222
0.005524 0.198547 0.204376
0.011810 0.207184 0.213318
0.026001 0.217285 0.223602
0.052338 0.231079 0.237488
0.090881 0.249420 0.255920
0.135071 0.270142 0.276886
0.172607 0.288513 0.295135
0.198334 0.298492 0.303284
0.216217 0.295380 0.295013
0.231598 0.277679 0.266357
0.245270 0.249420 0.220306
0.255920 0.217987 0.166290
0.263214 0.190247 0.116364
0.269867 0.170319 0.078125
0.278778 0.159210 0.052979
0.291840 0.155670 0.039429
0.309418 0.156433 0.033112
0.330231 0.159698 0.029968
0.352814 0.163879 0.028381
0.376038 0.168427 0.026825
0.399902 0.173309 0.026031
0.423859 0.178040 0.025238
0.446960 0.182648 0.025238
0.469360 0.187744 0.025238
0.491821 0.192719 0.025238
0.514069 0.198151 0.025238
0.535400 0.203613 0.026031
0.556061 0.209473 0.026031
0.576904 0.215149 0.027618
0.597961 0.221008 0.029175
0.618469 0.226379 0.031555
0.638031 0.230927 0.034698
0.656799 0.235229 0.037872
0.002380 0.244019 0.251282
0.007874 0.252014 0.259735
0.022064 0.261322 0.269012
0.049652 0.273865 0.281555
0.092133 0.291077 0.298370
0.145874 0.312500 0.319550
0.198517 0.335327 0.342468
0.238464 0.354431 0.361298
0.263641 0.364258 0.369385
0.280090 0.360626 0.360718
0.293488 0.341949 0.330872
0.304871 0.310242 0.280090
0.312836 0.272369 0.216736
0.317169 0.236847 0.154633
0.320374 0.209259 0.103394
0.326019 0.191498 0.067841
0.336945 0.182434 0.046173
0.352905 0.179810 0.034698
0.372437 0.180908 0.029968
0.393921 0.183716 0.027618
0.416229 0.187134 0.026825
0.438049 0.190857 0.026031
0.459442 0.194733 0.025238
0.480835 0.198944 0.025238
0.502502 0.203796 0.025238
0.523895 0.208893 0.026031
0.544617 0.214783 0.026825
0.565308 0.220856 0.027588
0.586426 0.227570 0.028381
0.607605 0.234406 0.030731
0.627869 0.241180 0.033112
0.647247 0.247772 0.035492
0.666077 0.254120 0.038635
0.000793 0.287109 0.295776
0.004730 0.294128 0.303192
0.016541 0.302094 0.311218
0.043243 0.313080 0.321747
0.087830 0.328674 0.336609
0.147217 0.349518 0.356628
0.212769 0.374908 0.381714
0.270569 0.400940 0.408051
0.311066 0.421722 0.428650
0.334991 0.432068 0.437408
0.349213 0.428894 0.429291
0.359924 0.409424 0.398682
0.368042 0.374512 0.343842
0.372925 0.331299 0.273193
0.374725 0.288879 0.200287
0.375275 0.253235 0.136841
0.377716 0.227051 0.088715
0.384827 0.211121 0.057434
0.397644 0.203796 0.039429
0.414886 0.202057 0.031525
0.434235 0.203033 0.027618
0.453827 0.205505 0.026825
0.473663 0.208527 0.026031
0.493958 0.212036 0.026031
0.514465 0.216217 0.026031
0.534729 0.221191 0.026825
0.554840 0.227051 0.027618
0.575684 0.233765 0.029175
0.597046 0.241180 0.030731
0.618103 0.249146 0.032318
0.638306 0.257263 0.035492
0.658112 0.265076 0.038635
0.677521 0.272644 0.041748
0.000000 0.326447 0.335785
0.002350 0.332520 0.342255
0.011047 0.339203 0.349030
0.034698 0.348419 0.357635
0.078125 0.361908 0.370361
0.139130 0.381073 0.388641
0.211853 0.406708 0.413727
0.285248 0.437500 0.444458
0.345612 0.467529 0.474854
0.385284 0.489838 0.497070
0.407043 0.500427 0.505951
0.418762 0.497070 0.497864
0.426086 0.476959 0.466827
0.430664 0.440613 0.410431
0.432892 0.394012 0.335205
0.432739 0.345398 0.253815
0.430817 0.301605 0.178467
0.430023 0.266785 0.117401
0.433502 0.243073 0.074646
0.442322 0.229767 0.048981
0.455536 0.224335 0.035492
0.471680 0.223297 0.029968
0.489838 0.224823 0.027618
0.508942 0.227386 0.027588
0.528076 0.231262 0.027588
0.547211 0.235870 0.028381
0.566895 0.241821 0.029175
0.587585 0.248688 0.030731
0.608795 0.256653 0.033112
0.629639 0.265228 0.035492
0.650085 0.274017 0.038635
0.670471 0.282654 0.042511
0.690826 0.290833 0.046173
0.000000 0.362396 0.371674
0.000793 0.367554 0.377533
0.007080 0.373108 0.383453
0.026794 0.380524 0.390900
0.066193 0.391693 0.401550
0.124634 0.408600 0.417633
0.198517 0.432739 0.440552
0.280762 0.464447 0.471344
0.358124 0.500183 0.507172
0.417603 0.532654 0.540131
0.454468 0.554840 0.562164
0.473389 0.564606 0.570282
0.482666 0.561432 0.562469
0.487610 0.542694 0.533264
0.490234 0.506958 0.478088
0.490845 0.458313 0.400574
0.488678 0.404724 0.312592
0.484924 0.354126 0.227386
0.481995 0.311554 0.154907
0.481781 0.279968 0.099915
0.486023 0.259888 0.063934
0.495483 0.249603 0.043243
0.509369 0.246216 0.033905
0.525879 0.246674 0.030731
0.543488 0.249451 0.029968
0.561890 0.253845 0.030731
0.581329 0.259460 0.032318
0.601562 0.266083 0.033905
0.622070 0.273895 0.036255
0.642578 0.282501 0.039429
0.663269 0.291595 0.043243
0.684204 0.300720 0.046875
0.704895 0.309906 0.050354
0.000000 0.394806 0.404480
0.000793 0.399292 0.409760
0.004730 0.404144 0.415070
0.021271 0.410370 0.421326
0.056824 0.419678 0.430420
0.110779 0.434296 0.444397
0.180237 0.455963 0.464661
0.263062 0.485413 0.492676
0.349640 0.521576 0.528259
0.425690 0.559540 0.566650
0.480591 0.591431 0.599030
0.512848 0.611816 0.619049
0.529175 0.620911 0.625977
0.537506 0.619141 0.619598
0.542419 0.602905 0.593933
0.544769 0.569061 0.541931
0.544312 0.520294 0.465088
0.541504 0.464600 0.374237
0.537445 0.409698 0.282501
0.533386 0.361115 0.200287
0.530762 0.322418 0.133911
0.531555 0.295380 0.086517
0.537201 0.279572 0.056824
0.547729 0.272797 0.041748
0.562195 0.271973 0.035492
0.579407 0.274719 0.034698
0.598206 0.279449 0.035492
0.617554 0.285522 0.037842
0.637238 0.292877 0.040985
0.657410 0.301361 0.044006
0.678223 0.310730 0.047577
0.699097 0.320587 0.051025
0.719299 0.330780 0.053650
0.000000 0.425385 0.435486
0.000000 0.429474 0.440063
0.003937 0.433685 0.444458
0.018921 0.438843 0.449554
0.052338 0.446594 0.456940
0.101837 0.458984 0.468689
0.164124 0.477600 0.486176
0.240692 0.503540 0.510864
0.327789 0.536896 0.543304
0.413025 0.575043 0.581421
0.483429 0.612061 0.619049
0.531799 0.641144 0.648285
0.559723 0.659149 0.665131
0.574890 0.667480 0.671387
0.583862 0.666840 0.667023
0.589355 0.653595 0.645477
0.591797 0.623444 0.598785
0.591858 0.577545 0.525970
0.590363 0.522552 0.435852
0.588013 0.466400 0.341187
0.584839 0.414459 0.252319
0.581421 0.370270 0.175995
0.579407 0.336304 0.116730
0.581146 0.314148 0.076660
0.588654 0.303070 0.054291
0.601562 0.300232 0.044739
0.617798 0.302582 0.041748
0.635742 0.307648 0.043243
0.654663 0.314484 0.046173
0.674652 0.322968 0.048981
0.695038 0.332520 0.051666
0.715271 0.342804 0.054291
0.734619 0.353516 0.056824
0.000000 0.454865 0.465027
0.000000 0.458405 0.468842
0.003937 0.461975 0.472412
0.018921 0.466339 0.476135
0.052338 0.472748 0.481720
0.098694 0.482941 0.490936
0.154877 0.498352 0.505371
0.221863 0.520386 0.526520
0.301575 0.549652 0.555176
0.387268 0.584778 0.589996
0.467346 0.622101 0.627899
0.531128 0.656586 0.662750
0.574280 0.682343 0.688507
0.599609 0.697540 0.703125
0.613739 0.704956 0.708801
0.622498 0.705536 0.706177
0.628143 0.695862 0.688995
0.631500 0.670471 0.648438
0.633392 0.628876 0.581421
0.634796 0.577209 0.495056
0.635681 0.522614 0.400940
0.635010 0.469543 0.308105
0.632324 0.420898 0.222931
0.628937 0.380524 0.152039
0.628357 0.352295 0.101074
0.632965 0.337280 0.071045
0.643066 0.332397 0.056183
0.657440 0.334045 0.051666
0.674896 0.339508 0.051666
0.693970 0.347382 0.052979
0.713409 0.356842 0.055573
0.732483 0.366882 0.057434
0.751007 0.377167 0.059265
0.000000 0.482147 0.492615
0.000000 0.485138 0.495819
0.003937 0.488281 0.498688
0.018127 0.492126 0.501434
0.051666 0.497742 0.505493
0.098297 0.506470 0.512573
0.151764 0.519379 0.524048
0.211670 0.537750 0.541290
0.280640 0.562164 0.565186
0.358429 0.592224 0.595306
0.439056 0.626556 0.630310
0.513031 0.662354 0.666748
0.572021 0.693970 0.699249
0.611694 0.716705 0.722534
0.634491 0.730133 0.735138
0.647247 0.737122 0.740234
0.655762 0.738831 0.738831
0.661835 0.731995 0.725342
0.666199 0.710938 0.690796
0.670135 0.674652 0.631134
0.674561 0.627899 0.551056
0.679016 0.576202 0.459259
0.681458 0.522736 0.363281
0.680786 0.470764 0.270264
0.678162 0.426025 0.189850
0.676422 0.393921 0.129669
0.678711 0.375488 0.090881
0.686432 0.368347 0.070007
0.699280 0.369019 0.061035
0.715454 0.374451 0.058655
0.732971 0.382446 0.058655
0.750885 0.391602 0.059875
0.768860 0.401123 0.061066
0.000000 0.506470 0.518005
0.000000 0.509186 0.520874
0.002350 0.512207 0.523438
0.015778 0.515900 0.525879
0.047577 0.521301 0.529144
0.095886 0.529236 0.534546
0.149658 0.540802 0.543182
0.206818 0.556458 0.556213
0.268890 0.576263 0.574677
0.337036 0.600616 0.599365
0.410034 0.629730 0.629669
0.483856 0.662567 0.663727
0.552338 0.696045 0.698547
0.607605 0.725342 0.729126
0.644653 0.746460 0.750336
0.666016 0.758789 0.761719
0.678253 0.765076 0.766602
0.686584 0.767212 0.766296
0.692566 0.762451 0.756165
0.697327 0.745819 0.728180
0.702576 0.715454 0.676727
0.709229 0.673767 0.603058
0.716309 0.624634 0.512970
0.721832 0.571167 0.413635
0.724548 0.517853 0.314819
0.724335 0.471405 0.227570
0.723297 0.436646 0.159454
0.724731 0.415314 0.112549
0.730591 0.405762 0.084259
0.740967 0.405182 0.070007
0.754822 0.409760 0.063934
0.770691 0.417297 0.062805
0.787415 0.425964 0.062805
0.000000 0.528656 0.541656
0.000000 0.531281 0.544312
0.001556 0.534332 0.546814
0.011810 0.538116 0.549225
0.040985 0.543365 0.551941
0.088257 0.550903 0.555878
0.143646 0.561371 0.561859
0.200470 0.574951 0.570679
0.260468 0.591705 0.584076
0.323975 0.611816 0.603394
0.389374 0.635590 0.628693
0.455811 0.663208 0.658325
0.522919 0.693420 0.690765
0.586456 0.724121 0.723816
0.638885 0.751434 0.752563
0.674561 0.770752 0.772339
0.694916 0.781555 0.783386
0.706451 0.787415 0.788696
0.713928 0.790222 0.789795
0.719543 0.787872 0.783203
0.724487 0.775757 0.761353
0.730469 0.750610 0.717072
0.738312 0.713226 0.648682
0.747803 0.666565 0.559448
0.756958 0.614288 0.457886
0.763306 0.561829 0.356140
0.765930 0.514893 0.264954
0.766541 0.478363 0.190674
0.768036 0.455078 0.135681
0.772614 0.443848 0.099518
0.780945 0.441559 0.078613
0.792480 0.445160 0.068939
0.805664 0.451813 0.063965
0.000000 0.549164 0.562347
0.000000 0.551727 0.564850
0.000793 0.554810 0.567383
0.007874 0.558777 0.569855
0.031525 0.563904 0.572418
0.076630 0.570740 0.575470
0.132385 0.580017 0.579315
0.189392 0.592072 0.584747
0.249268 0.607117 0.593719
0.312256 0.624786 0.608337
0.375092 0.645111 0.628693
0.436096 0.667816 0.653564
0.496338 0.692505 0.681702
0.557495 0.719543 0.712616
0.616638 0.747681 0.743805
0.666290 0.772125 0.770508
0.699951 0.788788 0.789062
0.718597 0.798248 0.799622
0.728912 0.804260 0.805359
0.736145 0.808136 0.807800
0.742065 0.808228 0.804321
0.747559 0.799927 0.787842
0.754333 0.779694 0.750336
0.763977 0.746765 0.686798
0.776031 0.703064 0.599030
0.787598 0.653137 0.497406
0.795959 0.602020 0.394806
0.800842 0.555481 0.300964
0.803589 0.518677 0.221710
0.806274 0.494293 0.159943
0.810425 0.481567 0.116028
0.816772 0.477753 0.087830
0.824707 0.479004 0.069458
0.000000 0.567596 0.579346
0.000000 0.570068 0.581818
0.000000 0.573090 0.584351
0.004730 0.576996 0.587097
0.023651 0.581970 0.589905
0.064514 0.588196 0.592834
0.118408 0.596436 0.595673
0.174896 0.607300 0.598999
0.234222 0.621216 0.604675
0.297516 0.637817 0.615082
0.361023 0.656281 0.630676
0.421326 0.675568 0.650726
0.477661 0.695740 0.674316
0.532532 0.717712 0.701324
0.588379 0.742432 0.730865
0.643127 0.767700 0.759888
0.688904 0.788605 0.784302
0.718994 0.802460 0.800903
0.735504 0.811005 0.810303
0.745422 0.817078 0.815979
0.753235 0.821808 0.819611
0.760132 0.823730 0.819031
0.766846 0.819092 0.807861
0.775360 0.803680 0.776794
0.787048 0.775024 0.718109
0.800293 0.734924 0.633575
0.812347 0.687805 0.533752
0.821777 0.638824 0.431305
0.828583 0.593597 0.335785
0.833557 0.557037 0.252777
0.837799 0.531799 0.185211
0.842285 0.517487 0.132996
0.846954 0.510162 0.091309
0.000000 0.583435 0.593201
0.000000 0.585724 0.595520
0.000000 0.588562 0.598206
0.003143 0.592407 0.601288
0.018921 0.597260 0.604767
0.055573 0.603241 0.608276
0.106018 0.610809 0.611206
0.160187 0.620850 0.613403
0.217468 0.633850 0.616730
0.279846 0.649536 0.623718
0.344055 0.666626 0.635101
0.405762 0.683960 0.650513
0.462341 0.701324 0.669525
0.514618 0.719788 0.692444
0.565277 0.740387 0.718750
0.616852 0.763153 0.746704
0.666473 0.785156 0.773590
0.706604 0.802612 0.795410
0.732300 0.814209 0.809570
0.746918 0.821716 0.817657
0.757080 0.827484 0.823425
0.765991 0.832703 0.828125
0.774231 0.836182 0.829895
0.782776 0.834656 0.822937
0.793243 0.823090 0.797241
0.806274 0.798767 0.744751
0.820007 0.762817 0.665649
0.832336 0.719116 0.568268
0.842468 0.672791 0.466125
0.850891 0.629120 0.369598
0.857910 0.593018 0.283966
0.863953 0.567047 0.210205
0.869324 0.548737 0.145050
0.000000 0.597168 0.605042
0.000000 0.599152 0.607300
0.000793 0.601868 0.609985
0.004730 0.605621 0.613434
0.019714 0.610382 0.617554
0.052338 0.616180 0.621674
0.097107 0.623596 0.624786
0.146423 0.633209 0.626678
0.200684 0.645508 0.628906
0.261047 0.659912 0.633545
0.324890 0.675537 0.641571
0.387665 0.691406 0.653076
0.446075 0.707397 0.667999
0.499207 0.723938 0.686646
0.548309 0.741974 0.709229
0.596039 0.761719 0.734680
0.643555 0.782043 0.761108
0.687378 0.800629 0.785919
0.721283 0.815094 0.805359
0.742737 0.824829 0.817566
0.756378 0.831421 0.824951
0.767395 0.837036 0.830688
0.777588 0.842529 0.835876
0.787292 0.847168 0.838989
0.797424 0.847687 0.835022
0.809326 0.839600 0.815063
0.823547 0.821289 0.774872
0.837189 0.788391 0.697540
0.849518 0.747559 0.601166
0.860229 0.703857 0.499878
0.869476 0.662109 0.402863
0.877533 0.626617 0.314026
0.884918 0.597229 0.231934
0.003143 0.609558 0.615997
0.003937 0.611298 0.618042
0.005524 0.613739 0.620667
0.011810 0.617310 0.624268
0.026794 0.622070 0.628418
0.054932 0.627930 0.632477
0.092163 0.635345 0.635742
0.135071 0.644836 0.637726
0.184998 0.656281 0.639648
0.242615 0.669434 0.643066
0.304993 0.683472 0.648926
0.367950 0.697998 0.657623
0.427643 0.712952 0.669312
0.482544 0.728546 0.684296
0.532776 0.745361 0.703125
0.579834 0.763000 0.725281
0.625244 0.780945 0.749634
0.668945 0.798584 0.774780
0.707458 0.814514 0.797913
0.736206 0.826782 0.815308
0.755310 0.835083 0.826050
0.769104 0.841187 0.832886
0.781006 0.846863 0.838409
0.791992 0.852722 0.843689
0.802277 0.857727 0.847534
0.812988 0.859375 0.846130
0.825378 0.854431 0.832733
0.839783 0.842865 0.805573
0.853027 0.810852 0.725800
0.865173 0.773010 0.632324
0.875366 0.732239 0.532593
0.884003 0.692566 0.434631
0.892273 0.655579 0.340790
0.011810 0.621155 0.626648
0.012604 0.622620 0.628357
0.014984 0.624908 0.630615
0.022858 0.628326 0.633667
0.037842 0.632965 0.637207
0.059845 0.639038 0.640686
0.089142 0.646606 0.643585
0.124969 0.655762 0.645782
0.170532 0.666260 0.647919
0.225006 0.677948 0.651001
0.285797 0.690674 0.655853
0.348206 0.704132 0.662964
0.408600 0.718201 0.672577
0.464661 0.733093 0.684845
0.516266 0.749084 0.700378
0.564209 0.765411 0.719299
0.609680 0.781616 0.740784
0.653198 0.797638 0.764038
0.693939 0.813416 0.788055
0.728424 0.827393 0.809570
0.754120 0.838104 0.825012
0.772278 0.845703 0.834473
0.786011 0.851624 0.840759
0.797729 0.857239 0.846191
0.808350 0.862732 0.851349
0.818481 0.867371 0.855835
0.829041 0.869629 0.856537
0.841064 0.867065 0.847656
0.854736 0.858765 0.824219
0.867676 0.829895 0.750610
0.878540 0.795776 0.661835
0.887268 0.758057 0.563812
0.895081 0.719482 0.463593
0.021271 0.632446 0.636749
0.022064 0.633789 0.638062
0.025238 0.635803 0.639709
0.032318 0.639221 0.641815
0.044739 0.644012 0.644257
0.061646 0.649994 0.646942
0.084717 0.657257 0.649384
0.115356 0.665710 0.651733
0.156677 0.675171 0.654175
0.207977 0.685699 0.657349
0.266632 0.697388 0.661835
0.328674 0.710022 0.668274
0.389648 0.723328 0.676605
0.446747 0.737671 0.687134
0.499481 0.752930 0.700317
0.548370 0.768250 0.716522
0.594513 0.783112 0.735046
0.638611 0.797913 0.755493
0.680481 0.812744 0.778015
0.718658 0.827087 0.800964
0.750427 0.839783 0.820557
0.774170 0.849609 0.834045
0.790955 0.856537 0.842468
0.803589 0.862061 0.848358
0.814453 0.866943 0.853668
0.824585 0.871643 0.859009
0.834412 0.875916 0.864075
0.844788 0.878662 0.866455
0.856537 0.877594 0.860229
0.868866 0.870300 0.837708
0.880432 0.846649 0.773499
0.889709 0.816650 0.690948
0.897400 0.781860 0.595245
0.026001 0.644165 0.645935
0.026794 0.645325 0.646820
0.029175 0.647156 0.647919
0.034698 0.650391 0.649292
0.044739 0.654968 0.650848
0.058655 0.660522 0.652649
0.078125 0.666931 0.654663
0.105652 0.674469 0.656860
0.143127 0.682983 0.659393
0.190857 0.692657 0.662598
0.247131 0.703583 0.666992
0.308350 0.715515 0.672913
0.369965 0.728394 0.680542
0.428589 0.742310 0.690002
0.482880 0.756958 0.701752
0.533142 0.771332 0.715912
0.580109 0.785339 0.731995
0.624756 0.799042 0.749756
0.667206 0.812866 0.769745
0.707153 0.826660 0.791718
0.742889 0.840088 0.813293
0.772217 0.851990 0.830750
0.793610 0.860718 0.842712
0.808472 0.866699 0.850250
0.820068 0.871277 0.856018
0.830383 0.875519 0.861450
0.840271 0.879791 0.867218
0.850220 0.883881 0.872925
0.860657 0.887024 0.876343
0.871399 0.887451 0.872681
0.881317 0.884766 0.859924
0.891907 0.866241 0.807190
0.900635 0.837769 0.726410
0.025238 0.655853 0.654266
0.026031 0.656799 0.655029
0.027588 0.658386 0.655823
0.032318 0.661102 0.656616
0.040222 0.665009 0.657593
0.052979 0.669952 0.658752
0.071045 0.675568 0.660126
0.095490 0.682281 0.661926
0.129333 0.690155 0.664185
0.173523 0.699158 0.667175
0.227051 0.709351 0.671265
0.286835 0.720703 0.676758
0.348816 0.733215 0.683777
0.409271 0.746887 0.692566
0.465820 0.761047 0.703522
0.518097 0.774719 0.716370
0.566650 0.787872 0.730591
0.612122 0.800964 0.746155
0.655060 0.813904 0.763763
0.695648 0.826782 0.783813
0.733124 0.839905 0.805145
0.766235 0.852661 0.825012
0.792664 0.863190 0.840576
