design/ux_analyses/Resolume/Resolume Arena/luts/Elenno.cube
# Copyright: (C) Copyright 2010-2018 by IWLTBAP SAS
# Cannot be resold, shared or otherwise redistributed
# Website: https://luts.iwltbap.com
TITLE "IWLTBAP Elenno (Rec.709, sRGB, DCI-P3)"
LUT_3D_SIZE 9
0.000000 0.000000 0.000000
0.076172 0.018127 0.028381
0.128723 0.038635 0.036285
0.173981 0.062805 0.034698
0.235077 0.083344 0.029175
0.331635 0.108276 0.025238
0.443085 0.133911 0.024445
0.538666 0.151520 0.032349
0.623657 0.153107 0.057434
0.004730 0.086060 0.087830
0.067291 0.123352 0.124329
0.139435 0.099518 0.066742
0.193115 0.095886 0.034698
0.263641 0.113617 0.029175
0.362488 0.138306 0.025238
0.465332 0.163879 0.024445
0.554749 0.183289 0.026825
0.637390 0.188385 0.046906
0.002380 0.244019 0.251282
0.092133 0.291077 0.298370
0.263641 0.364258 0.369385
0.312836 0.272369 0.216736
0.336945 0.182434 0.046173
0.416229 0.187134 0.026825
0.502502 0.203796 0.025238
0.586426 0.227570 0.028381
0.666077 0.254120 0.038635
0.000000 0.394806 0.404480
0.056824 0.419678 0.430420
0.349640 0.521576 0.528259
0.529175 0.620911 0.625977
0.544312 0.520294 0.465088
0.530762 0.322418 0.133911
0.562195 0.271973 0.035492
0.637238 0.292877 0.040985
0.719299 0.330780 0.053650
0.000000 0.506470 0.518005
0.047577 0.521301 0.529144
0.268890 0.576263 0.574677
0.552338 0.696045 0.698547
0.678253 0.765076 0.766602
0.702576 0.715454 0.676727
0.724548 0.517853 0.314819
0.730591 0.405762 0.084259
0.787415 0.425964 0.062805
0.000000 0.583435 0.593201
0.018921 0.597260 0.604767
0.217468 0.633850 0.616730
0.462341 0.701324 0.669525
0.666473 0.785156 0.773590
0.757080 0.827484 0.823425
0.793243 0.823090 0.797241
0.842468 0.672791 0.466125
0.869324 0.548737 0.145050
0.021271 0.632446 0.636749
0.044739 0.644012 0.644257
0.156677 0.675171 0.654175
0.389648 0.723328 0.676605
0.594513 0.783112 0.735046
0.750427 0.839783 0.820557
0.814453 0.866943 0.853668
0.856537 0.877594 0.860229
0.897400 0.781860 0.595245
0.020508 0.675232 0.667023
0.030731 0.682007 0.668701
0.102631 0.703125 0.670837
0.304382 0.742432 0.686279
0.537994 0.793762 0.727661
0.714722 0.841187 0.791321
0.829651 0.882141 0.860229
0.877258 0.899536 0.887909
0.907410 0.914795 0.907410
0.018921 0.705322 0.655396
0.025238 0.709351 0.655975
0.080536 0.726349 0.655670
0.285126 0.767426 0.667297
0.541870 0.817078 0.721985
0.742554 0.863464 0.792908
0.861359 0.897583 0.867493
0.921143 0.927307 0.921448
0.954254 0.952820 0.946960
0.000000 0.027588 0.046173
0.069458 0.042511 0.064514
0.134796 0.061646 0.049652
0.186279 0.075653 0.035492
0.248688 0.087402 0.033905
0.341095 0.099915 0.039429
0.447510 0.114319 0.048279
0.543182 0.129669 0.059265
0.628204 0.138885 0.080994
0.002350 0.077148 0.081482
0.060455 0.098328 0.100677
0.139160 0.102631 0.088287
0.208710 0.109344 0.061035
0.281036 0.120728 0.037842
0.374451 0.136566 0.031525
0.471558 0.153076 0.035492
0.559906 0.168671 0.045441
0.642731 0.177155 0.070526
0.006317 0.185211 0.188995
0.068390 0.220856 0.224335
0.217834 0.294250 0.296509
0.280792 0.223297 0.171478
0.349030 0.185425 0.070526
0.430664 0.191071 0.038635
0.510864 0.204742 0.028381
0.591858 0.226044 0.033112
0.672241 0.244965 0.054932
0.000000 0.361725 0.368927
0.062805 0.384460 0.390442
0.287231 0.466187 0.470703
0.497009 0.569946 0.574127
0.509003 0.460602 0.399475
0.517731 0.298126 0.118744
0.569061 0.273895 0.046173
0.642914 0.296509 0.043243
0.723236 0.333405 0.055573
0.000000 0.496094 0.507507
0.032318 0.510864 0.520630
0.248199 0.564484 0.568054
0.545197 0.683411 0.685699
0.688843 0.761658 0.763123
0.702942 0.696808 0.652008
0.713135 0.497162 0.297516
0.730469 0.402344 0.086945
0.791077 0.429657 0.063385
0.000000 0.590179 0.602386
0.015778 0.601868 0.612274
0.223267 0.636230 0.625488
0.460815 0.701965 0.680237
0.679382 0.792664 0.786804
0.785156 0.842346 0.842773
0.803589 0.826904 0.804688
0.839600 0.674713 0.484039
0.868317 0.545990 0.151001
0.020508 0.645081 0.650757
0.042511 0.654968 0.657623
0.175812 0.683807 0.666656
0.405945 0.730713 0.687073
0.600342 0.787842 0.746368
0.760254 0.846954 0.832336
0.824219 0.875519 0.867493
0.858398 0.883423 0.872406
0.896484 0.789703 0.623749
0.029968 0.684875 0.677277
0.041748 0.690369 0.678894
0.123993 0.711426 0.681396
0.329987 0.751526 0.699097
0.548859 0.799835 0.740906
0.718445 0.845764 0.803406
0.834503 0.886810 0.871185
0.880920 0.904907 0.897888
0.910034 0.919861 0.915955
0.018921 0.709717 0.676514
0.029968 0.715332 0.675659
0.108978 0.736267 0.672913
0.328003 0.777893 0.689392
0.570953 0.825745 0.744690
0.751587 0.867737 0.808136
0.864807 0.900635 0.876587
0.922424 0.929871 0.925903
0.955627 0.956177 0.951019
0.000793 0.063385 0.088715
0.043243 0.068390 0.104919
0.126221 0.080048 0.101471
0.207214 0.101868 0.067841
0.292755 0.122375 0.035492
0.383362 0.130280 0.033905
0.470856 0.117737 0.067322
0.555664 0.112213 0.103760
0.636658 0.126862 0.135681
0.000793 0.093414 0.104919
0.040985 0.111145 0.123688
0.127808 0.123352 0.141724
0.232422 0.138580 0.126556
0.325439 0.151520 0.076660
0.411621 0.159698 0.040985
0.492462 0.152557 0.057434
0.573090 0.149384 0.092590
0.652222 0.166046 0.125580
0.006317 0.151520 0.160217
0.047577 0.164368 0.170074
0.150726 0.206451 0.209839
0.272522 0.211304 0.198334
0.381531 0.210388 0.155670
0.460388 0.205139 0.101868
0.530701 0.206451 0.062225
0.605774 0.216034 0.070526
0.685669 0.234894 0.105286
0.000000 0.302704 0.308960
0.062805 0.309204 0.311096
0.203033 0.359436 0.359924
0.412201 0.460175 0.460663
0.455292 0.366608 0.305359
0.520050 0.292480 0.162903
0.588287 0.282104 0.104919
0.657410 0.299622 0.069458
0.736145 0.331757 0.081482
0.000000 0.455536 0.464539
0.047577 0.468201 0.473267
0.233093 0.515961 0.514587
0.484314 0.623718 0.623718
0.657959 0.712830 0.714172
0.669250 0.624939 0.565582
0.692566 0.447510 0.251740
0.739563 0.402069 0.119751
0.801819 0.433380 0.077148
0.000000 0.584137 0.597778
0.015778 0.594910 0.606445
0.221191 0.626770 0.624512
0.450592 0.693695 0.685364
0.681335 0.786377 0.782837
0.802032 0.845825 0.847107
0.810181 0.814697 0.790070
0.834351 0.652832 0.465546
0.869141 0.538300 0.161438
0.017334 0.662323 0.669800
0.038635 0.669250 0.675415
0.208130 0.694397 0.683289
0.427155 0.738892 0.703674
0.604919 0.792664 0.763733
0.781677 0.859070 0.852295
0.860870 0.894287 0.896088
0.873413 0.892517 0.887634
0.894958 0.797791 0.662140
0.064514 0.702820 0.694092
0.074158 0.706512 0.696045
0.174194 0.727325 0.701324
0.379211 0.767822 0.723053
0.570892 0.810760 0.761963
0.727051 0.853943 0.822296
0.844666 0.895508 0.888123
0.890625 0.915955 0.914673
0.914001 0.929749 0.929535
0.044006 0.726807 0.706238
0.071564 0.733948 0.703979
0.183502 0.757751 0.704529
0.401367 0.795898 0.729736
0.608673 0.838623 0.776489
0.770844 0.876099 0.833984
0.873230 0.907104 0.892700
0.931305 0.939636 0.939026
0.962311 0.964844 0.964355
0.000000 0.098328 0.123352
0.033905 0.090027 0.141724
0.101471 0.104919 0.156189
0.211487 0.117065 0.156433
0.329224 0.148590 0.106781
0.439758 0.177368 0.040985
0.517822 0.174683 0.046173
0.587585 0.145599 0.121399
0.650757 0.130280 0.209473
0.000000 0.137146 0.157959
0.017334 0.141449 0.165344
0.110779 0.151520 0.181122
0.231598 0.163147 0.201080
0.356842 0.180237 0.169830
0.460083 0.193115 0.092163
0.533173 0.195160 0.054291
0.602600 0.176910 0.115021
0.666626 0.169830 0.204742
0.002380 0.150208 0.165100
0.022858 0.171692 0.185425
0.118408 0.218018 0.234894
0.259308 0.237030 0.269745
0.398438 0.244507 0.259460
0.497742 0.239746 0.192108
0.565735 0.234406 0.114655
0.632446 0.233246 0.110779
0.702728 0.239746 0.195160
0.000000 0.255035 0.268341
0.026794 0.259003 0.270447
0.132111 0.281036 0.287750
0.298523 0.336731 0.342682
0.431396 0.341309 0.324341
0.543243 0.333282 0.281311
0.621857 0.318420 0.221558
0.686096 0.317963 0.154633
0.756348 0.337921 0.171234
0.000000 0.421661 0.432953
0.058044 0.421814 0.426819
0.194550 0.435333 0.427002
0.384460 0.506348 0.500183
0.580078 0.611511 0.609528
0.619751 0.523865 0.454102
0.694916 0.442078 0.299500
0.760864 0.424500 0.220490
0.820831 0.441559 0.153870
0.000000 0.550079 0.563660
0.038635 0.556396 0.564514
0.215881 0.585266 0.574341
0.431152 0.652405 0.635468
0.628906 0.738770 0.731415
0.773804 0.807922 0.808350
0.787048 0.752258 0.704956
0.829041 0.596466 0.396149
0.875427 0.543427 0.225006
0.018921 0.661285 0.671753
0.054291 0.668762 0.676758
0.235199 0.692566 0.684509
0.434998 0.735046 0.710327
0.602600 0.789429 0.771301
0.787781 0.856812 0.852356
0.877136 0.899658 0.902832
0.881317 0.890442 0.884216
0.894836 0.776978 0.633331
0.121735 0.720886 0.715637
0.132111 0.724060 0.718384
0.245880 0.745544 0.725830
0.431549 0.782257 0.744446
0.594299 0.820251 0.782166
0.735504 0.861023 0.839600
0.865662 0.907715 0.906616
0.920593 0.937378 0.940613
0.927246 0.942932 0.944641
0.097107 0.747253 0.732483
0.144501 0.757843 0.732483
0.275391 0.779510 0.738647
0.470490 0.814819 0.763977
0.652771 0.854858 0.810303
0.792969 0.885834 0.858582
0.882629 0.915283 0.907898
0.939484 0.950867 0.950439
0.969910 0.974823 0.975403
0.000000 0.142853 0.173309
0.035492 0.120087 0.180908
0.074158 0.132690 0.207581
0.207764 0.152832 0.226196
0.340149 0.162170 0.237671
0.460907 0.184387 0.170532
0.557800 0.216064 0.066193
0.629639 0.203430 0.135376
0.683167 0.184998 0.264526
0.000000 0.195953 0.225006
0.004730 0.184998 0.219421
0.084717 0.177155 0.228912
0.220673 0.195557 0.262360
0.359924 0.199127 0.270996
0.476776 0.209076 0.216949
0.571686 0.227570 0.113617
0.641968 0.226562 0.133911
0.698547 0.214966 0.263672
0.000000 0.219604 0.245422
0.001556 0.237518 0.267212
0.075653 0.258270 0.292480
0.243713 0.272919 0.321960
0.386017 0.273895 0.336639
0.505371 0.273468 0.307892
0.602692 0.276215 0.218201
0.671112 0.277557 0.161194
0.729614 0.277710 0.264099
0.000000 0.237518 0.259613
0.006287 0.243073 0.264801
0.080536 0.277710 0.297760
0.258148 0.347382 0.369965
0.418701 0.373108 0.408844
0.551941 0.381714 0.402863
0.658142 0.374725 0.341858
0.725037 0.363586 0.251129
0.782471 0.368347 0.263367
0.000000 0.369293 0.390625
0.006287 0.369598 0.389374
0.116364 0.379395 0.392059
0.281433 0.413635 0.418030
0.471619 0.485413 0.488495
0.601288 0.502625 0.476288
0.716675 0.494080 0.432556
0.788025 0.474731 0.359131
0.836853 0.469635 0.267487
0.000000 0.537231 0.556366
0.045441 0.540771 0.554688
0.215515 0.554901 0.553162
0.387848 0.585663 0.565186
0.554657 0.650940 0.636047
0.714081 0.734558 0.730347
0.761169 0.667847 0.595215
0.829376 0.589417 0.433350
0.878784 0.570953 0.335236
0.014191 0.652679 0.665375
0.104523 0.657166 0.664062
0.253845 0.672760 0.658569
0.431213 0.708679 0.673340
0.591827 0.761597 0.734619
0.749634 0.824585 0.816162
0.859802 0.877441 0.878967
0.867188 0.848358 0.819092
0.897034 0.724976 0.538574
0.152313 0.725342 0.723816
0.187744 0.731323 0.726440
0.307159 0.753174 0.732849
0.465393 0.785919 0.751434
0.606934 0.821167 0.791168
0.740143 0.861786 0.846649
0.872742 0.907898 0.908325
0.932617 0.944458 0.947205
0.933868 0.945068 0.945618
0.183075 0.769287 0.749023
0.207031 0.773254 0.750122
0.332520 0.793701 0.758789
0.511627 0.828033 0.786469
0.681671 0.865906 0.830444
0.806946 0.892975 0.874847
0.892090 0.922546 0.919617
0.948486 0.961060 0.962158
0.984619 0.988831 0.988647
0.000000 0.197754 0.240417
0.045441 0.162445 0.243408
0.049683 0.168915 0.276489
0.157715 0.193115 0.311798
0.350067 0.205139 0.320160
0.467224 0.202271 0.327362
0.568054 0.218903 0.271545
0.660278 0.243561 0.213501
0.720184 0.252808 0.357147
0.000000 0.256958 0.302216
0.004730 0.233917 0.286041
0.071564 0.204163 0.295380
0.169617 0.224823 0.335236
0.360535 0.237823 0.343109
0.478180 0.233765 0.348206
0.579895 0.245605 0.294250
0.673645 0.267639 0.221375
0.733093 0.278381 0.357574
0.000000 0.291595 0.333618
0.000000 0.297882 0.341095
0.025238 0.291992 0.346344
0.206635 0.295258 0.374542
0.376312 0.312988 0.397644
0.500061 0.307526 0.400085
0.608276 0.308594 0.357941
0.704346 0.317963 0.270844
0.762329 0.329987 0.357361
0.000000 0.294647 0.329254
0.000000 0.309082 0.346863
0.024445 0.349854 0.392426
0.219971 0.392670 0.433685
0.409027 0.415649 0.473114
0.542053 0.422150 0.486572
0.661011 0.417694 0.466553
0.752747 0.409271 0.373505
0.808411 0.408752 0.356171
0.000000 0.346039 0.381256
0.000000 0.347076 0.381622
0.049652 0.356445 0.385193
0.209259 0.399384 0.420410
0.439850 0.500061 0.525970
0.592041 0.536346 0.570343
0.716675 0.540558 0.560608
0.804321 0.523987 0.488159
0.851135 0.504456 0.375854
0.000000 0.490265 0.519836
0.001556 0.490723 0.519257
0.101868 0.496826 0.519073
0.292603 0.522430 0.532806
0.469116 0.569672 0.571411
0.635925 0.635712 0.638031
0.749207 0.654053 0.621002
0.831604 0.636749 0.567963
0.880005 0.613098 0.468689
0.016541 0.651947 0.673279
0.096710 0.656952 0.674133
0.263947 0.670837 0.676849
0.436584 0.695343 0.680328
0.568787 0.721924 0.692047
0.699524 0.769836 0.750885
0.833435 0.842194 0.842529
0.855164 0.788147 0.727692
0.896484 0.719421 0.562012
0.204742 0.738068 0.743683
0.262512 0.744446 0.744446
0.368042 0.759735 0.743652
0.491455 0.781555 0.745819
0.614929 0.809387 0.771179
0.740265 0.847900 0.827209
0.852509 0.891052 0.887817
0.923462 0.929443 0.933167
0.928558 0.922668 0.920837
0.254730 0.783295 0.761414
0.292236 0.789246 0.762848
0.383362 0.804443 0.769836
0.516144 0.830688 0.792786
0.674805 0.866333 0.833344
0.804718 0.894226 0.879852
0.895020 0.925781 0.924866
0.951294 0.963257 0.965149
0.988037 0.991394 0.990906
0.001556 0.249908 0.316376
0.052368 0.207428 0.327484
0.007904 0.209106 0.362305
0.071045 0.231628 0.412964
0.311554 0.257721 0.434570
0.482056 0.275146 0.424591
0.583832 0.289948 0.436432
0.677368 0.305969 0.433838
0.752625 0.324677 0.483582
0.000000 0.302216 0.364655
0.014191 0.275940 0.351685
0.058044 0.235382 0.370361
0.089142 0.250519 0.416138
0.307526 0.282104 0.441559
0.486115 0.299500 0.435120
0.592468 0.313202 0.448364
0.689240 0.328003 0.440613
0.764343 0.344055 0.486664
0.000000 0.343231 0.402618
0.000000 0.346771 0.405182
0.013397 0.329559 0.402588
0.150208 0.305969 0.434143
0.318207 0.342255 0.473969
0.503937 0.365143 0.473328
0.617035 0.372253 0.486115
0.715607 0.378113 0.465393
0.790405 0.386658 0.491760
0.000000 0.376251 0.426117
0.000000 0.386414 0.437988
0.000000 0.404846 0.462585
0.113617 0.416473 0.481628
0.373291 0.439758 0.524811
0.536407 0.469910 0.550537
0.658600 0.469849 0.557037
0.755371 0.457733 0.523560
0.823975 0.449921 0.497162
0.000000 0.380981 0.425385
0.000000 0.387848 0.433289
0.009460 0.412384 0.459015
0.157166 0.478577 0.523682
0.409943 0.548492 0.594482
0.578308 0.576324 0.636169
0.701324 0.582306 0.641968
0.796021 0.562805 0.611115
0.857666 0.532501 0.509125
0.000000 0.464325 0.509918
0.000000 0.465118 0.510162
0.026001 0.471710 0.512848
0.207214 0.494537 0.522705
0.402435 0.554749 0.574677
0.609070 0.656006 0.678101
0.738831 0.686584 0.710754
0.825012 0.680054 0.692932
0.880524 0.645660 0.591827
0.006287 0.625061 0.658875
0.022064 0.626770 0.659393
0.151489 0.633667 0.660889
0.339417 0.652588 0.668365
0.503937 0.680725 0.684845
0.642212 0.718628 0.715271
0.779022 0.773499 0.770996
0.850525 0.786102 0.762146
0.895203 0.761810 0.697815
0.228424 0.749146 0.762634
0.278503 0.754456 0.765015
0.381073 0.766846 0.770752
0.504974 0.786102 0.778076
0.625732 0.808716 0.788330
0.735229 0.831543 0.809570
0.832275 0.867004 0.856934
0.911194 0.911499 0.914368
0.923157 0.884644 0.857605
0.382385 0.810547 0.802612
0.414307 0.815979 0.804321
0.479004 0.828033 0.808807
0.575043 0.847229 0.819336
0.688690 0.869415 0.838379
0.792786 0.889526 0.868927
0.883240 0.918701 0.914551
0.942932 0.956543 0.956390
0.988281 0.991394 0.990936
0.043243 0.284760 0.393066
0.023651 0.250061 0.417389
0.000000 0.252960 0.456787
0.036255 0.277710 0.511566
0.252625 0.300629 0.545563
0.468414 0.332428 0.544983
0.616577 0.384766 0.559692
0.721313 0.414978 0.587769
0.786255 0.410797 0.621765
0.002380 0.332092 0.417572
0.043274 0.304901 0.420685
0.022064 0.271271 0.454865
0.025238 0.285797 0.506744
0.236359 0.317963 0.544617
0.467041 0.358246 0.553345
0.624756 0.405609 0.568848
0.728912 0.433441 0.596313
0.794861 0.428131 0.630096
0.000000 0.390015 0.465332
0.000000 0.389374 0.466217
0.030762 0.361023 0.465271
0.096313 0.322296 0.503235
0.229919 0.356659 0.550659
0.465027 0.411041 0.576385
0.640198 0.453156 0.591125
0.744690 0.474396 0.615417
0.811432 0.468079 0.645355
0.000000 0.442413 0.514069
0.000000 0.447296 0.518890
0.000000 0.457611 0.530060
0.028381 0.446136 0.533356
0.279724 0.435944 0.569244
0.480469 0.494202 0.626129
0.661285 0.529388 0.635468
0.766418 0.537811 0.648529
0.832458 0.524872 0.666016
0.000000 0.465759 0.526306
0.000000 0.477417 0.539795
0.000000 0.504547 0.571259
0.022064 0.544098 0.612488
0.269012 0.568329 0.635468
0.531006 0.592041 0.680237
0.683777 0.622650 0.697845
0.788879 0.622498 0.698547
0.852142 0.597229 0.686096
0.000000 0.499023 0.558319
0.000000 0.502563 0.561737
0.001556 0.513489 0.570801
0.148590 0.550079 0.599091
0.370911 0.633118 0.671875
0.567993 0.693420 0.728668
0.717712 0.714539 0.758179
0.813446 0.719879 0.762146
0.873718 0.685547 0.725403
0.001556 0.613739 0.661255
0.008667 0.615112 0.662018
0.086517 0.621552 0.665161
0.271667 0.639771 0.673798
0.446747 0.669312 0.689392
0.592560 0.713287 0.725861
0.758362 0.790253 0.802124
0.849792 0.815002 0.829132
0.895020 0.792664 0.800171
0.240082 0.750885 0.771118
0.278107 0.754517 0.772705
0.360931 0.762817 0.777161
0.468628 0.776245 0.784485
0.584747 0.792908 0.795105
0.700165 0.814453 0.811951
0.807007 0.845703 0.843506
0.888245 0.883850 0.883484
0.927856 0.890015 0.882996
0.472565 0.833130 0.833649
0.494690 0.837280 0.835632
0.543091 0.847687 0.840454
0.619263 0.863647 0.849518
0.716125 0.879730 0.864990
0.812744 0.898010 0.888947
0.887146 0.919128 0.914673
0.939209 0.948792 0.948029
0.991180 0.993591 0.992981
0.048981 0.302582 0.489777
0.000000 0.290466 0.518127
0.000000 0.301361 0.569916
0.128723 0.330688 0.611206
0.325012 0.357758 0.644226
0.479218 0.369110 0.649689
0.627075 0.400970 0.650330
0.749878 0.437378 0.658508
0.797638 0.397552 0.696594
0.095490 0.341736 0.502899
0.052979 0.322662 0.516113
0.000793 0.310272 0.561462
0.093414 0.338043 0.608765
0.301727 0.374176 0.644012
0.469727 0.390381 0.660461
0.628906 0.417633 0.661194
0.756378 0.456360 0.668182
0.806091 0.416901 0.702148
0.010254 0.416870 0.531464
0.024445 0.411530 0.532990
0.072632 0.376984 0.552765
0.071045 0.358459 0.600830
0.257263 0.399567 0.645325
0.443024 0.433929 0.679016
0.632721 0.459442 0.685791
0.767517 0.492096 0.688904
0.821777 0.459656 0.716431
0.000000 0.499695 0.598175
0.000000 0.502502 0.600616
0.000793 0.503937 0.602966
0.058075 0.470337 0.598785
0.239105 0.441620 0.638611
0.409271 0.491882 0.698975
0.636566 0.531158 0.726471
0.781219 0.550629 0.723480
0.839478 0.519318 0.733826
0.000000 0.575745 0.656982
0.000000 0.580658 0.661987
0.000000 0.590179 0.670715
0.000000 0.599457 0.677094
0.052338 0.581604 0.667908
0.410950 0.573090 0.707611
0.631653 0.621521 0.763672
0.792603 0.633789 0.759827
0.855408 0.605652 0.764404
0.000000 0.578522 0.644775
0.000000 0.586365 0.651855
0.000000 0.608948 0.671967
0.056824 0.652069 0.708801
0.217834 0.696960 0.744934
0.414795 0.705078 0.753113
0.650940 0.712891 0.784485
0.804962 0.734253 0.805786
0.874329 0.713623 0.808350
0.001556 0.658112 0.709473
0.014191 0.661072 0.712158
0.106384 0.669952 0.717102
0.270447 0.686035 0.726196
0.427063 0.714752 0.745117
0.573273 0.774170 0.793884
0.708008 0.811096 0.829926
0.832397 0.826202 0.852875
0.897400 0.821564 0.859863
0.248688 0.759399 0.786865
0.287628 0.763000 0.788788
0.363678 0.771423 0.792969
0.463959 0.783966 0.800018
0.570679 0.799683 0.810333
0.678528 0.817627 0.824463
0.784332 0.849823 0.854797
0.885376 0.898102 0.904358
0.935913 0.915955 0.924225
0.474823 0.840302 0.848022
0.500397 0.845551 0.850952
0.553589 0.855896 0.857391
0.634277 0.870300 0.868164
0.729156 0.885437 0.884796
0.820984 0.903809 0.903870
0.895691 0.927490 0.929474
0.951508 0.962311 0.964478
1.000000 1.000000 0.999146
