design/ux_analyses/Resolume/Resolume Arena/luts/Februm.cube
# Copyright: (C) Copyright 2010-2018 by IWLTBAP SAS
# Cannot be resold, shared or otherwise redistributed
# Website: https://luts.iwltbap.com
TITLE "IWLTBAP Februm (Rec.709, sRGB, DCI-P3)"
LUT_3D_SIZE 33
0.002747 0.000854 0.000885
0.029602 0.002716 0.001648
0.058716 0.005768 0.003296
0.088531 0.009247 0.004883
0.118988 0.012604 0.006378
0.150055 0.016083 0.007843
0.181427 0.019440 0.009003
0.212799 0.022583 0.010132
0.243958 0.025665 0.010986
0.274750 0.028534 0.011841
0.304993 0.031281 0.012482
0.334717 0.033752 0.013306
0.363861 0.036224 0.014313
0.392609 0.038849 0.015320
0.420990 0.041443 0.016632
0.449066 0.044250 0.018311
0.477051 0.047241 0.020081
0.508850 0.050507 0.022430
0.536896 0.054230 0.025299
0.565094 0.058289 0.028595
0.593689 0.062897 0.032745
0.622711 0.068329 0.037628
0.652222 0.074524 0.043640
0.682465 0.081848 0.051147
0.713318 0.090637 0.060242
0.744843 0.101013 0.071289
0.776825 0.113281 0.084412
0.809113 0.127411 0.099609
0.841431 0.143280 0.116638
0.873566 0.160492 0.135132
0.905334 0.178741 0.154633
0.936737 0.197601 0.174713
0.967926 0.216797 0.195068
0.018921 0.008179 0.000732
0.040192 0.020203 0.001862
0.063354 0.029694 0.002228
0.092712 0.033081 0.003845
0.122864 0.036407 0.005402
0.153564 0.039978 0.006653
0.184723 0.043304 0.008087
0.215912 0.046539 0.009247
0.246979 0.049561 0.010376
0.277649 0.052277 0.011230
0.307770 0.054749 0.012085
0.337280 0.057098 0.012909
0.366241 0.059357 0.013947
0.394714 0.061646 0.015137
0.422791 0.064056 0.016449
0.450653 0.066589 0.018127
0.478333 0.069336 0.020081
0.509949 0.072418 0.022430
0.537781 0.075897 0.025146
0.565765 0.079834 0.028595
0.594177 0.084351 0.032623
0.623108 0.089569 0.037628
0.652527 0.095642 0.043640
0.682648 0.102905 0.051147
0.713470 0.111603 0.060242
0.744934 0.121979 0.071289
0.776917 0.134247 0.084412
0.809143 0.148315 0.099609
0.841492 0.164154 0.116638
0.873596 0.181396 0.135132
0.905334 0.199646 0.154633
0.936737 0.218475 0.174713
0.967926 0.237671 0.195068
0.038788 0.018097 0.000488
0.059753 0.027557 0.000366
0.075623 0.042999 0.002533
0.097260 0.057281 0.002502
0.127075 0.060699 0.004120
0.157501 0.064026 0.005676
0.188446 0.067413 0.006897
0.219543 0.070709 0.008331
0.250458 0.073547 0.009491
0.280975 0.076263 0.010590
0.310974 0.078705 0.011444
0.340302 0.080841 0.012512
0.369080 0.082977 0.013550
0.397339 0.084961 0.014740
0.425171 0.087067 0.016083
0.452667 0.089325 0.017761
0.480103 0.091858 0.019897
0.511475 0.094696 0.022278
0.539001 0.097931 0.025146
0.566772 0.101624 0.028442
0.595001 0.105927 0.032623
0.623688 0.111053 0.037628
0.652985 0.117004 0.043640
0.682983 0.124176 0.051147
0.713715 0.132782 0.060242
0.745087 0.143066 0.071289
0.777008 0.155212 0.084412
0.809235 0.169281 0.099609
0.841522 0.185089 0.116638
0.873596 0.202301 0.135132
0.905365 0.220520 0.154633
0.936737 0.239380 0.174713
0.967926 0.258545 0.195068
0.062073 0.027832 0.000275
0.080200 0.037384 0.000122
0.096252 0.050110 0.000000
0.114044 0.066315 0.002563
0.132050 0.085052 0.002533
0.162231 0.088593 0.004150
0.192902 0.092010 0.005676
0.223816 0.095367 0.007172
0.254669 0.098389 0.008575
0.285095 0.101013 0.009491
0.315002 0.103424 0.010590
0.344208 0.105499 0.011688
0.372803 0.107422 0.012939
0.400818 0.109192 0.014160
0.428375 0.110992 0.015533
0.455627 0.112946 0.017395
0.482697 0.115204 0.019379
0.513763 0.117676 0.021942
0.540924 0.120636 0.024841
0.568451 0.124084 0.028442
0.596313 0.128143 0.032501
0.624756 0.132965 0.037628
0.653839 0.138733 0.043640
0.683624 0.145691 0.051147
0.714172 0.154114 0.060242
0.745422 0.164307 0.071289
0.777252 0.176361 0.084412
0.809387 0.190338 0.099609
0.841644 0.206085 0.116638
0.873688 0.223236 0.135132
0.905426 0.241455 0.154633
0.936768 0.260284 0.174744
0.967926 0.279419 0.195068
0.086090 0.040344 0.000000
0.102478 0.049530 0.000000
0.119171 0.060974 0.000000
0.137299 0.073608 0.000000
0.154694 0.091187 0.002594
0.167786 0.113708 0.002533
0.198273 0.117249 0.004150
0.229004 0.120697 0.005707
0.259735 0.123840 0.007172
0.290131 0.126709 0.008362
0.320007 0.129120 0.009491
0.349152 0.131165 0.010620
0.377655 0.132935 0.011902
0.405487 0.134583 0.013336
0.432800 0.136169 0.014954
0.459747 0.137817 0.016663
0.486511 0.139709 0.018860
0.517151 0.141785 0.021454
0.543945 0.144379 0.024536
0.571014 0.147461 0.028168
0.598541 0.151154 0.032349
0.626587 0.155640 0.037506
0.655304 0.161072 0.043640
0.684784 0.167755 0.051147
0.715057 0.175903 0.060333
0.746094 0.185852 0.071381
0.777710 0.197754 0.084473
0.809723 0.211578 0.099640
0.841827 0.227234 0.116669
0.873779 0.244324 0.135162
0.905518 0.262451 0.154633
0.936798 0.281219 0.174744
0.967926 0.300323 0.195099
0.113098 0.055420 0.000000
0.129089 0.063599 0.000000
0.145416 0.073486 0.000000
0.161774 0.086456 0.000000
0.181427 0.098999 0.000000
0.197906 0.117737 0.001953
0.204620 0.143097 0.002563
0.235199 0.146698 0.004181
0.265747 0.150116 0.005463
0.296143 0.153137 0.006927
0.326019 0.155731 0.008118
0.355194 0.157867 0.009277
0.383636 0.159698 0.010620
0.411407 0.161285 0.012115
0.438568 0.162659 0.013763
0.465240 0.164032 0.015930
0.491638 0.165588 0.018158
0.521881 0.167389 0.020935
0.548248 0.169525 0.024048
0.574890 0.172119 0.027710
0.601837 0.175385 0.032227
0.629395 0.179321 0.037384
0.657654 0.184326 0.043671
0.686707 0.190582 0.051239
0.716583 0.198364 0.060425
0.747253 0.208008 0.071442
0.778564 0.219604 0.084625
0.810333 0.233185 0.099762
0.842255 0.248627 0.116760
0.874084 0.265533 0.135193
0.905670 0.283539 0.154694
0.936920 0.302246 0.174774
0.967957 0.321228 0.195099
0.143890 0.071259 0.000000
0.158905 0.079437 0.000000
0.174744 0.088043 0.000000
0.189941 0.100311 0.000000
0.207733 0.113464 0.000000
0.228699 0.126617 0.000000
0.243347 0.146210 0.001312
0.242218 0.173218 0.002289
0.272644 0.177002 0.003662
0.302948 0.180298 0.005219
0.332855 0.183197 0.006470
0.362091 0.185638 0.007904
0.390625 0.187622 0.009308
0.418365 0.189148 0.010834
0.445465 0.190460 0.012543
0.471985 0.191711 0.014771
0.502075 0.192932 0.017242
0.528046 0.194336 0.020111
0.553986 0.196106 0.023438
0.580048 0.198181 0.027283
0.606537 0.200897 0.031830
0.633484 0.204376 0.037262
0.661133 0.208832 0.043549
0.689575 0.214508 0.051239
0.718903 0.221771 0.060486
0.749115 0.230896 0.071594
0.779999 0.242065 0.084747
0.811401 0.255249 0.099915
0.842987 0.270355 0.116913
0.874603 0.287048 0.135315
0.905975 0.304810 0.154755
0.937103 0.323334 0.174835
0.967987 0.342194 0.195129
0.177826 0.089233 0.000000
0.191589 0.096924 0.000000
0.206390 0.104980 0.000000
0.221252 0.116028 0.000000
0.237366 0.128723 0.000000
0.256348 0.142395 0.000000
0.278076 0.156006 0.000000
0.290192 0.176331 0.000671
0.280182 0.204163 0.001740
0.310333 0.207825 0.003418
0.340240 0.211182 0.004730
0.369568 0.213959 0.006226
0.398224 0.216248 0.007690
0.426117 0.218048 0.009308
0.453247 0.219482 0.011292
0.479797 0.220673 0.013367
0.509705 0.221771 0.016113
0.535431 0.222839 0.019073
0.561035 0.224182 0.022614
0.586639 0.225830 0.026703
0.612549 0.228027 0.031433
0.638916 0.230896 0.037018
0.665894 0.234680 0.043549
0.693665 0.239746 0.051331
0.722290 0.246338 0.060669
0.751801 0.254822 0.071899
0.782104 0.265381 0.085052
0.812958 0.278046 0.100189
0.844147 0.292664 0.117096
0.875366 0.308899 0.135529
0.906464 0.326385 0.154907
0.937378 0.344635 0.174957
0.968079 0.363251 0.195221
0.213898 0.108643 0.000000
0.226776 0.115845 0.000000
0.240601 0.123749 0.000000
0.255463 0.132812 0.000000
0.269745 0.145599 0.000000
0.286804 0.158783 0.000000
0.306458 0.172821 0.000000
0.328735 0.186829 0.000000
0.337219 0.207611 0.000000
0.318115 0.235565 0.001495
0.347900 0.239288 0.003143
0.377258 0.242554 0.004730
0.406067 0.245331 0.006256
0.434143 0.247406 0.007935
0.461487 0.249146 0.009766
0.488129 0.250458 0.012146
0.518097 0.251526 0.014954
0.543732 0.252502 0.018158
0.569122 0.253601 0.021790
0.594360 0.254913 0.026093
0.619781 0.256561 0.031006
0.645538 0.258881 0.036896
0.671906 0.262054 0.043549
0.698944 0.266388 0.051544
0.726807 0.272217 0.061005
0.755554 0.279907 0.072205
0.785126 0.289703 0.085419
0.815308 0.301636 0.100525
0.845917 0.315613 0.117462
0.876617 0.331329 0.135803
0.907288 0.348328 0.155182
0.937805 0.366180 0.175140
0.968231 0.384430 0.195374
0.251923 0.129639 0.000000
0.263947 0.136353 0.000000
0.276703 0.143433 0.000000
0.291107 0.151703 0.000000
0.304108 0.163452 0.000000
0.319305 0.176331 0.000000
0.336975 0.190125 0.000000
0.356903 0.204407 0.000000
0.378937 0.218597 0.000000
0.383789 0.239655 0.000000
0.355591 0.267242 0.001495
0.384918 0.271027 0.003174
0.413788 0.274292 0.005005
0.442078 0.276978 0.006744
0.469666 0.279053 0.008636
0.498932 0.280701 0.011078
0.526642 0.281952 0.013794
0.552368 0.282990 0.017059
0.577698 0.283997 0.020966
0.602783 0.285004 0.025482
0.627899 0.286346 0.030762
0.653229 0.288147 0.036774
0.678986 0.290741 0.043671
0.705292 0.294342 0.051849
0.732422 0.299438 0.061462
0.760315 0.306274 0.072723
0.789062 0.315186 0.085938
0.818420 0.326294 0.101074
0.848267 0.339447 0.117981
0.878357 0.354431 0.136230
0.908447 0.370819 0.155518
0.938507 0.388092 0.175446
0.968536 0.405823 0.195618
0.291229 0.151367 0.000000
0.302216 0.157654 0.000000
0.314056 0.164551 0.000000
0.327148 0.172028 0.000000
0.340027 0.182251 0.000000
0.353210 0.194519 0.000000
0.368744 0.208008 0.000000
0.386475 0.222107 0.000000
0.406311 0.236481 0.000000
0.428009 0.250702 0.000000
0.429565 0.271667 0.000763
0.397247 0.297791 0.002258
0.421173 0.302917 0.003967
0.449554 0.306152 0.005768
0.477386 0.308807 0.007935
0.508453 0.310883 0.010223
0.534943 0.312469 0.013184
0.560883 0.313721 0.016510
0.586304 0.314789 0.020477
0.611420 0.315796 0.025177
0.636383 0.316925 0.030609
0.661407 0.318359 0.036774
0.686737 0.320465 0.043915
0.712433 0.323425 0.052246
0.738831 0.327759 0.062042
0.765961 0.333740 0.073364
0.793793 0.341736 0.086639
0.822296 0.351898 0.101776
0.851349 0.364136 0.118591
0.880646 0.378296 0.136841
0.910065 0.393860 0.156036
0.939514 0.410431 0.175873
0.968933 0.427521 0.195984
0.330994 0.173798 0.000000
0.341156 0.179688 0.000000
0.352081 0.186157 0.000000
0.363953 0.193176 0.000000
0.376770 0.201965 0.000000
0.387970 0.213440 0.000000
0.401306 0.226135 0.000000
0.416840 0.239777 0.000000
0.434357 0.254059 0.000000
0.453979 0.268372 0.000000
0.475067 0.282562 0.000122
0.473480 0.303223 0.004089
0.439453 0.327942 0.004425
0.456482 0.334747 0.005249
0.484436 0.337982 0.007477
0.515778 0.340637 0.010010
0.542572 0.342743 0.012970
0.568848 0.344330 0.016327
0.594482 0.345673 0.020294
0.619781 0.346741 0.025208
0.644775 0.347809 0.030609
0.669739 0.349121 0.037048
0.694763 0.350830 0.044464
0.720062 0.353333 0.052917
0.745850 0.356995 0.062805
0.772247 0.362183 0.074249
0.799255 0.369263 0.087585
0.826874 0.378418 0.102631
0.854980 0.389709 0.119415
0.883453 0.402893 0.137573
0.912109 0.417572 0.156738
0.940826 0.433289 0.176514
0.969574 0.449554 0.196533
0.370605 0.196686 0.000000
0.379944 0.202484 0.000000
0.389893 0.208344 0.000000
0.400757 0.214935 0.000000
0.412903 0.222626 0.000000
0.423126 0.232910 0.000000
0.434387 0.244873 0.000000
0.447784 0.257812 0.000000
0.463043 0.271332 0.000000
0.480103 0.285492 0.000000
0.503143 0.299622 0.000000
0.523499 0.313660 0.005646
0.519135 0.334381 0.009674
0.480621 0.358002 0.008026
0.491638 0.365845 0.008423
0.522430 0.369507 0.010437
0.549347 0.372284 0.013184
0.575958 0.374390 0.016724
0.601959 0.376068 0.020660
0.627472 0.377411 0.025513
0.652679 0.378662 0.031189
0.677704 0.379913 0.037659
0.702637 0.381409 0.045105
0.727692 0.383575 0.053772
0.753052 0.386719 0.063812
0.778839 0.391235 0.075317
0.805084 0.397491 0.088623
0.831909 0.405701 0.103699
0.859192 0.415985 0.120422
0.886749 0.428101 0.138489
0.914551 0.441833 0.157562
0.942474 0.456665 0.177246
0.970459 0.472046 0.197235
0.409393 0.219849 0.000000
0.417908 0.225311 0.000000
0.427063 0.230865 0.000000
0.436890 0.237091 0.000000
0.447845 0.243958 0.000000
0.458160 0.252777 0.000000
0.467621 0.263916 0.000000
0.478943 0.275665 0.000000
0.492065 0.288605 0.000000
0.510712 0.302155 0.000000
0.527344 0.316071 0.000000
0.545715 0.330048 0.004944
0.565155 0.343964 0.012939
0.558594 0.364685 0.017090
0.524292 0.387665 0.013550
0.529755 0.396637 0.012573
0.556305 0.400299 0.014984
0.582275 0.403473 0.017822
0.608459 0.405792 0.021667
0.634338 0.407501 0.026428
0.659790 0.408997 0.032013
0.684998 0.410339 0.038635
0.710022 0.411865 0.046173
0.734955 0.413849 0.054901
0.760040 0.416595 0.065033
0.785400 0.420563 0.076599
0.811127 0.426117 0.089905
0.837189 0.433441 0.104889
0.863647 0.442780 0.121521
0.890411 0.453918 0.139526
0.917358 0.466644 0.158569
0.944427 0.480499 0.178162
0.971588 0.494904 0.198059
0.446899 0.242950 0.000000
0.454773 0.247955 0.000000
0.463043 0.253235 0.000000
0.472107 0.258972 0.000000
0.482086 0.265472 0.000000
0.492767 0.272919 0.000000
0.504608 0.283112 0.000000
0.514160 0.294006 0.000000
0.525085 0.305786 0.000000
0.537811 0.318420 0.000000
0.551971 0.331879 0.000000
0.567932 0.345642 0.004211
0.585541 0.359436 0.013763
0.604156 0.373260 0.022888
0.595642 0.394135 0.026855
0.562561 0.416931 0.020966
0.562927 0.427063 0.017639
0.589294 0.430725 0.020660
0.615021 0.433960 0.023956
0.640228 0.436768 0.027924
0.665985 0.438629 0.033478
0.691437 0.440216 0.039948
0.716614 0.441864 0.047546
0.741669 0.443787 0.056305
0.766632 0.446320 0.066406
0.791718 0.449890 0.078003
0.816986 0.454834 0.091278
0.842499 0.461456 0.106232
0.868225 0.469879 0.122772
0.894226 0.480133 0.140686
0.920380 0.491882 0.159637
0.946655 0.504730 0.179199
0.972992 0.518188 0.199066
0.482910 0.265625 0.000000
0.490112 0.270416 0.000000
0.501495 0.275452 0.000000
0.509979 0.280762 0.000000
0.519257 0.286774 0.000000
0.529388 0.293335 0.000000
0.537201 0.302307 0.000000
0.545166 0.312408 0.000000
0.554352 0.323242 0.000000
0.564880 0.334747 0.000000
0.576904 0.347290 0.000000
0.590363 0.360382 0.003479
0.605713 0.373993 0.013885
0.622620 0.387848 0.024963
0.640442 0.401520 0.035858
0.630554 0.422791 0.038635
0.599182 0.445679 0.029877
0.595215 0.457153 0.023804
0.621338 0.460846 0.027191
0.646881 0.464111 0.031189
0.671783 0.467072 0.035675
0.696991 0.469360 0.041809
0.722382 0.471191 0.049286
0.747589 0.473175 0.058014
0.772614 0.475647 0.068054
0.797577 0.478943 0.079651
0.822540 0.483429 0.092834
0.847626 0.489441 0.107727
0.872803 0.497162 0.124146
0.898132 0.506531 0.141937
0.923553 0.517395 0.160767
0.949097 0.529297 0.180298
0.974640 0.541809 0.200165
0.521393 0.287750 0.000000
0.528076 0.292358 0.000000
0.535004 0.296875 0.000000
0.542755 0.302124 0.000000
0.551208 0.307587 0.000000
0.560638 0.313721 0.000000
0.569000 0.321320 0.000000
0.575653 0.330536 0.000000
0.583344 0.340546 0.000000
0.592163 0.351105 0.000000
0.602112 0.362549 0.000000
0.613434 0.374756 0.001038
0.626282 0.387787 0.013306
0.640930 0.401306 0.025787
0.657043 0.415161 0.038330
0.674225 0.428741 0.050354
0.663391 0.450745 0.052185
0.634155 0.473999 0.040863
0.626648 0.486938 0.030640
0.652527 0.490570 0.034668
0.677887 0.493958 0.039246
0.702606 0.497070 0.044708
0.727356 0.499756 0.051392
0.752747 0.501892 0.060028
0.777863 0.504425 0.069977
0.802795 0.507538 0.081390
0.827667 0.511749 0.094513
0.852417 0.517303 0.109222
0.877167 0.524384 0.125549
0.901978 0.533020 0.143250
0.926788 0.543060 0.162018
0.951660 0.554138 0.181458
0.976593 0.565765 0.201263
0.554413 0.309265 0.000000
0.560455 0.313568 0.000000
0.566925 0.317932 0.000000
0.573944 0.322662 0.000000
0.581848 0.327942 0.000000
0.590576 0.333557 0.000000
0.599731 0.339905 0.000000
0.605316 0.348602 0.000000
0.611725 0.357727 0.000000
0.619049 0.367310 0.000000
0.627319 0.377777 0.000000
0.636780 0.389038 0.000000
0.647430 0.401093 0.010498
0.659790 0.414124 0.024750
0.673828 0.427673 0.039185
0.689331 0.441467 0.053619
0.705811 0.455170 0.067566
0.694366 0.477844 0.067474
0.667603 0.501678 0.053131
0.657288 0.516357 0.038391
0.682953 0.520111 0.043060
0.708038 0.523529 0.048401
0.732605 0.526855 0.054565
0.757111 0.529877 0.062317
0.782379 0.532532 0.072083
0.807404 0.535675 0.083344
0.832184 0.539642 0.096222
0.856781 0.544861 0.110809
0.881287 0.551453 0.126953
0.905701 0.559479 0.144562
0.930023 0.568787 0.163208
0.954315 0.579102 0.182648
0.978607 0.589935 0.202423
0.585785 0.330139 0.000000
0.591309 0.333984 0.000000
0.597229 0.338104 0.000000
0.603790 0.342560 0.000000
0.611084 0.347534 0.000000
0.619110 0.352814 0.000000
0.627808 0.358704 0.000000
0.633881 0.366211 0.000000
0.639374 0.374634 0.000000
0.645538 0.383423 0.000000
0.652466 0.392914 0.000000
0.660217 0.403137 0.000000
0.669067 0.414215 0.007538
0.679291 0.426331 0.022369
0.691101 0.439453 0.038361
0.704590 0.453064 0.054962
0.719452 0.467072 0.070953
0.735443 0.480804 0.086090
0.723694 0.504333 0.084412
0.699524 0.528809 0.067078
0.687225 0.545532 0.046936
0.712616 0.549347 0.052185
0.737488 0.552948 0.058289
0.761810 0.556519 0.065460
0.786224 0.559937 0.074432
0.811371 0.563141 0.085419
0.836182 0.567078 0.098022
0.860718 0.572083 0.112427
0.885010 0.578278 0.128418
0.909149 0.585785 0.145813
0.933136 0.594513 0.164398
0.957001 0.604187 0.183807
0.980804 0.614349 0.203583
0.615509 0.349976 0.000000
0.620636 0.353760 0.000000
0.626007 0.357483 0.000000
0.632111 0.361725 0.000000
0.638855 0.366272 0.000000
0.646271 0.371429 0.000000
0.654327 0.376770 0.000000
0.661346 0.383118 0.000000
0.666016 0.391052 0.000000
0.671326 0.399261 0.000000
0.677094 0.407959 0.000000
0.683655 0.417267 0.000000
0.691040 0.427307 0.004425
0.699463 0.438446 0.018494
0.709320 0.450745 0.035248
0.720612 0.463898 0.053894
0.733551 0.477783 0.072266
0.747833 0.491852 0.089935
0.763153 0.505646 0.106415
0.751404 0.530121 0.102905
0.730042 0.555511 0.082550
0.718903 0.573608 0.058563
0.741577 0.578400 0.062164
0.766205 0.582245 0.069153
0.790314 0.586212 0.077393
0.814697 0.590057 0.087616
0.839600 0.594025 0.099945
0.864136 0.598846 0.114075
0.888397 0.604797 0.129791
0.912354 0.611938 0.147064
0.936066 0.620178 0.165558
0.959625 0.629303 0.184906
0.983093 0.638885 0.204712
0.643646 0.369141 0.000000
0.648315 0.372589 0.000000
0.653290 0.376129 0.000000
0.658813 0.380035 0.000000
0.665039 0.384369 0.000000
0.672028 0.389008 0.000000
0.679535 0.394104 0.000000
0.687500 0.399323 0.000000
0.691498 0.406952 0.000000
0.696136 0.414612 0.000000
0.701233 0.422638 0.000000
0.706787 0.431152 0.000000
0.713013 0.440399 0.000275
0.720123 0.450562 0.014374
0.728210 0.461823 0.031342
0.737579 0.474335 0.050293
0.748535 0.487793 0.070618
0.760864 0.501770 0.090851
0.774506 0.515900 0.110535
0.789215 0.529755 0.128082
0.777649 0.555481 0.122528
0.759125 0.581726 0.099396
0.750336 0.601074 0.072632
0.769836 0.607391 0.072906
0.794250 0.611572 0.080872
0.818176 0.615997 0.090363
0.842560 0.620453 0.102020
0.867188 0.625244 0.115723
0.891388 0.631012 0.131165
0.915283 0.637848 0.148224
0.938843 0.645721 0.166656
0.962189 0.654419 0.185944
0.985413 0.663513 0.205780
0.670227 0.387299 0.000000
0.674408 0.390350 0.000000
0.679016 0.393738 0.000000
0.684082 0.397308 0.000000
0.689819 0.401459 0.000000
0.696259 0.405792 0.000000
0.703369 0.410522 0.000000
0.710876 0.415558 0.000000
0.715942 0.422119 0.000000
0.720001 0.429504 0.000000
0.724548 0.437042 0.000000
0.729431 0.444855 0.000000
0.734894 0.453491 0.000000
0.740967 0.462616 0.010742
0.747803 0.472900 0.025909
0.755463 0.484497 0.044891
0.764465 0.497223 0.066284
0.774811 0.510803 0.088806
0.786530 0.525024 0.111176
0.799591 0.539398 0.132172
0.813599 0.553314 0.151337
0.802643 0.580322 0.143402
0.786926 0.607697 0.117737
0.780609 0.628326 0.088257
0.797577 0.636444 0.084381
0.821777 0.641022 0.093536
0.845490 0.646088 0.104340
0.869720 0.651154 0.117462
0.894043 0.656860 0.132538
0.917908 0.663513 0.149384
0.941406 0.671112 0.167633
0.964630 0.679443 0.186920
0.987701 0.688171 0.206757
0.695251 0.404510 0.000000
0.699127 0.407410 0.000000
0.703278 0.410400 0.000000
0.707977 0.413849 0.000000
0.713257 0.417572 0.000000
0.719299 0.421722 0.000000
0.725922 0.426300 0.000000
0.733063 0.431000 0.000000
0.739166 0.436523 0.000000
0.742889 0.443787 0.000000
0.747009 0.450989 0.000000
0.751526 0.458466 0.000000
0.756439 0.466278 0.000000
0.761688 0.474731 0.006927
0.767578 0.484070 0.020782
0.774048 0.494568 0.038544
0.781403 0.506470 0.059814
0.789856 0.519440 0.083618
0.799622 0.533325 0.108246
0.810791 0.547729 0.132324
0.823181 0.562225 0.155090
0.836609 0.576355 0.175781
0.826355 0.604828 0.165588
0.813538 0.633514 0.137390
0.809692 0.655457 0.105438
0.824829 0.665619 0.096771
0.848785 0.670807 0.107239
0.872253 0.676483 0.119385
0.896332 0.682373 0.133942
0.920227 0.688904 0.150482
0.943726 0.696289 0.168549
0.966919 0.704346 0.187775
0.989929 0.712769 0.207581
0.718903 0.420837 0.000000
0.722443 0.423523 0.000000
0.726288 0.426300 0.000000
0.730530 0.429474 0.000000
0.735504 0.433075 0.000000
0.741211 0.436951 0.000000
0.747375 0.441223 0.000000
0.754120 0.445770 0.000000
0.761261 0.450500 0.000000
0.764801 0.457397 0.000000
0.768585 0.464417 0.000000
0.772919 0.471680 0.000000
0.777435 0.479004 0.000000
0.782196 0.486847 0.003723
0.787323 0.495361 0.016693
0.792999 0.504822 0.032288
0.799103 0.515564 0.052368
0.805969 0.527710 0.076050
0.813873 0.540985 0.102142
0.823120 0.555145 0.129028
0.833679 0.569855 0.154907
0.845520 0.584656 0.179077
0.858307 0.599121 0.201385
0.849030 0.629395 0.188721
0.839142 0.659363 0.158508
0.837738 0.682709 0.124146
0.851685 0.695129 0.110046
0.875397 0.700928 0.121887
0.898621 0.707367 0.135529
0.922333 0.714020 0.151550
0.945862 0.721252 0.169403
0.969025 0.729126 0.188507
0.992035 0.737305 0.208252
0.741333 0.436401 0.000000
0.744598 0.438873 0.000000
0.748169 0.441437 0.000000
0.752136 0.444427 0.000000
0.756805 0.447784 0.000000
0.761993 0.451538 0.000000
0.767944 0.455658 0.000000
0.774384 0.460052 0.000000
0.781219 0.464600 0.000000
0.785919 0.470520 0.000000
0.789490 0.477417 0.000000
0.793457 0.484406 0.000000
0.797729 0.491547 0.000000
0.802185 0.498871 0.002075
0.806885 0.506653 0.013153
0.811920 0.515167 0.026825
0.817200 0.524841 0.044830
0.822876 0.535950 0.067413
0.829315 0.548340 0.093445
0.836700 0.561951 0.121704
0.845337 0.576538 0.150391
0.855347 0.591614 0.177979
0.866638 0.606812 0.203888
0.878937 0.621887 0.228180
0.870880 0.654083 0.213257
0.863831 0.685455 0.181030
0.864777 0.710236 0.144745
0.878082 0.724976 0.124298
0.901520 0.731506 0.137604
0.924408 0.738678 0.152832
0.947784 0.745972 0.170227
0.971008 0.753723 0.189117
0.994049 0.761749 0.208740
0.762787 0.451324 0.000000
0.765778 0.453583 0.000000
0.769073 0.456055 0.000000
0.772766 0.458740 0.000000
0.777100 0.461853 0.000000
0.782043 0.465515 0.000000
0.787659 0.469391 0.000000
0.793793 0.473663 0.000000
0.800385 0.478058 0.000000
0.806183 0.483185 0.000000
0.809509 0.489990 0.000000
0.813263 0.496796 0.000000
0.817261 0.503571 0.000000
0.821472 0.510559 0.002930
0.825958 0.517853 0.010925
0.830566 0.525604 0.022339
0.835297 0.534302 0.037750
0.840240 0.544250 0.058014
0.845520 0.555634 0.082855
0.851471 0.568329 0.111298
0.858368 0.582397 0.141632
0.866486 0.597412 0.172302
0.875977 0.613068 0.201874
0.886841 0.628967 0.229889
0.898712 0.644897 0.256256
0.891968 0.679230 0.239288
0.887604 0.712097 0.205475
0.890961 0.738251 0.167206
0.904114 0.755310 0.139648
0.927216 0.762543 0.154541
0.949707 0.770355 0.171173
0.972839 0.778076 0.189667
0.995911 0.786041 0.209015
0.783325 0.465698 0.000000
0.786163 0.467804 0.000000
0.789185 0.470001 0.000000
0.792603 0.472565 0.000000
0.796631 0.475616 0.000000
0.801300 0.478943 0.000000
0.806580 0.482697 0.000000
0.812531 0.486847 0.000000
0.818787 0.491119 0.000000
0.825348 0.495453 0.000000
0.828857 0.501953 0.000000
0.832306 0.508667 0.000000
0.836090 0.515289 0.000000
0.840179 0.521973 0.003815
0.844360 0.528778 0.010986
0.848755 0.535980 0.019684
0.853149 0.543884 0.031952
0.857574 0.552673 0.049255
0.862152 0.562866 0.071655
0.867065 0.574585 0.098541
0.872559 0.587830 0.129364
0.878998 0.602417 0.162018
0.886688 0.618164 0.194946
