design/ux_analyses/Resolume/Resolume Arena/luts/Februm.cube
# Copyright: (C) Copyright 2010-2018 by IWLTBAP SAS
# Cannot be resold, shared or otherwise redistributed
# Website: https://luts.iwltbap.com
TITLE "IWLTBAP Februm (Rec.709, sRGB, DCI-P3)"
LUT_3D_SIZE 9
0.002747 0.000854 0.000885
0.118988 0.012604 0.006378
0.243958 0.025665 0.010986
0.363861 0.036224 0.014313
0.477051 0.047241 0.020081
0.593689 0.062897 0.032745
0.713318 0.090637 0.060242
0.841431 0.143280 0.116638
0.967926 0.216797 0.195068
0.086090 0.040344 0.000000
0.154694 0.091187 0.002594
0.259735 0.123840 0.007172
0.377655 0.132935 0.011902
0.486511 0.139709 0.018860
0.598541 0.151154 0.032349
0.715057 0.175903 0.060333
0.841827 0.227234 0.116669
0.967926 0.300323 0.195099
0.213898 0.108643 0.000000
0.269745 0.145599 0.000000
0.337219 0.207611 0.000000
0.406067 0.245331 0.006256
0.518097 0.251526 0.014954
0.619781 0.256561 0.031006
0.726807 0.272217 0.061005
0.845917 0.315613 0.117462
0.968231 0.384430 0.195374
0.370605 0.196686 0.000000
0.412903 0.222626 0.000000
0.463043 0.271332 0.000000
0.519135 0.334381 0.009674
0.549347 0.372284 0.013184
0.652679 0.378662 0.031189
0.753052 0.386719 0.063812
0.859192 0.415985 0.120422
0.970459 0.472046 0.197235
0.521393 0.287750 0.000000
0.551208 0.307587 0.000000
0.583344 0.340546 0.000000
0.626282 0.387787 0.013306
0.663391 0.450745 0.052185
0.677887 0.493958 0.039246
0.777863 0.504425 0.069977
0.877167 0.524384 0.125549
0.976593 0.565765 0.201263
0.643646 0.369141 0.000000
0.665039 0.384369 0.000000
0.691498 0.406952 0.000000
0.713013 0.440399 0.000275
0.748535 0.487793 0.070618
0.777649 0.555481 0.122528
0.794250 0.611572 0.080872
0.891388 0.631012 0.131165
0.985413 0.663513 0.205780
0.741333 0.436401 0.000000
0.756805 0.447784 0.000000
0.781219 0.464600 0.000000
0.797729 0.491547 0.000000
0.817200 0.524841 0.044830
0.845337 0.576538 0.150391
0.870880 0.654083 0.213257
0.901520 0.731506 0.137604
0.994049 0.761749 0.208740
0.822235 0.492920 0.000000
0.833710 0.501495 0.000000
0.853638 0.515808 0.000397
0.871765 0.537384 0.007233
0.887299 0.562775 0.024536
0.903137 0.598083 0.098511
0.924805 0.659821 0.243286
0.950745 0.760010 0.330933
1.000000 0.857635 0.208862
0.893646 0.543304 0.012238
0.902130 0.549805 0.016113
0.918274 0.561310 0.020630
0.937164 0.576996 0.024841
0.949219 0.598480 0.024261
0.964325 0.619568 0.035614
0.975006 0.664032 0.159668
0.985535 0.760254 0.396637
1.000000 0.887024 0.477142
0.000183 0.023773 0.051025
0.084747 0.039368 0.078796
0.235748 0.022736 0.114441
0.357971 0.031677 0.115967
0.471680 0.041473 0.118744
0.588501 0.057251 0.127808
0.708923 0.085968 0.151062
0.838715 0.140411 0.203186
0.967438 0.216522 0.279602
0.083191 0.061127 0.026367
0.140564 0.092834 0.063599
0.251129 0.125061 0.113922
0.371674 0.132263 0.117584
0.481689 0.136719 0.120117
0.593872 0.146973 0.128815
0.710938 0.171875 0.151611
0.839203 0.224548 0.203308
0.967468 0.300049 0.279602
0.227234 0.120422 0.000000
0.267639 0.157654 0.025208
0.322418 0.218048 0.082581
0.399475 0.248810 0.117462
0.513245 0.253357 0.122833
0.615967 0.256378 0.132263
0.723572 0.270569 0.154663
0.843781 0.313904 0.204895
0.967773 0.384277 0.279938
0.382507 0.203156 0.000000
0.421417 0.232819 0.000000
0.462494 0.285004 0.034485
0.508789 0.346527 0.098236
0.544464 0.376740 0.125641
0.649231 0.381836 0.137939
0.750702 0.388153 0.161591
0.857758 0.416046 0.209808
0.970154 0.472168 0.282074
0.528137 0.290710 0.000000
0.559143 0.313110 0.000000
0.590271 0.350708 0.003540
0.625244 0.399933 0.064056
0.654266 0.461700 0.135529
0.673340 0.498535 0.146027
0.775818 0.507233 0.170013
0.876129 0.525726 0.216675
0.976318 0.566284 0.286469
0.648010 0.370911 0.000000
0.670349 0.387299 0.000000
0.698334 0.412933 0.001190
0.717682 0.448395 0.023315
0.745239 0.497192 0.117188
0.769897 0.564148 0.193085
0.791290 0.615021 0.179260
0.890503 0.632812 0.222809
0.985199 0.664124 0.291168
0.744781 0.438141 0.000000
0.760559 0.449768 0.000000
0.786530 0.468414 0.000000
0.802979 0.496704 0.003906
0.819519 0.530823 0.066620
0.842102 0.583832 0.188568
0.866302 0.660461 0.268433
0.900208 0.733582 0.228210
0.993866 0.762421 0.294281
0.825287 0.494598 0.000000
0.836853 0.503235 0.000000
0.857880 0.518494 0.001312
0.876495 0.541107 0.011536
0.891113 0.566742 0.034973
0.904510 0.602722 0.118866
0.923248 0.665375 0.272247
0.948975 0.764008 0.373535
1.000000 0.858429 0.294495
0.896271 0.544739 0.013031
0.904694 0.551056 0.016144
0.921448 0.563171 0.021362
0.940918 0.579498 0.026093
0.952850 0.601166 0.029144
0.967194 0.622192 0.044464
0.976471 0.667908 0.177124
0.985413 0.764160 0.417419
1.000000 0.888885 0.516022
0.000000 0.061554 0.115936
0.050446 0.067017 0.141266
0.174225 0.068787 0.174316
0.335876 0.048004 0.212341
0.468994 0.037323 0.229523
0.586182 0.053314 0.235962
0.705719 0.082611 0.252960
0.835419 0.137299 0.295502
0.966248 0.215698 0.365173
0.059509 0.090515 0.097626
0.094452 0.108704 0.136505
0.206146 0.134521 0.186310
0.356628 0.140289 0.223328
0.479156 0.136719 0.234406
0.591827 0.145203 0.238312
0.707886 0.169281 0.253845
0.835968 0.221649 0.295715
0.966278 0.299255 0.365173
0.223022 0.143219 0.050079
0.238098 0.172119 0.098175
0.289490 0.224945 0.175690
0.395966 0.257050 0.233948
0.507507 0.257721 0.243927
0.612457 0.258514 0.246307
0.720459 0.270355 0.258728
0.840790 0.312012 0.297791
0.966705 0.383606 0.365692
0.399109 0.220856 0.000000
0.421356 0.247986 0.025238
0.442505 0.303375 0.118713
0.478638 0.366028 0.216553
0.535950 0.383667 0.251953
0.643158 0.387024 0.258118
0.746490 0.390839 0.269775
0.855011 0.416168 0.304749
0.969391 0.472260 0.368378
0.541931 0.299286 0.000000
0.567413 0.321625 0.000000
0.591858 0.364288 0.038940
0.615082 0.421112 0.149506
0.634857 0.481079 0.249390
0.665741 0.505402 0.266815
0.771179 0.511780 0.281342
0.873505 0.527832 0.314301
0.975739 0.567169 0.373627
0.654968 0.373962 0.000000
0.675964 0.390350 0.000000
0.703552 0.419891 0.002350
0.720337 0.461670 0.065643
0.736237 0.515228 0.194153
0.754272 0.580048 0.291565
0.786072 0.620758 0.289062
0.888275 0.636139 0.321686
0.984558 0.665314 0.378845
0.749573 0.440033 0.000000
0.765228 0.451813 0.000000
0.792053 0.472290 0.000000
0.808899 0.504364 0.021210
0.821106 0.542297 0.106140
0.834564 0.598328 0.251862
0.856995 0.673004 0.345184
0.897797 0.737579 0.325867
0.993347 0.763855 0.382355
0.829895 0.496857 0.000000
0.841522 0.505432 0.000000
0.863525 0.521851 0.002197
0.883118 0.546478 0.017303
0.896729 0.573883 0.050537
0.905945 0.612396 0.153412
0.919647 0.677155 0.319519
0.945374 0.772491 0.429291
1.000000 0.860229 0.382935
0.900909 0.547150 0.013062
0.909454 0.553467 0.016144
0.926849 0.565918 0.021362
0.947571 0.583862 0.028076
0.959656 0.606506 0.034698
0.972565 0.627930 0.057190
0.979004 0.676422 0.205383
0.984955 0.772797 0.449677
1.000000 0.893250 0.557800
0.000061 0.106445 0.186035
0.023254 0.114075 0.206665
0.120331 0.111938 0.241333
0.279266 0.099518 0.271667
0.411804 0.105469 0.288788
0.587250 0.054108 0.349823
0.705627 0.083710 0.363129
0.833130 0.136475 0.394867
0.964355 0.214539 0.452881
0.026123 0.124390 0.185547
0.041107 0.136963 0.211761
0.132812 0.158875 0.257660
0.303680 0.173370 0.298462
0.440094 0.175354 0.311829
0.593903 0.149933 0.354401
0.708344 0.172028 0.364716
0.833832 0.221191 0.395203
0.964386 0.298096 0.452911
0.145813 0.176208 0.152374
0.142975 0.191559 0.190918
0.192566 0.228363 0.260498
0.343445 0.275330 0.325653
0.490234 0.293091 0.348297
0.611877 0.266144 0.365417
0.720062 0.275238 0.370789
0.838745 0.312653 0.397522
0.964935 0.382690 0.453522
0.383484 0.247772 0.074371
0.380157 0.266357 0.119080
0.377869 0.311005 0.218903
0.432678 0.378784 0.324738
0.553131 0.417999 0.377716
0.636108 0.394135 0.379791
0.742157 0.395782 0.382843
0.851837 0.417603 0.404785
0.968018 0.472260 0.456818
0.562469 0.322906 0.000031
0.573303 0.340393 0.026062
0.575989 0.381592 0.121002
0.581909 0.444031 0.262177
0.622009 0.502838 0.368744
0.655975 0.512329 0.389374
0.763977 0.516785 0.396179
0.869171 0.530273 0.416077
0.974609 0.568237 0.463165
0.670868 0.384979 0.000031
0.685974 0.399323 0.000031
0.704468 0.430359 0.034149
0.711090 0.481445 0.148529
0.716766 0.541290 0.298737
0.731628 0.600189 0.401184
0.779358 0.626862 0.404175
0.884277 0.640259 0.425446
0.983368 0.667084 0.469421
0.757172 0.443665 0.000031
0.770874 0.454407 0.000031
0.795349 0.476074 0.000031
0.810425 0.513855 0.056396
0.816864 0.560730 0.175476
0.821198 0.620453 0.337982
0.842804 0.690399 0.436646
0.894836 0.742828 0.429657
0.992279 0.766205 0.473938
0.835541 0.499268 0.000031
0.846588 0.507355 0.000031
0.868164 0.523956 0.003937
0.888092 0.551361 0.027313
0.901031 0.583954 0.079407
0.905121 0.628418 0.208008
0.913300 0.696014 0.385742
0.939392 0.785980 0.502319
0.999939 0.863464 0.475281
0.906738 0.549835 0.013062
0.915070 0.555756 0.016144
0.932587 0.568237 0.020660
0.954193 0.587494 0.028687
0.966858 0.612518 0.041504
0.979065 0.636902 0.076782
0.982117 0.691742 0.249359
0.984100 0.787994 0.499115
1.000000 0.901550 0.609619
0.001831 0.154236 0.254913
0.009796 0.164520 0.270081
0.065338 0.178192 0.299713
0.221832 0.165375 0.338470
0.392822 0.146576 0.364471
0.518036 0.167572 0.387970
0.674744 0.147369 0.451935
0.831543 0.138123 0.499115
0.962830 0.214752 0.548645
0.008087 0.164520 0.260651
0.013153 0.174561 0.276398
0.064331 0.198090 0.309784
0.228577 0.219025 0.360107
0.415771 0.219421 0.392609
0.539703 0.226379 0.408112
0.681427 0.216492 0.457367
0.832764 0.223877 0.500824
0.962891 0.298370 0.548676
0.064850 0.198578 0.258972
0.059326 0.206329 0.278046
0.085876 0.231873 0.317963
0.234222 0.283997 0.381836
0.443115 0.322205 0.429321
0.580536 0.329712 0.443817
0.700592 0.309753 0.471069
0.838165 0.317230 0.504822
0.963562 0.383270 0.549347
0.257629 0.278809 0.206635
0.241913 0.286346 0.236786
0.226257 0.307465 0.300842
0.294250 0.362030 0.390228
0.471313 0.426514 0.459412
0.624786 0.450439 0.482788
0.729919 0.423950 0.491547
0.849792 0.422180 0.512238
0.966736 0.473114 0.552551
0.541992 0.352722 0.102783
0.536133 0.364227 0.137817
0.513641 0.392456 0.230713
0.483612 0.447693 0.362854
0.553864 0.509949 0.461273
0.665009 0.549438 0.511871
0.757935 0.537262 0.516327
0.864532 0.533569 0.523163
0.973083 0.569366 0.559052
0.693848 0.412170 0.009674
0.700256 0.422760 0.030914
0.702911 0.450134 0.109436
0.683624 0.502960 0.260895
0.681030 0.563690 0.408447
0.718323 0.616638 0.505798
0.781952 0.637604 0.530121
0.878693 0.644226 0.533813
0.981506 0.669128 0.566650
0.775665 0.457611 0.000031
0.785400 0.466278 0.000031
0.801331 0.486847 0.031647
0.803375 0.530334 0.134644
0.799133 0.586548 0.283356
0.801544 0.647003 0.436310
0.826050 0.708649 0.532715
0.890320 0.748505 0.539337
0.990448 0.769318 0.572754
0.844360 0.503876 0.000031
0.853729 0.510895 0.000031
0.872406 0.526581 0.011444
0.889099 0.556519 0.052734
0.898712 0.597687 0.138123
0.898956 0.651642 0.288208
0.904510 0.720367 0.464355
0.931244 0.802826 0.579407
0.998199 0.867889 0.575684
0.911377 0.551056 0.012268
0.918945 0.556427 0.014618
0.935852 0.568237 0.019165
0.958008 0.588043 0.027893
0.971954 0.616364 0.048218
0.984436 0.648804 0.108490
0.984619 0.715027 0.313232
0.983063 0.809570 0.560089
1.000000 0.914490 0.672150
0.004456 0.204956 0.321655
0.006256 0.213593 0.332520
0.030121 0.235260 0.356476
0.145325 0.249725 0.394531
0.344360 0.229309 0.427979
0.509521 0.220306 0.453308
0.625824 0.269012 0.487732
0.755646 0.362579 0.559082
0.962097 0.217102 0.644775
0.005341 0.211639 0.327118
0.007141 0.219604 0.337677
0.027344 0.241577 0.361542
0.140137 0.274475 0.405243
0.353149 0.284698 0.450348
0.529877 0.281921 0.477631
0.640900 0.311951 0.506378
0.761017 0.392365 0.563873
0.962219 0.300873 0.644928
0.020874 0.229614 0.335480
0.019379 0.235870 0.346069
0.030090 0.254669 0.369354
0.127075 0.301239 0.416748
0.352875 0.353485 0.476318
0.557434 0.373810 0.517059
0.670746 0.387848 0.534180
0.776520 0.442200 0.576996
0.963135 0.386261 0.645844
0.126007 0.286438 0.331879
0.114899 0.289886 0.346008
0.099945 0.300354 0.375488
0.143829 0.339478 0.426544
0.340088 0.416748 0.498322
0.574371 0.471710 0.551605
0.706970 0.485718 0.569397
0.803223 0.515503 0.599121
0.966217 0.476196 0.648804
0.392426 0.381775 0.265808
0.371338 0.388885 0.284424
0.335876 0.400085 0.339661
0.309357 0.425262 0.421051
0.395081 0.486542 0.509125
0.591156 0.555054 0.575348
0.736633 0.578735 0.600555
0.833008 0.599274 0.625671
0.971741 0.571533 0.654572
0.673920 0.444489 0.134369
0.671906 0.452087 0.156036
0.654999 0.472931 0.231262
0.612915 0.510345 0.364502
0.584259 0.566010 0.489166
0.660309 0.621613 0.577576
0.768158 0.658752 0.621765
0.862518 0.684387 0.652466
0.979279 0.671631 0.662994
0.800537 0.486664 0.030975
0.806183 0.493103 0.041168
0.811432 0.511383 0.092865
0.797241 0.552307 0.226593
0.773499 0.609039 0.392487
0.774597 0.667969 0.531921
0.817474 0.719452 0.617432
0.892456 0.760193 0.670135
0.987946 0.773499 0.671478
0.864532 0.519897 0.005676
0.871460 0.525085 0.009827
0.884918 0.538208 0.029053
0.892609 0.568695 0.100372
0.890198 0.618286 0.231171
0.885986 0.680603 0.392548
0.893433 0.748138 0.554230
0.926147 0.815338 0.664185
0.996063 0.873718 0.676758
0.916595 0.552887 0.012268
0.923065 0.557251 0.013855
0.938232 0.567444 0.016937
0.959778 0.586578 0.026398
0.974518 0.619385 0.064148
0.984436 0.667175 0.173828
0.984100 0.747040 0.402710
0.981995 0.836365 0.628784
1.000000 0.932098 0.746399
0.007965 0.258545 0.385162
0.008850 0.265045 0.392975
0.016235 0.284546 0.411621
0.076324 0.319061 0.442657
0.260315 0.325928 0.482391
0.471039 0.302307 0.516418
0.621796 0.318390 0.550140
0.746307 0.412872 0.611481
0.889130 0.599640 0.723724
0.008820 0.263794 0.389465
0.008850 0.270020 0.397217
0.015411 0.287872 0.414948
0.070404 0.325806 0.447235
0.256317 0.354919 0.494965
0.481781 0.351349 0.536621
0.636810 0.362549 0.567535
0.754486 0.440369 0.620026
0.890076 0.614014 0.724792
0.011353 0.274536 0.397583
0.011353 0.280518 0.405029
0.015411 0.295654 0.421631
0.059174 0.333435 0.453064
0.239807 0.388214 0.511963
0.489258 0.418243 0.563507
0.660034 0.431152 0.595764
0.771271 0.486664 0.637512
0.893555 0.633972 0.728790
0.045624 0.304718 0.408661
0.042084 0.309052 0.416382
0.036560 0.319458 0.432831
0.056061 0.348083 0.461670
0.205505 0.414703 0.521820
0.475800 0.484772 0.587799
0.681580 0.514191 0.629333
0.795380 0.552246 0.663879
0.901917 0.664459 0.738220
0.212463 0.383881 0.402496
0.201080 0.385712 0.412354
0.175842 0.390564 0.436096
0.149689 0.403259 0.471802
0.217102 0.452423 0.530640
0.453796 0.539398 0.603668
0.690460 0.592529 0.658173
0.819336 0.625793 0.693054
0.914886 0.706726 0.753723
0.528229 0.479767 0.327972
0.521729 0.482544 0.337921
0.486267 0.493805 0.372253
0.430115 0.509796 0.443359
0.404999 0.539551 0.531128
0.518524 0.605011 0.613464
0.709167 0.666229 0.680969
0.841217 0.701538 0.721436
0.932281 0.762573 0.777283
0.784943 0.522125 0.167816
0.786377 0.526855 0.177551
0.782806 0.540833 0.219055
0.759064 0.569946 0.324493
0.714630 0.614502 0.471466
0.710327 0.669952 0.598694
0.772186 0.730286 0.682770
0.869934 0.775085 0.743469
0.953613 0.828033 0.805664
0.888977 0.548798 0.056122
0.893799 0.552612 0.059326
0.902618 0.562744 0.077118
0.908173 0.586792 0.148132
0.890442 0.638000 0.305389
0.873535 0.703949 0.483093
0.878693 0.771637 0.634857
0.915619 0.833130 0.741180
0.975616 0.891479 0.829010
0.936615 0.569214 0.022095
0.941376 0.572144 0.022827
0.952698 0.579163 0.024261
0.971954 0.592682 0.032440
0.981934 0.629059 0.105438
0.986084 0.694946 0.282745
0.981323 0.782776 0.513428
0.981476 0.865875 0.703674
1.000000 0.944977 0.844482
0.012970 0.315735 0.445679
0.012970 0.320953 0.451660
0.016174 0.335999 0.465424
0.040222 0.369995 0.490601
0.164825 0.403595 0.530975
0.395935 0.395782 0.570068
0.599121 0.383423 0.606018
0.745758 0.457214 0.669006
0.889160 0.630432 0.778290
0.012970 0.320343 0.449158
0.013763 0.325500 0.454987
0.016144 0.339233 0.468323
0.037750 0.371521 0.492676
0.157013 0.413940 0.535736
0.395264 0.424957 0.581726
0.608612 0.419342 0.620972
0.753662 0.483521 0.678741
0.890900 0.644867 0.780731
0.013794 0.328979 0.455627
0.014557 0.334137 0.461334
0.016144 0.346558 0.473877
0.033264 0.374695 0.498627
0.140564 0.424835 0.541229
0.385742 0.463715 0.597382
0.620026 0.473022 0.644104
0.767151 0.524689 0.696259
0.894897 0.664795 0.786255
0.021484 0.346039 0.466034
0.021484 0.350922 0.471619
0.021484 0.361694 0.483551
0.029938 0.383545 0.507416
0.112549 0.432465 0.545990
0.353821 0.500244 0.610565
0.623383 0.537994 0.671478
0.784363 0.581482 0.721710
0.902496 0.693573 0.796875
0.090149 0.390289 0.478607
0.085266 0.393311 0.484009
0.074890 0.400208 0.498505
0.064117 0.413025 0.519379
0.102448 0.447754 0.552521
0.306824 0.527161 0.617645
0.607666 0.599915 0.694489
0.798523 0.647095 0.750671
0.913940 0.733093 0.813812
0.325531 0.484741 0.468658
0.315674 0.485779 0.474792
0.292236 0.488708 0.491394
0.250732 0.493591 0.524780
0.224792 0.510315 0.565033
0.336182 0.574463 0.629242
0.603058 0.662445 0.716034
0.807892 0.716583 0.779633
0.929382 0.785645 0.838806
0.681000 0.557312 0.382690
0.676971 0.559753 0.390320
0.662506 0.567413 0.414124
0.609741 0.588531 0.454651
0.545654 0.614563 0.535370
0.548706 0.660797 0.630615
0.672333 0.731659 0.730011
0.828400 0.789093 0.806885
0.948853 0.849152 0.870575
0.877136 0.585449 0.200745
0.879517 0.588684 0.205475
0.883911 0.596924 0.220032
0.883881 0.615387 0.267639
0.864014 0.653412 0.382446
0.837524 0.713104 0.548004
0.842010 0.783691 0.696777
0.887756 0.853088 0.809570
0.970367 0.914978 0.902924
0.960449 0.594940 0.067566
0.964264 0.597504 0.068542
0.973145 0.603302 0.070526
0.988434 0.614746 0.079468
0.999176 0.644592 0.147339
0.993256 0.713989 0.340118
0.988220 0.806427 0.578217
0.983978 0.892395 0.769836
0.995178 0.973114 0.925079
0.018463 0.375305 0.506561
0.019226 0.379303 0.510620
0.021454 0.389404 0.520020
0.029236 0.416077 0.539032
0.087250 0.462006 0.569550
0.296967 0.487976 0.620453
0.558411 0.470917 0.668274
0.748169 0.527222 0.736603
0.897461 0.682770 0.841949
0.019226 0.379059 0.509094
0.019958 0.383148 0.513092
0.021454 0.392761 0.522339
0.028534 0.416626 0.540161
0.081421 0.462402 0.570465
0.288422 0.499664 0.624786
0.559570 0.493927 0.677612
0.752441 0.546814 0.744202
0.898956 0.695801 0.844971
0.019958 0.386230 0.513855
0.020721 0.390381 0.517761
0.022919 0.399689 0.526825
0.028534 0.419556 0.542999
0.072113 0.462097 0.571686
0.269684 0.513916 0.629791
0.556824 0.528168 0.691772
0.758698 0.576630 0.757385
0.901733 0.712982 0.850555
0.022186 0.398254 0.521698
0.022919 0.402496 0.525543
0.025055 0.411652 0.534271
0.029236 0.428070 0.549072
0.059540 0.462311 0.573669
0.233856 0.525360 0.632843
0.540985 0.571350 0.708527
0.765106 0.619812 0.777405
0.906647 0.737457 0.860718
0.033234 0.417542 0.532471
0.033234 0.421478 0.536285
0.033875 0.430267 0.544891
0.035767 0.444702 0.558746
0.052734 0.469116 0.578949
0.191620 0.533447 0.633667
0.506897 0.615448 0.722992
0.765930 0.674408 0.801849
0.915039 0.772644 0.877808
0.140869 0.473297 0.550873
0.135010 0.474762 0.554382
0.123230 0.479218 0.562347
0.104889 0.486694 0.575470
0.095154 0.500549 0.593414
0.196289 0.560150 0.643799
0.480408 0.663605 0.738617
0.760590 0.736542 0.828522
0.927917 0.819946 0.903168
0.469727 0.589966 0.563385
0.460449 0.590118 0.567322
0.439240 0.591248 0.576294
0.397339 0.592285 0.592133
0.343018 0.596130 0.615417
0.363800 0.638214 0.669220
0.541901 0.726929 0.761749
0.769135 0.804138 0.858337
0.945618 0.877350 0.936127
0.801117 0.638977 0.452332
0.800232 0.641541 0.458099
0.797760 0.647705 0.471558
0.789246 0.658142 0.500702
0.766968 0.674194 0.545685
0.724335 0.722015 0.623901
0.742920 0.794586 0.741486
0.829651 0.872528 0.877258
0.966492 0.940125 0.972687
0.944672 0.624725 0.236298
0.947784 0.627594 0.239197
0.955414 0.634399 0.246063
0.969513 0.647400 0.258728
0.987183 0.668884 0.286255
0.993683 0.721863 0.395905
0.992188 0.810699 0.600006
0.985168 0.908417 0.812683
0.999573 0.997192 0.999451
