design/ux_analyses/Resolume/Resolume Arena/luts/Februm.cube
# Copyright: (C) Copyright 2010-2018 by IWLTBAP SAS
# Cannot be resold, shared or otherwise redistributed
# Website: https://luts.iwltbap.com
TITLE "IWLTBAP Februm (Rec.709, sRGB, DCI-P3)"
LUT_3D_SIZE 5
0.002747 0.000854 0.000885
0.243958 0.025665 0.010986
0.477051 0.047241 0.020081
0.713318 0.090637 0.060242
0.967926 0.216797 0.195068
0.213898 0.108643 0.000000
0.337219 0.207611 0.000000
0.518097 0.251526 0.014954
0.726807 0.272217 0.061005
0.968231 0.384430 0.195374
0.521393 0.287750 0.000000
0.583344 0.340546 0.000000
0.663391 0.450745 0.052185
0.777863 0.504425 0.069977
0.976593 0.565765 0.201263
0.741333 0.436401 0.000000
0.781219 0.464600 0.000000
0.817200 0.524841 0.044830
0.870880 0.654083 0.213257
0.994049 0.761749 0.208740
0.893646 0.543304 0.012238
0.918274 0.561310 0.020630
0.949219 0.598480 0.024261
0.975006 0.664032 0.159668
1.000000 0.887024 0.477142
0.000000 0.061554 0.115936
0.174225 0.068787 0.174316
0.468994 0.037323 0.229523
0.705719 0.082611 0.252960
0.966248 0.215698 0.365173
0.223022 0.143219 0.050079
0.289490 0.224945 0.175690
0.507507 0.257721 0.243927
0.720459 0.270355 0.258728
0.966705 0.383606 0.365692
0.541931 0.299286 0.000000
0.591858 0.364288 0.038940
0.634857 0.481079 0.249390
0.771179 0.511780 0.281342
0.975739 0.567169 0.373627
0.749573 0.440033 0.000000
0.792053 0.472290 0.000000
0.821106 0.542297 0.106140
0.856995 0.673004 0.345184
0.993347 0.763855 0.382355
0.900909 0.547150 0.013062
0.926849 0.565918 0.021362
0.959656 0.606506 0.034698
0.979004 0.676422 0.205383
1.000000 0.893250 0.557800
0.001831 0.154236 0.254913
0.065338 0.178192 0.299713
0.392822 0.146576 0.364471
0.674744 0.147369 0.451935
0.962830 0.214752 0.548645
0.064850 0.198578 0.258972
0.085876 0.231873 0.317963
0.443115 0.322205 0.429321
0.700592 0.309753 0.471069
0.963562 0.383270 0.549347
0.541992 0.352722 0.102783
0.513641 0.392456 0.230713
0.553864 0.509949 0.461273
0.757935 0.537262 0.516327
0.973083 0.569366 0.559052
0.775665 0.457611 0.000031
0.801331 0.486847 0.031647
0.799133 0.586548 0.283356
0.826050 0.708649 0.532715
0.990448 0.769318 0.572754
0.911377 0.551056 0.012268
0.935852 0.568237 0.019165
0.971954 0.616364 0.048218
0.984619 0.715027 0.313232
1.000000 0.914490 0.672150
0.007965 0.258545 0.385162
0.016235 0.284546 0.411621
0.260315 0.325928 0.482391
0.621796 0.318390 0.550140
0.889130 0.599640 0.723724
0.011353 0.274536 0.397583
0.015411 0.295654 0.421631
0.239807 0.388214 0.511963
0.660034 0.431152 0.595764
0.893555 0.633972 0.728790
0.212463 0.383881 0.402496
0.175842 0.390564 0.436096
0.217102 0.452423 0.530640
0.690460 0.592529 0.658173
0.914886 0.706726 0.753723
0.784943 0.522125 0.167816
0.782806 0.540833 0.219055
0.714630 0.614502 0.471466
0.772186 0.730286 0.682770
0.953613 0.828033 0.805664
0.936615 0.569214 0.022095
0.952698 0.579163 0.024261
0.981934 0.629059 0.105438
0.981323 0.782776 0.513428
1.000000 0.944977 0.844482
0.018463 0.375305 0.506561
0.021454 0.389404 0.520020
0.087250 0.462006 0.569550
0.558411 0.470917 0.668274
0.897461 0.682770 0.841949
0.019958 0.386230 0.513855
0.022919 0.399689 0.526825
0.072113 0.462097 0.571686
0.556824 0.528168 0.691772
0.901733 0.712982 0.850555
0.033234 0.417542 0.532471
0.033875 0.430267 0.544891
0.052734 0.469116 0.578949
0.506897 0.615448 0.722992
0.915039 0.772644 0.877808
0.469727 0.589966 0.563385
0.439240 0.591248 0.576294
0.343018 0.596130 0.615417
0.541901 0.726929 0.761749
0.945618 0.877350 0.936127
0.944672 0.624725 0.236298
0.955414 0.634399 0.246063
0.987183 0.668884 0.286255
0.992188 0.810699 0.600006
0.999573 0.997192 0.999451
