design/ux_analyses/Resolume/Resolume Arena/luts/Kobosi.cube
# Copyright: (C) Copyright 2010-2018 by IWLTBAP SAS
# Cannot be resold, shared or otherwise redistributed
# Website: https://luts.iwltbap.com
TITLE "IWLTBAP Kobosi (Rec.709, sRGB, DCI-P3)"
LUT_3D_SIZE 5
0.000000 0.000793 0.011841
0.254669 0.000000 0.000000
0.502228 0.000000 0.000000
0.749939 0.000000 0.000000
0.998810 0.000000 0.000000
0.062805 0.220490 0.173981
0.199310 0.234375 0.166229
0.501434 0.249207 0.000000
0.749969 0.249451 0.000000
0.999115 0.249603 0.000000
0.161926 0.461853 0.296173
0.273071 0.468048 0.300507
0.444916 0.488220 0.248810
0.746735 0.500458 0.008423
0.999817 0.500183 0.000000
0.275146 0.711487 0.401672
0.378479 0.715393 0.404083
0.514771 0.727203 0.411224
0.706573 0.747772 0.297272
0.995117 0.750977 0.017242
0.460266 0.947510 0.541351
0.557800 0.950195 0.545319
0.674896 0.958832 0.557953
0.809814 0.976135 0.581970
0.965332 1.000000 0.435120
0.010254 0.022858 0.186920
0.147797 0.061035 0.257690
0.499939 0.000000 0.250061
0.750000 0.000000 0.250031
0.999542 0.000000 0.249695
0.065643 0.225006 0.312378
0.195953 0.235870 0.324768
0.501740 0.248962 0.248322
0.750000 0.249359 0.248840
0.998993 0.249542 0.249298
0.163147 0.464020 0.404755
0.274567 0.470062 0.409271
0.444397 0.489197 0.391083
0.750092 0.500427 0.249481
0.999817 0.500153 0.249878
0.276093 0.712830 0.500793
0.379395 0.716705 0.503235
0.515717 0.728394 0.510437
0.707336 0.748505 0.441315
0.998566 0.750305 0.253510
0.462219 0.948425 0.633179
0.557343 0.951904 0.635345
0.674988 0.960419 0.647797
0.810608 0.977539 0.671265
0.966156 1.000000 0.571991
0.044739 0.070526 0.361145
0.161438 0.095886 0.399109
0.331635 0.145599 0.465698
0.679047 0.064606 0.504211
1.000000 0.000000 0.500000
0.097534 0.237335 0.452698
0.209076 0.250519 0.468201
0.369873 0.283051 0.504333
0.721985 0.262268 0.505188
1.000000 0.250031 0.500000
0.168182 0.470490 0.547913
0.279297 0.476135 0.552582
0.437347 0.491852 0.565125
0.746613 0.501312 0.500916
0.999329 0.500580 0.498901
0.279053 0.717041 0.622223
0.382446 0.720825 0.624664
0.518951 0.732178 0.632080
0.703918 0.750854 0.615631
0.995270 0.751221 0.506836
0.468567 0.951294 0.733612
0.563507 0.954773 0.735840
0.674377 0.965668 0.742676
0.812775 0.981934 0.764648
0.967499 1.000000 0.720642
0.086090 0.121399 0.521881
0.193329 0.138611 0.544678
0.340363 0.181366 0.596802
0.529572 0.235229 0.657257
0.832977 0.182220 0.719879
0.129028 0.266510 0.585236
0.233582 0.278503 0.598907
0.374634 0.310730 0.634277
0.557556 0.355530 0.680817
0.866241 0.339417 0.732483
0.209106 0.478180 0.684082
0.312042 0.484741 0.690002
0.448273 0.503693 0.706909
0.623566 0.533295 0.732605
0.958282 0.517487 0.752563
0.284882 0.724609 0.764038
0.388184 0.728149 0.766602
0.524750 0.738892 0.774231
0.698578 0.756683 0.786621
0.967194 0.760406 0.767059
0.480621 0.956909 0.842529
0.575287 0.960266 0.844788
0.685486 0.971039 0.851868
0.813843 0.990906 0.863953
0.968994 1.000000 0.872894
0.131195 0.174225 0.675842
0.233765 0.186920 0.690796
0.366913 0.221741 0.730103
0.534912 0.271973 0.783630
0.737305 0.328125 0.839630
0.166046 0.305481 0.720825
0.266510 0.315063 0.736572
0.397186 0.343414 0.767029
0.562927 0.386383 0.810913
0.764404 0.436188 0.859314
0.243896 0.498810 0.809631
0.341309 0.505127 0.820099
0.465118 0.521332 0.856689
0.635254 0.548737 0.882812
0.841675 0.582794 0.912598
0.332550 0.730133 0.897827
0.426758 0.734802 0.904114
0.546326 0.747375 0.918823
0.707153 0.765686 0.939941
0.897278 0.794556 0.948853
0.499481 0.965759 0.956726
0.593933 0.969086 0.958832
0.703247 0.979675 0.965759
0.830139 0.999084 0.978271
0.974304 1.000000 0.996674
