design/ux_analyses/Resolume/Resolume Arena/luts/Kobosi.cube
# Copyright: (C) Copyright 2010-2018 by IWLTBAP SAS
# Cannot be resold, shared or otherwise redistributed
# Website: https://luts.iwltbap.com
TITLE "IWLTBAP Kobosi (Rec.709, sRGB, DCI-P3)"
LUT_3D_SIZE 9
0.000000 0.000793 0.011841
0.129242 0.000000 0.000000
0.254669 0.000000 0.000000
0.378632 0.000000 0.000000
0.502228 0.000000 0.000000
0.626007 0.000000 0.000000
0.749939 0.000000 0.000000
0.874237 0.000000 0.000000
0.998810 0.000000 0.000000
0.022064 0.105286 0.099915
0.088684 0.112457 0.102631
0.253967 0.122681 0.000000
0.377991 0.123108 0.000000
0.501953 0.123444 0.000000
0.625854 0.123566 0.000000
0.750000 0.123871 0.000000
0.874298 0.124176 0.000000
0.998901 0.124268 0.000000
0.062805 0.220490 0.173981
0.119415 0.224335 0.177368
0.199310 0.234375 0.166229
0.362305 0.249481 0.027954
0.501434 0.249207 0.000000
0.625641 0.249359 0.000000
0.749969 0.249451 0.000000
0.874451 0.249512 0.000000
0.999115 0.249603 0.000000
0.110077 0.339935 0.237823
0.162903 0.342377 0.239929
0.228577 0.348206 0.244507
0.319183 0.360168 0.212952
0.468933 0.373779 0.083221
0.625427 0.375122 0.000000
0.750000 0.375092 0.000000
0.874725 0.375061 0.000000
0.999512 0.375031 0.000000
0.161926 0.461853 0.296173
0.212402 0.463593 0.297394
0.273071 0.468048 0.300507
0.345825 0.475372 0.305603
0.444916 0.488220 0.248810
0.586975 0.499329 0.122864
0.746735 0.500458 0.008423
0.874817 0.500305 0.000000
0.999817 0.500183 0.000000
0.216949 0.585815 0.350372
0.266205 0.587158 0.351288
0.323547 0.590637 0.353546
0.390991 0.596527 0.357269
0.468933 0.604828 0.362610
0.574463 0.617645 0.276489
0.715698 0.625885 0.133881
0.871674 0.625488 0.010254
0.999939 0.625061 0.000061
0.275146 0.711487 0.401672
0.323334 0.712585 0.402435
0.378479 0.715393 0.404083
0.442017 0.720276 0.407074
0.514771 0.727203 0.411224
0.596832 0.736206 0.416565
0.706573 0.747772 0.297272
0.846466 0.752777 0.137024
0.995117 0.750977 0.017242
0.335693 0.838501 0.450684
0.383179 0.839417 0.451202
0.436676 0.841797 0.452576
0.497284 0.845886 0.454865
0.566437 0.851715 0.458649
0.644897 0.858887 0.466064
0.731506 0.867004 0.481506
0.836700 0.877045 0.351593
0.964386 0.881012 0.191040
0.460266 0.947510 0.541351
0.506866 0.948242 0.542480
0.557800 0.950195 0.545319
0.613800 0.953613 0.550446
0.674896 0.958832 0.557953
0.740662 0.966248 0.568390
0.809814 0.976135 0.581970
0.880585 0.988953 0.598785
0.965332 1.000000 0.435120
0.000793 0.006287 0.090027
0.064514 0.022858 0.140869
0.249481 0.000000 0.125275
0.375000 0.000000 0.124969
0.500214 0.000000 0.124969
0.625488 0.000000 0.124512
0.750000 0.000000 0.124359
0.874390 0.000000 0.124420
0.998932 0.000000 0.124512
0.022858 0.107880 0.179810
0.087402 0.113617 0.188812
0.254242 0.122711 0.123566
0.378204 0.122955 0.123718
0.502075 0.123352 0.123810
0.625977 0.123505 0.124115
0.749939 0.123840 0.124207
0.874298 0.124115 0.124298
0.998871 0.124390 0.124542
0.063385 0.221893 0.234253
0.120087 0.225708 0.237823
0.199036 0.234985 0.235382
0.377258 0.249115 0.123810
0.501465 0.249207 0.124268
0.625671 0.249329 0.124329
0.750000 0.249420 0.124359
0.874451 0.249481 0.124542
0.999115 0.249603 0.124603
0.110779 0.340790 0.291229
0.163391 0.343201 0.293121
0.229095 0.349030 0.297760
0.319794 0.360748 0.277405
0.476837 0.374237 0.170837
0.625427 0.375122 0.124481
0.750000 0.375092 0.124573
0.874695 0.375061 0.124725
0.999481 0.375031 0.124725
0.162170 0.462341 0.346039
0.212769 0.464325 0.347382
0.273468 0.468628 0.350464
0.346130 0.475861 0.355652
0.445312 0.488617 0.314117
0.591278 0.499512 0.209930
0.748718 0.500397 0.127502
0.874817 0.500305 0.124817
0.999817 0.500183 0.124908
0.217316 0.586304 0.398499
0.266510 0.587646 0.399475
0.323883 0.591125 0.401642
0.391357 0.597015 0.405518
0.469299 0.605255 0.410858
0.574677 0.617920 0.343964
0.717133 0.625977 0.228577
0.872101 0.625427 0.132263
0.999939 0.625061 0.125031
0.275421 0.711823 0.448792
0.323669 0.712952 0.449493
0.378754 0.715759 0.451141
0.442322 0.720642 0.454132
0.515015 0.727539 0.458344
0.597168 0.736511 0.463684
0.706818 0.747986 0.367493
0.847290 0.752777 0.235199
0.996124 0.750793 0.136505
0.335907 0.838806 0.497101
0.383453 0.839783 0.497620
0.436829 0.842102 0.498901
0.497681 0.846191 0.501312
0.566772 0.851990 0.505127
0.645966 0.858765 0.514069
0.732117 0.867004 0.529083
0.836823 0.877136 0.421906
0.965088 0.881042 0.285614
0.460846 0.947754 0.586365
0.506744 0.948730 0.586945
0.557617 0.950623 0.589783
0.613708 0.954102 0.594849
0.674988 0.959351 0.602386
0.740784 0.966675 0.612793
0.810059 0.976501 0.626251
0.880920 0.989319 0.643036
0.965546 1.000000 0.503296
0.010254 0.022858 0.186920
0.068939 0.037842 0.216766
0.147797 0.061035 0.257690
0.320160 0.036041 0.263855
0.499939 0.000000 0.250061
0.625000 0.000000 0.250031
0.750000 0.000000 0.250031
0.874908 0.000000 0.249939
0.999542 0.000000 0.249695
0.037048 0.112549 0.255920
0.092987 0.120087 0.266785
0.168182 0.134491 0.287231
0.352783 0.131195 0.259705
0.500000 0.124969 0.250031
0.625000 0.124969 0.250031
0.750000 0.124969 0.249939
0.874725 0.124603 0.249603
0.999329 0.124664 0.249573
0.065643 0.225006 0.312378
0.122375 0.228424 0.316010
0.195953 0.235870 0.324768
0.368439 0.249908 0.256104
0.501740 0.248962 0.248322
0.625793 0.249176 0.248627
0.750000 0.249359 0.248840
0.874390 0.249420 0.249115
0.998993 0.249542 0.249298
0.111847 0.342804 0.356659
0.164856 0.345215 0.358643
0.230591 0.350891 0.363464
0.317505 0.361267 0.358978
0.496429 0.375000 0.255188
0.625458 0.375153 0.249176
0.750000 0.375092 0.249390
0.874634 0.375092 0.249451
0.999390 0.375061 0.249542
0.163147 0.464020 0.404755
0.213867 0.465759 0.406036
0.274567 0.470062 0.409271
0.347290 0.477173 0.414459
0.444397 0.489197 0.391083
0.601746 0.499939 0.293518
0.750092 0.500427 0.249481
0.874847 0.500305 0.249756
0.999817 0.500153 0.249878
0.218201 0.587494 0.453156
0.267365 0.588867 0.454102
0.324768 0.592285 0.456329
0.392242 0.598053 0.460175
0.470154 0.606171 0.465546
0.574921 0.618500 0.417938
0.722626 0.626068 0.317322
0.873230 0.625275 0.253510
0.999939 0.625061 0.250031
0.276093 0.712830 0.500793
0.324341 0.713928 0.501465
0.379395 0.716705 0.503235
0.442993 0.721466 0.506165
0.515717 0.728394 0.510437
0.597900 0.737305 0.515778
0.707336 0.748505 0.441315
0.849518 0.752777 0.331726
0.998566 0.750305 0.253510
0.336548 0.839600 0.547333
0.384003 0.840515 0.547852
0.437531 0.842865 0.549316
0.498627 0.846863 0.551910
0.568329 0.852356 0.556641
0.648621 0.858582 0.567657
0.733612 0.867126 0.581818
0.837097 0.877441 0.495514
0.966919 0.881042 0.378021
0.462219 0.948425 0.633179
0.508118 0.949402 0.633789
0.557343 0.951904 0.635345
0.613586 0.955261 0.640350
0.674988 0.960419 0.647797
0.741058 0.967712 0.657959
0.810608 0.977539 0.671265
0.881714 0.990173 0.687897
0.966156 1.000000 0.571991
0.026794 0.046875 0.276489
0.081482 0.056824 0.294891
0.151001 0.077637 0.328003
0.237671 0.102631 0.364655
0.387390 0.087402 0.384094
0.601959 0.018646 0.379761
0.750000 0.000000 0.375000
0.875000 0.000000 0.375000
1.000000 0.000000 0.375000
0.048981 0.124969 0.326111
0.102631 0.131805 0.336212
0.169617 0.146698 0.356934
0.253235 0.166779 0.383362
0.409271 0.164856 0.390442
0.616516 0.129364 0.377228
0.750000 0.124969 0.375000
0.875000 0.124969 0.375000
1.000000 0.124969 0.375000
0.082886 0.228241 0.385834
0.135376 0.232086 0.390442
0.201080 0.241180 0.400787
0.282104 0.254730 0.415649
0.462921 0.257416 0.389709
0.624969 0.250031 0.375000
0.750000 0.250031 0.375000
0.875000 0.250031 0.375000
0.999908 0.249939 0.374908
0.114655 0.346436 0.433502
0.167236 0.348633 0.435547
0.233093 0.354034 0.440552
0.313446 0.362488 0.448334
0.480042 0.375153 0.391998
0.625671 0.375183 0.373169
0.750000 0.375153 0.373444
0.874481 0.375122 0.373810
0.999237 0.375061 0.374115
0.165100 0.466705 0.472534
0.215698 0.468353 0.473816
0.276489 0.472626 0.477112
0.349243 0.479492 0.482452
0.441345 0.490082 0.477386
0.618774 0.500397 0.382965
0.750000 0.500580 0.374237
0.874817 0.500336 0.374573
0.999695 0.500244 0.374664
0.219635 0.589569 0.514954
0.268890 0.590973 0.515839
0.326233 0.594299 0.518250
0.393738 0.600006 0.522125
0.471710 0.607971 0.527649
0.572693 0.619354 0.503906
0.728058 0.626251 0.415039
0.874786 0.625305 0.375000
0.999939 0.625061 0.375031
0.277313 0.714539 0.558594
0.325562 0.715637 0.559326
0.380707 0.718384 0.561066
0.444244 0.723083 0.564056
0.517059 0.729889 0.568329
0.599152 0.738708 0.573853
0.706177 0.749359 0.526489
0.850891 0.753021 0.435028
1.000000 0.750000 0.375000
0.337494 0.841064 0.602356
0.385010 0.841980 0.602905
0.438690 0.844177 0.604370
0.502625 0.847229 0.609222
0.574677 0.851868 0.616577
0.653076 0.858521 0.626526
0.736267 0.867493 0.639435
0.837067 0.878082 0.575775
0.970367 0.880981 0.468811
0.464752 0.949554 0.682281
0.510620 0.950531 0.682831
0.559723 0.953064 0.684448
0.613037 0.957397 0.687256
0.674896 0.962524 0.694397
0.741577 0.969666 0.704346
0.811584 0.979248 0.717346
0.883087 0.991821 0.733734
0.967285 1.000000 0.641205
0.044739 0.070526 0.361145
0.097107 0.078613 0.373505
0.161438 0.095886 0.399109
0.239594 0.119415 0.432007
0.331635 0.145599 0.465698
0.457916 0.147522 0.490265
0.679047 0.064606 0.504211
0.871674 0.003265 0.500488
1.000000 0.000000 0.500000
0.063934 0.141724 0.397552
0.115356 0.147797 0.406036
0.177826 0.161438 0.424500
0.253998 0.181335 0.450287
0.344055 0.204559 0.478577
0.474670 0.211853 0.498169
0.692017 0.162323 0.505493
0.875183 0.124969 0.500000
1.000000 0.124969 0.500000
0.097534 0.237335 0.452698
0.148041 0.241180 0.457306
0.209076 0.250519 0.468201
0.282654 0.265076 0.484680
0.369873 0.283051 0.504333
0.514008 0.289307 0.512024
0.721985 0.262268 0.505188
0.875000 0.250031 0.500000
1.000000 0.250031 0.500000
0.134491 0.348816 0.505432
0.184998 0.351379 0.507843
0.245422 0.357452 0.513916
0.318085 0.367371 0.523499
0.403381 0.380341 0.535706
0.579987 0.383423 0.515320
0.750336 0.374939 0.499908
0.875000 0.375000 0.500000
1.000000 0.375000 0.500000
0.168182 0.470490 0.547913
0.218536 0.472107 0.549255
0.279297 0.476135 0.552582
0.352112 0.482727 0.558075
0.437347 0.491852 0.565125
0.597198 0.501434 0.521362
0.746613 0.501312 0.500916
0.874542 0.500824 0.498535
0.999329 0.500580 0.498901
0.221893 0.592712 0.583496
0.270996 0.593994 0.584473
0.328461 0.597229 0.586853
0.395966 0.602753 0.590820
0.473969 0.610535 0.596436
0.569427 0.620850 0.591919
0.741058 0.625854 0.510956
0.874817 0.625671 0.499390
0.999115 0.625488 0.500458
0.279053 0.717041 0.622223
0.327362 0.718140 0.622864
0.382446 0.720825 0.624664
0.446075 0.725464 0.627686
0.518951 0.732178 0.632080
0.601105 0.740784 0.637695
0.703918 0.750854 0.615631
0.851532 0.753540 0.542542
0.995270 0.751221 0.506836
0.338989 0.843140 0.662201
0.386658 0.844055 0.662781
0.440491 0.846252 0.664368
0.506042 0.848724 0.669434
0.582947 0.851715 0.679688
0.659271 0.858826 0.688599
0.740112 0.868317 0.700256
0.835846 0.879456 0.663391
0.968506 0.882294 0.578156
0.468567 0.951294 0.733612
0.514374 0.952271 0.734253
0.563507 0.954773 0.735840
0.616638 0.959167 0.738647
0.674377 0.965668 0.742676
0.741821 0.972595 0.752136
0.812775 0.981934 0.764648
0.885132 0.994202 0.780548
0.967499 1.000000 0.720642
0.065094 0.095490 0.442719
0.115356 0.101868 0.451660
0.176025 0.116364 0.471558
0.248383 0.137726 0.499603
0.332947 0.163177 0.531342
0.429169 0.190063 0.562927
0.532135 0.213501 0.585724
0.753387 0.122040 0.616882
0.959778 0.041504 0.626160
0.080994 0.161438 0.470276
0.131195 0.166779 0.477264
0.190460 0.178925 0.493011
0.261353 0.197540 0.516418
0.344360 0.220490 0.543976
0.439240 0.245605 0.572235
0.544617 0.268463 0.593262
0.763733 0.208527 0.619904
0.967316 0.151306 0.626556
0.112549 0.250366 0.518616
0.161926 0.254120 0.523071
0.219971 0.263092 0.533508
0.288910 0.277557 0.549805
0.369385 0.296143 0.570312
0.461700 0.317383 0.592682
0.577667 0.333832 0.609924
0.790771 0.296844 0.625763
0.984650 0.259521 0.626495
0.151520 0.355835 0.571289
0.200500 0.358429 0.573914
0.257843 0.364838 0.580353
0.325348 0.375397 0.590820
0.403961 0.389374 0.604614
0.494019 0.406128 0.620575
0.629730 0.414795 0.629852
0.834259 0.391754 0.629578
1.000000 0.374847 0.624969
0.190247 0.472473 0.618591
0.239105 0.474243 0.620148
0.296387 0.478638 0.624115
0.363464 0.486115 0.630615
0.441467 0.496490 0.639557
0.530243 0.509125 0.650299
0.697601 0.511139 0.638763
0.875275 0.499908 0.624969
1.000000 0.500000 0.625000
0.225037 0.596741 0.657715
0.274170 0.597961 0.658691
0.331635 0.601105 0.661072
0.399109 0.606445 0.665161
0.477051 0.613953 0.670837
0.566040 0.623413 0.677521
0.718353 0.628845 0.646362
0.864838 0.627808 0.630524
0.995300 0.627228 0.626526
0.281586 0.720459 0.690918
0.329895 0.721466 0.691681
0.384918 0.724060 0.693420
0.448578 0.728638 0.696533
0.521515 0.735138 0.700989
0.603638 0.743530 0.706635
0.701172 0.753174 0.703522
0.857422 0.753265 0.645752
0.989258 0.753479 0.635010
0.341125 0.846008 0.726715
0.388916 0.846863 0.727325
0.442780 0.848999 0.728882
0.510681 0.850952 0.733612
0.587219 0.854065 0.741394
0.661102 0.861938 0.747803
0.742554 0.871399 0.757812
0.835114 0.882172 0.744720
0.968262 0.883698 0.682068
0.473755 0.953735 0.787170
0.519562 0.954681 0.787781
0.568634 0.957153 0.789429
0.621674 0.961548 0.792236
0.679108 0.968018 0.796387
0.741302 0.976807 0.801697
0.813934 0.985718 0.813354
0.887756 0.997559 0.828552
0.968018 1.000000 0.798920
0.086090 0.121399 0.521881
0.135376 0.126556 0.528778
0.193329 0.138611 0.544678
0.261627 0.157715 0.568329
0.340363 0.181366 0.596802
0.429718 0.207794 0.627167
0.529572 0.235229 0.657257
0.620453 0.272949 0.676208
0.832977 0.182220 0.719879
0.099915 0.183502 0.543610
0.148865 0.187958 0.549316
0.206268 0.198730 0.562653
0.273346 0.215698 0.583282
0.350891 0.237671 0.608643
0.439240 0.262360 0.636475
0.537933 0.288635 0.664459
0.628113 0.324768 0.682037
0.842651 0.259460 0.723724
0.129028 0.266510 0.585236
0.177582 0.270020 0.589264
0.233582 0.278503 0.598907
0.298889 0.292236 0.614319
0.374634 0.310730 0.634277
0.460907 0.332184 0.657043
0.557556 0.355530 0.680817
0.651031 0.385742 0.696777
0.866241 0.339417 0.732483
0.167480 0.366486 0.635254
0.215881 0.369019 0.637878
0.271118 0.375397 0.644348
0.335114 0.385925 0.654968
0.408936 0.400421 0.669250
0.493011 0.417969 0.686279
0.587494 0.437500 0.704773
0.693359 0.457825 0.719604
0.904846 0.425232 0.744080
0.209106 0.478180 0.684082
0.257263 0.480042 0.685699
0.312042 0.484741 0.690002
0.375488 0.492615 0.697083
0.448273 0.503693 0.706909
0.530975 0.517426 0.718994
0.623566 0.533295 0.732605
0.752838 0.542236 0.744141
0.958282 0.517487 0.752563
0.248840 0.598328 0.727417
0.297028 0.599670 0.728516
0.351898 0.603058 0.731293
0.415314 0.609009 0.735962
0.487823 0.617310 0.742615
0.569977 0.627930 0.751068
0.661560 0.640442 0.760773
0.819122 0.639709 0.760071
0.989380 0.628662 0.752441
0.284882 0.724609 0.764038
0.333069 0.725677 0.764771
0.388184 0.728149 0.766602
0.451874 0.732544 0.769714
0.524750 0.738892 0.774231
0.606842 0.747009 0.780029
0.698578 0.756683 0.786621
0.836212 0.759125 0.772003
0.967194 0.760406 0.767059
0.344055 0.849609 0.795410
0.391876 0.850403 0.796021
0.446899 0.852234 0.797455
0.516602 0.853821 0.800781
0.592682 0.857239 0.805969
0.665924 0.865112 0.811829
0.742310 0.876343 0.817139
0.834839 0.886383 0.819763
0.969604 0.885193 0.783508
0.480621 0.956909 0.842529
0.526367 0.957825 0.843201
0.575287 0.960266 0.844788
0.628204 0.964569 0.847656
0.685486 0.971039 0.851868
0.747314 0.979797 0.857330
0.813843 0.990906 0.863953
0.890564 1.000000 0.877869
0.968994 1.000000 0.872894
0.108276 0.147522 0.599457
0.156677 0.151794 0.604980
0.212769 0.162201 0.617798
0.277710 0.178925 0.637817
0.352020 0.200897 0.663147
0.436035 0.226227 0.691284
0.529572 0.253387 0.720581
0.632385 0.281342 0.749451
0.725342 0.319122 0.767334
0.120087 0.206635 0.616882
0.168671 0.210571 0.621674
0.224152 0.220154 0.632935
0.288269 0.235565 0.650848
0.361725 0.255920 0.673950
0.444855 0.279968 0.700134
0.537506 0.306091 0.727570
0.639526 0.333069 0.755066
0.733459 0.369019 0.772827
0.146698 0.285004 0.652649
0.194733 0.288269 0.656250
0.249298 0.296021 0.664978
0.312164 0.309082 0.679199
0.384094 0.326782 0.698059
0.465424 0.347992 0.720062
0.556366 0.371582 0.743958
0.656738 0.396393 0.768341
0.753601 0.428101 0.786194
0.184143 0.380066 0.698975
0.231781 0.382446 0.701538
0.285675 0.388641 0.707703
0.347168 0.398956 0.718079
0.417389 0.413391 0.732300
0.496826 0.431152 0.749512
0.585754 0.451263 0.768646
0.683960 0.473053 0.788879
0.787048 0.497833 0.807434
0.226562 0.487152 0.747223
0.274017 0.489044 0.748962
0.327454 0.493683 0.753235
0.388184 0.501801 0.760559
0.457306 0.513184 0.770813
0.535278 0.527466 0.783569
0.622406 0.544159 0.798248
0.718628 0.562592 0.814148
0.844971 0.572144 0.837769
0.269470 0.603180 0.792603
0.317047 0.604584 0.793762
0.370270 0.608124 0.796753
0.430756 0.614349 0.801819
0.499359 0.623199 0.809082
0.575684 0.633789 0.824829
0.665527 0.646118 0.835144
0.764587 0.659943 0.846283
0.890442 0.667999 0.859070
0.310272 0.725952 0.832886
0.357758 0.727051 0.833740
0.411041 0.729767 0.835754
0.471649 0.734558 0.839325
0.540161 0.741486 0.844482
0.614960 0.750732 0.853149
0.702271 0.760773 0.863037
0.798248 0.772919 0.869080
0.923309 0.778259 0.876465
0.347900 0.853821 0.867493
0.395966 0.854614 0.868042
0.455139 0.855530 0.868652
0.524139 0.857391 0.869934
0.599640 0.861145 0.872498
0.672119 0.869080 0.877808
0.747375 0.880066 0.885193
0.834717 0.891632 0.892914
0.953186 0.894836 0.892792
0.489044 0.960846 0.899231
0.534851 0.961853 0.899902
0.583649 0.964203 0.901459
0.636414 0.968506 0.904358
0.693481 0.974915 0.908569
0.755005 0.983490 0.914185
0.821045 0.994507 0.921204
0.891571 1.000000 0.929077
0.970978 1.000000 0.939819
0.131195 0.174225 0.675842
0.179138 0.177826 0.680176
0.233765 0.186920 0.690796
0.296143 0.201691 0.707886
0.366913 0.221741 0.730103
0.446533 0.245453 0.755920
0.534912 0.271973 0.783630
0.631836 0.299896 0.811829
0.737305 0.328125 0.839630
0.142029 0.231262 0.690063
0.189636 0.234406 0.695312
0.243713 0.242767 0.704834
0.305603 0.256653 0.720581
0.376038 0.275543 0.741272
0.455170 0.298248 0.765411
0.543091 0.323547 0.791687
0.639771 0.350464 0.818604
0.745117 0.377930 0.845398
0.166046 0.305481 0.720825
0.213318 0.308228 0.725281
0.266510 0.315063 0.736572
0.327667 0.327118 0.749573
0.397186 0.343414 0.767029
0.475586 0.363678 0.787872
0.562927 0.386383 0.810913
0.659302 0.410950 0.835083
0.764404 0.436188 0.859314
0.201691 0.395966 0.763123
0.248535 0.398254 0.766724
0.300598 0.403717 0.776123
0.359833 0.412537 0.793030
0.429077 0.425934 0.806702
0.507324 0.442627 0.823242
0.594788 0.461853 0.841980
0.691406 0.482758 0.861847
0.797058 0.504456 0.882233
0.243896 0.498810 0.809631
0.290314 0.500610 0.812500
0.341309 0.505127 0.820099
0.398499 0.512421 0.834045
0.465118 0.521332 0.856689
0.545380 0.533966 0.868927
0.635254 0.548737 0.882812
0.734436 0.565063 0.897766
0.841675 0.582794 0.912598
0.288544 0.610901 0.855316
0.334473 0.612427 0.857666
0.384369 0.616150 0.863647
0.439545 0.622375 0.874756
0.502380 0.630371 0.892975
0.580170 0.638367 0.915955
0.673462 0.650391 0.919373
0.769714 0.665741 0.923645
0.866730 0.685059 0.929138
0.332550 0.730133 0.897827
0.378204 0.731506 0.899597
0.426758 0.734802 0.904114
0.479980 0.740387 0.912231
0.546326 0.747375 0.918823
0.621521 0.756104 0.927704
0.707153 0.765686 0.939941
0.802185 0.778168 0.943848
0.897278 0.794556 0.948853
0.400177 0.850220 0.926941
0.446472 0.851257 0.927643
0.496704 0.853882 0.929535
0.552002 0.858398 0.932922
0.612793 0.865173 0.937927
0.679688 0.874023 0.944855
0.753662 0.884705 0.954163
0.838806 0.895752 0.967010
0.933228 0.909241 0.971497
0.499481 0.965759 0.956726
0.545166 0.966705 0.957336
0.593933 0.969086 0.958832
0.646515 0.973297 0.961670
0.703247 0.979675 0.965759
0.764465 0.988190 0.971252
0.830139 0.999084 0.978271
0.900146 1.000000 0.986755
0.974304 1.000000 0.996674
