design/ux_analyses/Resolume/Resolume Arena/luts/Kobosi.cube
# Copyright: (C) Copyright 2010-2018 by IWLTBAP SAS
# Cannot be resold, shared or otherwise redistributed
# Website: https://luts.iwltbap.com
TITLE "IWLTBAP Kobosi (Rec.709, sRGB, DCI-P3)"
LUT_3D_SIZE 33
0.000000 0.000793 0.011841
0.035431 0.000000 0.000000
0.066162 0.000000 0.000000
0.097839 0.000000 0.000000
0.129242 0.000000 0.000000
0.160522 0.000000 0.000000
0.192230 0.000000 0.000000
0.223419 0.000000 0.000000
0.254669 0.000000 0.000000
0.285614 0.000000 0.000000
0.316620 0.000000 0.000000
0.347595 0.000000 0.000000
0.378632 0.000000 0.000000
0.409485 0.000000 0.000000
0.440430 0.000000 0.000000
0.471344 0.000000 0.000000
0.502228 0.000000 0.000000
0.533234 0.000000 0.000000
0.564056 0.000000 0.000000
0.595062 0.000000 0.000000
0.626007 0.000000 0.000000
0.656982 0.000000 0.000000
0.687958 0.000000 0.000000
0.718994 0.000000 0.000000
0.749939 0.000000 0.000000
0.781036 0.000000 0.000000
0.812103 0.000000 0.000000
0.843170 0.000000 0.000000
0.874237 0.000000 0.000000
0.905365 0.000000 0.000000
0.936523 0.000000 0.000000
0.967651 0.000000 0.000000
0.998810 0.000000 0.000000
0.001556 0.024445 0.034698
0.016663 0.026062 0.036743
0.055176 0.029236 0.014465
0.098114 0.030029 0.000000
0.129395 0.030029 0.000000
0.160614 0.030060 0.000000
0.192078 0.030060 0.000000
0.223297 0.030090 0.000000
0.254547 0.030121 0.000000
0.285492 0.030121 0.000000
0.316528 0.030151 0.000000
0.347504 0.030182 0.000000
0.378479 0.030212 0.000000
0.409424 0.030212 0.000000
0.440277 0.030243 0.000000
0.471344 0.030273 0.000000
0.502197 0.030304 0.000000
0.533142 0.030304 0.000000
0.564056 0.030334 0.000000
0.595001 0.030365 0.000000
0.625977 0.030396 0.000000
0.656982 0.030396 0.000000
0.687958 0.030426 0.000000
0.718964 0.030457 0.000000
0.749939 0.030457 0.000000
0.781036 0.030487 0.000000
0.812134 0.030518 0.000000
0.843170 0.030548 0.000000
0.874268 0.030548 0.000000
0.905365 0.030579 0.000000
0.936523 0.030609 0.000000
0.967651 0.030609 0.000000
0.998810 0.030640 0.000000
0.005524 0.050354 0.054932
0.021271 0.052338 0.056824
0.039032 0.054413 0.059418
0.068878 0.058319 0.049194
0.128998 0.060608 0.000000
0.160706 0.060669 0.000000
0.191925 0.060699 0.000000
0.223267 0.060730 0.000000
0.254150 0.060760 0.000000
0.285370 0.060791 0.000000
0.316406 0.060822 0.000000
0.347504 0.060852 0.000000
0.378326 0.060883 0.000000
0.409363 0.060913 0.000000
0.440216 0.060944 0.000000
0.471191 0.060974 0.000000
0.502136 0.061005 0.000000
0.533112 0.061066 0.000000
0.564056 0.061096 0.000000
0.594971 0.061127 0.000000
0.625916 0.061157 0.000000
0.656952 0.061188 0.000000
0.687958 0.061218 0.000000
0.718964 0.061615 0.000000
0.750000 0.061646 0.000000
0.781036 0.061646 0.000000
0.812134 0.061676 0.000000
0.843170 0.061707 0.000000
0.874268 0.061737 0.000000
0.905396 0.061768 0.000000
0.936523 0.061768 0.000000
0.967651 0.061798 0.000000
0.998840 0.061829 0.000000
0.013397 0.077148 0.077637
0.028381 0.078613 0.079559
0.044006 0.080536 0.081482
0.063171 0.082764 0.082153
0.086273 0.086365 0.083374
0.147217 0.092743 0.017822
0.192108 0.091309 0.000000
0.222961 0.091370 0.000000
0.254211 0.091431 0.000000
0.285187 0.091461 0.000000
0.316254 0.091492 0.000000
0.347198 0.091522 0.000000
0.378296 0.091888 0.000000
0.409149 0.091919 0.000000
0.440186 0.091949 0.000000
0.471130 0.091980 0.000000
0.502045 0.092041 0.000000
0.533081 0.092346 0.000000
0.563934 0.092102 0.000000
0.594971 0.092407 0.000000
0.625946 0.092438 0.000000
0.656891 0.092468 0.000000
0.687897 0.092499 0.000000
0.718933 0.092560 0.000000
0.749939 0.092590 0.000000
0.781036 0.092621 0.000000
0.812134 0.092651 0.000000
0.843201 0.092896 0.000000
0.874298 0.092926 0.000000
0.905426 0.092957 0.000000
0.936554 0.092957 0.000000
0.967712 0.092987 0.000000
0.998871 0.093018 0.000000
0.022064 0.105286 0.099915
0.036255 0.106415 0.101074
0.051666 0.107880 0.102631
0.068390 0.109711 0.104523
0.088684 0.112457 0.102631
0.112122 0.115906 0.103760
0.166504 0.122589 0.043518
0.222260 0.123138 0.000641
0.253967 0.122681 0.000000
0.285034 0.122986 0.000000
0.316071 0.123047 0.000000
0.346924 0.123077 0.000000
0.377991 0.123108 0.000000
0.408997 0.123138 0.000000
0.439911 0.123138 0.000000
0.471039 0.123413 0.000000
0.501953 0.123444 0.000000
0.532928 0.123474 0.000000
0.563934 0.123505 0.000000
0.594879 0.123535 0.000000
0.625854 0.123566 0.000000
0.656921 0.123596 0.000000
0.687927 0.123810 0.000000
0.718964 0.123840 0.000000
0.750000 0.123871 0.000000
0.781067 0.123901 0.000000
0.812134 0.124115 0.000000
0.843201 0.123962 0.000000
0.874298 0.124176 0.000000
0.905426 0.124176 0.000000
0.936584 0.124207 0.000000
0.967743 0.124237 0.000000
0.998901 0.124268 0.000000
0.031525 0.133606 0.119415
0.045441 0.134796 0.120728
0.059845 0.135681 0.122040
0.075653 0.137146 0.123688
0.093414 0.139160 0.125916
0.114868 0.142334 0.120392
0.140198 0.145996 0.118042
0.186676 0.152100 0.070557
0.242737 0.155609 0.015503
0.285278 0.154297 0.000000
0.315796 0.154327 0.000000
0.346741 0.154388 0.000000
0.377777 0.154419 0.000000
0.408722 0.154663 0.000000
0.439819 0.154663 0.000000
0.470795 0.154694 0.000000
0.501831 0.154724 0.000000
0.532837 0.154724 0.000000
0.563812 0.154755 0.000000
0.594849 0.154938 0.000000
0.625824 0.154968 0.000000
0.656830 0.154999 0.000000
0.687897 0.155029 0.000000
0.718903 0.155212 0.000000
0.749939 0.155212 0.000000
0.781067 0.155243 0.000000
0.812164 0.155273 0.000000
0.843231 0.155304 0.000000
0.874329 0.155457 0.000000
0.905457 0.155487 0.000000
0.936615 0.155487 0.000000
0.967773 0.155518 0.000000
0.998932 0.155670 0.000000
0.040985 0.162170 0.138580
0.054932 0.163147 0.139435
0.068939 0.164124 0.140289
0.084259 0.165344 0.141724
0.101074 0.167236 0.143402
0.119415 0.169373 0.145599
0.142517 0.172668 0.136993
0.168427 0.176453 0.132141
0.208832 0.181824 0.096252
0.264740 0.186188 0.035248
0.314758 0.186066 0.000549
0.346558 0.185944 0.000000
0.377655 0.185974 0.000000
0.408569 0.186035 0.000000
0.439636 0.186066 0.000000
0.470612 0.186096 0.000000
0.501678 0.186249 0.000000
0.532745 0.186279 0.000000
0.563721 0.186279 0.000000
0.594788 0.186310 0.000000
0.625793 0.186432 0.000000
0.656799 0.186462 0.000000
0.687866 0.186493 0.000000
0.718903 0.186493 0.000000
0.749969 0.186523 0.000000
0.781097 0.186646 0.000000
0.812164 0.186676 0.000000
0.843262 0.186707 0.000000
0.874359 0.186707 0.000000
0.905518 0.186829 0.000000
0.936646 0.186859 0.000000
0.967834 0.186890 0.000000
0.999023 0.186890 0.000000
0.051666 0.191284 0.156677
0.065063 0.192108 0.157440
0.078613 0.192932 0.157959
0.093842 0.193939 0.159210
0.109711 0.195557 0.160706
0.127167 0.197540 0.162415
0.145874 0.199524 0.164612
0.170532 0.203369 0.152161
0.197784 0.207062 0.144287
0.233185 0.211792 0.118530
0.287781 0.216827 0.055389
0.338348 0.218262 0.012299
0.378082 0.217377 0.000000
0.408417 0.217529 0.000000
0.439514 0.217560 0.000000
0.470490 0.217682 0.000000
0.501526 0.217712 0.000000
0.532562 0.217743 0.000000
0.563599 0.217773 0.000000
0.594666 0.217773 0.000000
0.625732 0.217804 0.000000
0.656738 0.217896 0.000000
0.687836 0.217926 0.000000
0.718903 0.218018 0.000000
0.749969 0.218018 0.000000
0.781097 0.218048 0.000000
0.812195 0.218079 0.000000
0.843292 0.218079 0.000000
0.874420 0.218170 0.000000
0.905579 0.218201 0.000000
0.936737 0.218201 0.000000
0.967865 0.218231 0.000000
0.999054 0.218231 0.000000
0.062805 0.220490 0.173981
0.075653 0.221191 0.174438
0.089142 0.221893 0.175110
0.103760 0.222931 0.176025
0.119415 0.224335 0.177368
0.135956 0.225861 0.178925
0.154114 0.227905 0.180695
0.173309 0.230103 0.182648
0.199310 0.234375 0.166229
0.227661 0.238159 0.154755
0.259033 0.242157 0.139099
0.312195 0.247375 0.074554
0.362305 0.249481 0.027954
0.407623 0.249207 0.000458
0.439331 0.249054 0.000000
0.470398 0.249176 0.000000
0.501434 0.249207 0.000000
0.532501 0.249207 0.000000
0.563507 0.249237 0.000000
0.594543 0.249268 0.000000
0.625641 0.249359 0.000000
0.656708 0.249359 0.000000
0.687775 0.249359 0.000000
0.718872 0.249451 0.000000
0.749969 0.249451 0.000000
0.781097 0.249481 0.000000
0.812225 0.249481 0.000000
0.843323 0.249481 0.000000
0.874451 0.249512 0.000000
0.905609 0.249573 0.000000
0.936768 0.249603 0.000000
0.967957 0.249603 0.000000
0.999115 0.249603 0.000000
0.074158 0.250214 0.190674
0.086945 0.250671 0.191071
0.100311 0.251282 0.191895
0.114319 0.252167 0.192505
0.129669 0.253540 0.193726
0.145599 0.254883 0.194946
0.163147 0.256653 0.196350
0.181549 0.258728 0.198151
0.201324 0.261017 0.199097
0.228638 0.265564 0.179138
0.258148 0.269470 0.164246
0.288696 0.273132 0.150116
0.337524 0.277893 0.093414
0.387207 0.280609 0.043884
0.433533 0.281067 0.009491
0.470795 0.280640 0.000000
0.501343 0.280670 0.000000
0.532379 0.280731 0.000000
0.563446 0.280762 0.000000
0.594482 0.280762 0.000000
0.625580 0.280792 0.000000
0.656677 0.280823 0.000000
0.687775 0.280884 0.000000
0.718872 0.280884 0.000000
0.750000 0.280884 0.000000
0.781128 0.280884 0.000000
0.812225 0.280884 0.000000
0.843384 0.280914 0.000000
0.874512 0.280914 0.000000
0.905670 0.280914 0.000000
0.936859 0.280975 0.000000
0.968018 0.280975 0.000000
0.999207 0.280975 0.000000
0.085602 0.279846 0.206848
0.098328 0.280396 0.207214
0.111481 0.280914 0.207764
0.125275 0.281860 0.208344
0.140015 0.282776 0.209259
0.155914 0.284210 0.210571
0.172852 0.285797 0.211853
0.190460 0.287628 0.213501
0.209473 0.289795 0.215149
0.230225 0.292419 0.213806
0.258392 0.296936 0.191071
0.288788 0.300842 0.173431
0.319702 0.304443 0.158020
0.363861 0.308685 0.111237
0.413788 0.311554 0.057709
0.459137 0.312500 0.021851
0.500671 0.312256 0.000763
0.532318 0.312225 0.000000
0.563385 0.312225 0.000000
0.594421 0.312225 0.000000
0.625519 0.312256 0.000000
0.656616 0.312256 0.000000
0.687744 0.312256 0.000000
0.718872 0.312256 0.000000
0.750000 0.312317 0.000000
0.781128 0.312317 0.000000
0.812256 0.312317 0.000000
0.843414 0.312317 0.000000
0.874573 0.312317 0.000000
0.905762 0.312347 0.000000
0.936920 0.312347 0.000000
0.968109 0.312347 0.000000
0.999298 0.312378 0.000000
0.097931 0.309784 0.222595
0.110413 0.310150 0.222931
0.123016 0.310730 0.223450
0.136841 0.311432 0.223969
0.151245 0.312500 0.224823
0.166779 0.313690 0.225861
0.183075 0.315186 0.227051
0.200317 0.316925 0.228424
0.218719 0.318878 0.229919
0.237976 0.321045 0.231598
0.259674 0.323944 0.227539
0.288605 0.328522 0.202332
0.319702 0.332428 0.182037
0.350739 0.335785 0.165955
0.391327 0.339630 0.127106
0.440948 0.342621 0.070953
0.485596 0.343842 0.034332
0.528320 0.343842 0.007446
0.563721 0.343658 0.000000
0.594391 0.343689 0.000000
0.625488 0.343689 0.000000
0.656616 0.343689 0.000000
0.687714 0.343689 0.000000
0.718842 0.343689 0.000000
0.750000 0.343689 0.000000
0.781158 0.343689 0.000000
0.812317 0.343719 0.000000
0.843475 0.343719 0.000000
0.874634 0.343719 0.000000
0.905823 0.343719 0.000000
0.936981 0.343719 0.000000
0.968201 0.343719 0.000000
0.999390 0.343719 0.000000
0.110077 0.339935 0.237823
0.122711 0.340363 0.238312
0.135376 0.340912 0.238647
0.148590 0.341522 0.239105
0.162903 0.342377 0.239929
0.177826 0.343536 0.240723
0.193939 0.344879 0.241821
0.210754 0.346436 0.243073
0.228577 0.348206 0.244507
0.247284 0.350250 0.246063
0.266937 0.352509 0.247772
0.289551 0.355682 0.240540
0.319183 0.360168 0.212952
0.350922 0.364136 0.190125
0.382751 0.367462 0.171417
0.420471 0.370850 0.139221
0.468933 0.373779 0.083221
0.513702 0.375061 0.043915
0.555420 0.375305 0.017059
0.593903 0.375153 0.000610
0.625427 0.375122 0.000000
0.656555 0.375122 0.000000
0.687683 0.375122 0.000000
0.718842 0.375122 0.000000
0.750000 0.375092 0.000000
0.781158 0.375092 0.000000
0.812317 0.375061 0.000000
0.843506 0.375061 0.000000
0.874725 0.375061 0.000000
0.905884 0.375061 0.000000
0.937073 0.375061 0.000000
0.968292 0.375061 0.000000
0.999512 0.375031 0.000000
0.122711 0.370148 0.252930
0.135071 0.370544 0.253235
0.147522 0.371033 0.253540
0.160706 0.371582 0.254120
0.174683 0.372437 0.254730
0.189423 0.373505 0.255463
0.205139 0.374725 0.256500
0.221558 0.376221 0.257538
0.238953 0.377899 0.258728
0.257263 0.379761 0.260315
0.276337 0.381897 0.261780
0.296265 0.384094 0.263519
0.319946 0.387512 0.252655
0.350250 0.392059 0.222778
0.382477 0.395905 0.197418
0.415039 0.399200 0.175842
0.450226 0.402222 0.150299
0.497559 0.405029 0.094482
0.542480 0.406372 0.052582
0.583221 0.406708 0.026123
0.622894 0.406525 0.005310
0.656830 0.406525 0.000000
0.687683 0.406494 0.000000
0.718811 0.406494 0.000000
0.750000 0.406464 0.000000
0.781158 0.406433 0.000000
0.812347 0.406433 0.000000
0.843536 0.406403 0.000000
0.874725 0.406403 0.000000
0.905945 0.406372 0.000000
0.937164 0.406372 0.000000
0.968384 0.406372 0.000000
0.999603 0.406372 0.000000
0.135376 0.400604 0.267639
0.147797 0.400940 0.267914
0.160217 0.401398 0.268188
0.173309 0.401917 0.268616
0.186920 0.402588 0.269165
0.201477 0.403625 0.269867
0.216766 0.404755 0.270844
0.232941 0.406219 0.271667
0.249908 0.407745 0.272919
0.267639 0.409424 0.274170
0.286316 0.411469 0.275665
0.305725 0.413727 0.277283
0.326111 0.415985 0.278931
0.350769 0.419586 0.264191
0.381500 0.424042 0.232086
0.414215 0.427734 0.204346
0.447540 0.431030 0.179901
0.481750 0.433777 0.156464
0.526703 0.436371 0.105316
0.571686 0.437683 0.060791
0.612457 0.438049 0.032593
0.651245 0.437927 0.012390
0.687378 0.437836 0.000458
0.718811 0.437836 0.000000
0.750000 0.437805 0.000000
0.781189 0.437805 0.000000
0.812347 0.437744 0.000000
0.843567 0.437744 0.000000
0.874786 0.437714 0.000000
0.906006 0.437683 0.000000
0.937225 0.437653 0.000000
0.968445 0.437653 0.000000
0.999695 0.437622 0.000000
0.148590 0.431152 0.281982
0.160706 0.431458 0.282257
0.173065 0.431793 0.282532
0.186066 0.432404 0.282928
0.199524 0.433044 0.283447
0.213867 0.433990 0.284119
0.228912 0.434998 0.284882
0.244659 0.436340 0.285797
0.261353 0.437836 0.286865
0.278625 0.439453 0.288025
0.296906 0.441223 0.289307
0.315887 0.443298 0.290710
0.335663 0.445526 0.292389
0.356232 0.447968 0.294037
0.381866 0.451752 0.274933
0.413086 0.456085 0.240814
0.446198 0.459747 0.210724
0.479919 0.462860 0.184082
0.514191 0.465454 0.159882
0.556427 0.467804 0.115143
0.601440 0.469055 0.068054
0.642700 0.469391 0.036835
0.680267 0.469330 0.018646
0.717346 0.469086 0.003510
0.750183 0.469147 0.000000
0.781189 0.469086 0.000000
0.812378 0.469055 0.000000
0.843567 0.469025 0.000000
0.874786 0.468994 0.000000
0.906036 0.468994 0.000000
0.937256 0.468933 0.000000
0.968506 0.468903 0.000000
0.999756 0.468903 0.000000
0.161926 0.461853 0.296173
0.173981 0.462128 0.296295
0.186066 0.462433 0.296661
0.198944 0.462921 0.296906
0.212402 0.463593 0.297394
0.226562 0.464447 0.298035
0.241180 0.465454 0.298645
0.256805 0.466705 0.299530
0.273071 0.468048 0.300507
0.290070 0.469543 0.301605
0.307892 0.471344 0.302826
0.326447 0.473236 0.304169
0.345825 0.475372 0.305603
0.365814 0.477600 0.307190
0.386749 0.480042 0.308838
0.413269 0.484039 0.285187
0.444916 0.488220 0.248810
0.478424 0.491760 0.216675
0.512451 0.494751 0.187897
0.546753 0.497223 0.162903
0.586975 0.499329 0.122864
0.631683 0.500488 0.074249
0.673035 0.500793 0.041168
0.710419 0.500702 0.022522
0.746735 0.500458 0.008423
0.781036 0.500397 0.000336
0.812378 0.500366 0.000000
0.843597 0.500336 0.000000
0.874817 0.500305 0.000000
0.906067 0.500275 0.000000
0.937286 0.500244 0.000000
0.968536 0.500214 0.000000
0.999817 0.500183 0.000000
0.175354 0.492615 0.310028
0.187317 0.492950 0.310272
0.199524 0.493225 0.310394
0.212219 0.493683 0.310760
0.225525 0.494293 0.311096
0.239441 0.495087 0.311829
0.253998 0.496033 0.312286
0.269165 0.497162 0.313110
0.285126 0.498505 0.314056
0.301849 0.499939 0.314972
0.319336 0.501587 0.316132
0.337494 0.503418 0.317413
0.356354 0.505432 0.318787
0.376038 0.507599 0.320282
0.396484 0.509918 0.321747
0.417633 0.512268 0.323456
0.445038 0.516357 0.294800
0.476990 0.520477 0.256500
0.510712 0.523895 0.222168
0.545105 0.526733 0.191315
0.579926 0.529053 0.163849
0.618408 0.530914 0.128021
0.662384 0.531952 0.079468
0.703674 0.532196 0.044983
0.741425 0.532043 0.024200
0.776764 0.531799 0.011993
0.811676 0.531586 0.002014
0.843719 0.531586 0.000000
0.874878 0.531555 0.000000
0.906097 0.531525 0.000000
0.937347 0.531494 0.000000
0.968597 0.531464 0.000000
0.999847 0.531433 0.000000
0.188995 0.523560 0.323669
0.200897 0.523895 0.323883
0.213135 0.524200 0.324127
0.225708 0.524567 0.324341
0.238800 0.525177 0.324799
0.252472 0.525879 0.325256
0.266937 0.526794 0.325806
0.281982 0.527832 0.326477
0.297760 0.529083 0.327362
0.314026 0.530487 0.328369
0.331207 0.532013 0.329346
0.349030 0.533783 0.330444
0.367462 0.535645 0.331757
0.386749 0.537628 0.333069
0.406616 0.539856 0.334503
0.427399 0.542175 0.336121
0.448730 0.544678 0.337708
0.477112 0.548828 0.303894
0.509308 0.552795 0.263641
0.543213 0.556030 0.227173
0.577911 0.558716 0.194336
0.613098 0.560883 0.164429
0.650085 0.562561 0.132690
0.693481 0.563446 0.083923
0.734680 0.563568 0.047852
0.773163 0.563324 0.023926
0.807739 0.563110 0.013397
0.841919 0.562866 0.004852
0.874817 0.562775 0.000183
0.906128 0.562744 0.000000
0.937378 0.562714 0.000000
0.968628 0.562683 0.000000
0.999878 0.562653 0.000000
0.203033 0.554626 0.337067
0.214783 0.554840 0.337280
0.226898 0.555206 0.337494
0.239441 0.555542 0.337708
0.252319 0.556061 0.338043
0.266083 0.556824 0.338562
0.280243 0.557617 0.339111
0.295013 0.558655 0.339752
0.310486 0.559784 0.340485
0.326569 0.561096 0.341339
0.343323 0.562592 0.342377
0.360931 0.564240 0.343323
0.379028 0.565979 0.344604
0.397888 0.567993 0.345856
0.417450 0.570068 0.347198
0.437683 0.572235 0.348755
0.458557 0.574615 0.350189
0.480347 0.577209 0.350891
0.509369 0.581421 0.312500
0.541748 0.585175 0.270172
0.575897 0.588196 0.231842
0.610748 0.590729 0.197021
0.646301 0.592712 0.164856
0.682495 0.594238 0.134766
0.724823 0.594940 0.087708
0.766083 0.594971 0.049713
0.804596 0.594635 0.024475
0.839386 0.594360 0.012817
0.872864 0.594086 0.006012
0.905884 0.593933 0.000854
0.937439 0.593933 0.000000
0.968658 0.593903 0.000000
0.999939 0.593842 0.000000
0.216949 0.585815 0.350372
0.228912 0.586029 0.350494
0.240875 0.586304 0.350677
0.253235 0.586670 0.350891
0.266205 0.587158 0.351288
0.279724 0.587799 0.351715
0.293640 0.588623 0.352234
0.308350 0.589569 0.352814
0.323547 0.590637 0.353546
0.339417 0.591919 0.354340
0.356049 0.593292 0.355255
0.373108 0.594849 0.356171
0.390991 0.596527 0.357269
0.409424 0.598419 0.358551
0.428589 0.600464 0.359863
0.448486 0.602539 0.361145
0.468933 0.604828 0.362610
0.490143 0.607269 0.364166
0.512512 0.609924 0.360809
0.541901 0.614044 0.320648
0.574463 0.617645 0.276489
0.608704 0.620453 0.236115
0.643677 0.622772 0.199310
0.679382 0.624573 0.165283
0.715698 0.625885 0.133881
0.756470 0.626495 0.090546
0.797729 0.626343 0.050720
0.836273 0.625885 0.024261
0.871674 0.625488 0.010254
0.904480 0.625305 0.005157
0.936920 0.625153 0.001587
0.968689 0.625092 0.000031
0.999939 0.625061 0.000061
0.231293 0.617035 0.363495
0.243073 0.617310 0.363586
0.255035 0.617554 0.363800
0.267365 0.617889 0.363983
0.280243 0.618408 0.364288
0.293640 0.619019 0.364655
0.307404 0.619812 0.365143
0.321838 0.620667 0.365723
0.336945 0.621704 0.366425
0.352600 0.622864 0.367096
0.368805 0.624207 0.367950
0.385742 0.625702 0.368927
0.403290 0.627319 0.369995
0.421417 0.629089 0.371124
0.440247 0.630951 0.372284
0.459717 0.633057 0.373505
0.479767 0.635254 0.374939
0.500458 0.637482 0.376434
0.521881 0.639954 0.377930
0.545105 0.642822 0.370270
0.574646 0.646759 0.328308
0.607300 0.650085 0.282318
0.641602 0.652740 0.240021
0.676727 0.654846 0.201324
0.712524 0.656464 0.165466
0.748932 0.657593 0.132568
0.788544 0.658020 0.091949
0.829651 0.657715 0.050842
0.868195 0.657166 0.023163
0.904419 0.656555 0.005920
0.936707 0.656403 0.002472
0.968506 0.656281 0.000671
1.000000 0.656250 0.000000
0.245758 0.648438 0.376343
0.257538 0.648682 0.376526
0.269470 0.648926 0.376617
0.281708 0.649261 0.376801
0.294373 0.649689 0.377167
0.307648 0.650299 0.377472
0.321381 0.650940 0.377930
0.335663 0.651855 0.378479
0.350586 0.652832 0.379059
0.365906 0.653900 0.379791
0.381989 0.655182 0.380524
0.398682 0.656616 0.381470
0.415894 0.658142 0.382477
0.433746 0.659851 0.383484
0.452179 0.661652 0.384583
0.471283 0.663635 0.385773
0.490997 0.665710 0.387115
0.511383 0.667999 0.388489
0.532379 0.670349 0.389923
0.553925 0.672791 0.391449
0.577881 0.675781 0.379333
0.607574 0.679474 0.335510
0.640259 0.682648 0.287659
0.674622 0.685028 0.243591
0.709778 0.686920 0.203033
0.745697 0.688324 0.165344
0.782318 0.689240 0.130341
0.820923 0.689545 0.092041
0.861725 0.689087 0.050262
0.900146 0.688385 0.021790
0.936249 0.687714 0.004242
0.968750 0.687500 0.000031
1.000000 0.687500 0.000000
0.260345 0.679901 0.389130
0.272095 0.680084 0.389191
0.283966 0.680328 0.389374
0.296143 0.680664 0.389557
0.308716 0.681061 0.389832
0.321960 0.681641 0.390198
0.335571 0.682312 0.390564
0.349762 0.683105 0.391083
0.364349 0.684082 0.391632
0.379578 0.685089 0.392242
0.395447 0.686340 0.392975
0.411804 0.687683 0.393860
0.428833 0.689148 0.394745
0.446381 0.690765 0.395721
0.464539 0.692505 0.396759
0.483307 0.694397 0.397919
0.502716 0.696381 0.399231
0.522705 0.698547 0.400543
0.543243 0.700806 0.401825
0.564514 0.703247 0.403290
0.586304 0.705688 0.404846
0.610870 0.708771 0.387848
0.640656 0.712250 0.342194
0.673401 0.715179 0.292633
0.707733 0.717346 0.246765
0.742920 0.718994 0.204407
0.778870 0.720184 0.164948
0.815582 0.720886 0.128021
0.852631 0.721161 0.094879
0.892120 0.720673 0.056274
0.929871 0.719971 0.028625
0.965912 0.719269 0.009888
1.000000 0.718750 0.000031
0.275146 0.711487 0.401672
0.286835 0.711670 0.401825
0.298645 0.711823 0.401917
0.310730 0.712158 0.402100
0.323334 0.712585 0.402435
0.336426 0.713135 0.402710
0.349854 0.713745 0.403046
0.363983 0.714478 0.403564
0.378479 0.715393 0.404083
0.393494 0.716431 0.404663
0.409088 0.717590 0.405365
0.425293 0.718781 0.406128
0.442017 0.720276 0.407074
0.459381 0.721802 0.407928
0.477203 0.723480 0.408936
0.495697 0.725342 0.410034
0.514771 0.727203 0.411224
0.534454 0.729279 0.412384
0.554626 0.731506 0.413727
0.575470 0.733734 0.415070
0.596832 0.736206 0.416565
0.618896 0.738708 0.418060
0.643982 0.741791 0.395935
0.673920 0.745117 0.348541
0.706573 0.747772 0.297272
0.740692 0.749664 0.251007
0.775391 0.751129 0.209381
0.810699 0.752167 0.171539
0.846466 0.752777 0.137024
0.882599 0.752991 0.105774
0.920990 0.752533 0.068329
0.958527 0.751831 0.038940
0.995117 0.750977 0.017242
0.290070 0.743103 0.414154
0.301727 0.743286 0.414246
0.313446 0.743469 0.414398
0.325562 0.743774 0.414581
0.338013 0.744141 0.414825
0.351074 0.744690 0.415070
0.364471 0.745239 0.415497
0.378387 0.745972 0.415894
0.392670 0.746826 0.416412
0.407562 0.747803 0.416901
0.423035 0.748901 0.417633
0.438934 0.750122 0.418304
0.455536 0.751526 0.419128
0.472626 0.752991 0.420013
0.490265 0.754639 0.420929
0.508362 0.756348 0.421997
0.527161 0.758179 0.423126
0.546509 0.760162 0.424255
0.566315 0.762238 0.425568
0.586853 0.764496 0.426849
0.607941 0.766846 0.428223
0.629486 0.769287 0.429657
0.651642 0.771820 0.431091
0.677368 0.774902 0.404144
0.707031 0.777924 0.356689
0.739319 0.780396 0.306305
0.772888 0.782043 0.260437
0.807159 0.783325 0.218842
0.842041 0.784210 0.180969
0.876892 0.784760 0.147766
0.911774 0.784973 0.117828
0.949127 0.784576 0.082153
0.986938 0.783783 0.050354
0.305145 0.774841 0.426453
0.316711 0.774963 0.426605
0.328461 0.775146 0.426605
0.340485 0.775452 0.426849
0.352905 0.775818 0.427094
0.365814 0.776306 0.427338
0.379120 0.776855 0.427643
0.392944 0.777588 0.428131
0.407227 0.778351 0.428619
0.421906 0.779297 0.429169
0.437134 0.780334 0.429718
0.452942 0.781555 0.430450
0.469208 0.782837 0.431152
0.486115 0.784302 0.432037
0.503479 0.785828 0.432892
0.521393 0.787476 0.433929
0.539856 0.789307 0.434937
0.558868 0.791168 0.436035
0.578491 0.793213 0.437225
0.598633 0.795319 0.438477
0.619324 0.797607 0.439789
0.640564 0.799988 0.441162
0.662415 0.802460 0.442566
