design/ux_analyses/Resolume/Resolume Arena/luts/Quoria.cube
# Copyright: (C) Copyright 2010-2018 by IWLTBAP SAS
# Cannot be resold, shared or otherwise redistributed
# Website: https://luts.iwltbap.com
TITLE "IWLTBAP Quoria (Rec.709, sRGB, DCI-P3)"
LUT_3D_SIZE 9
0.000000 0.000793 0.000000
0.124969 0.025482 0.002838
0.281250 0.055511 0.000702
0.421112 0.086700 0.000000
0.540649 0.121185 0.000000
0.649811 0.158691 0.001404
0.753998 0.191559 0.004944
0.853912 0.225433 0.009216
0.952972 0.264160 0.014160
0.045074 0.031525 0.013397
0.138580 0.062592 0.016541
0.272156 0.108704 0.007874
0.417633 0.133728 0.004272
0.550903 0.171356 0.001312
0.670319 0.205475 0.002014
0.778534 0.238586 0.005493
0.880127 0.276398 0.009705
0.977509 0.311188 0.012543
0.129974 0.064392 0.014984
0.203735 0.083984 0.021271
0.314697 0.122009 0.026001
0.428467 0.208588 0.011383
0.569366 0.237457 0.006836
0.697571 0.272522 0.005371
0.809448 0.303802 0.007599
0.906250 0.335114 0.009827
0.999969 0.370789 0.011383
0.248871 0.093933 0.010254
0.304016 0.103455 0.015778
0.395477 0.139313 0.037842
0.514252 0.201569 0.047943
0.602417 0.308228 0.024414
0.713196 0.360077 0.013123
0.832672 0.385864 0.010742
0.935028 0.412659 0.010590
1.000000 0.439362 0.011139
0.373932 0.129547 0.005524
0.415894 0.131439 0.009460
0.488495 0.165558 0.037842
0.592529 0.221375 0.072845
0.702423 0.297058 0.084930
0.768250 0.411438 0.050507
0.850311 0.475555 0.021881
0.953156 0.500305 0.015076
1.000000 0.520538 0.014679
0.494263 0.177704 0.003174
0.527374 0.174377 0.005524
0.591187 0.198517 0.034027
0.684326 0.251984 0.087280
0.776093 0.317993 0.136566
0.865967 0.395844 0.136871
0.908630 0.510773 0.079285
0.975037 0.581573 0.044220
1.000000 0.613831 0.026611
0.604980 0.225189 0.002380
0.631927 0.216949 0.005524
0.688110 0.235260 0.029327
0.767090 0.286102 0.088196
0.846344 0.343658 0.160675
0.923065 0.409546 0.205109
0.984039 0.486969 0.197632
1.000000 0.606842 0.136627
1.000000 0.690887 0.088348
0.708191 0.282776 0.005524
0.724243 0.267883 0.007080
0.768982 0.277191 0.026001
0.832947 0.313873 0.077576
0.897919 0.367096 0.150116
0.957977 0.420044 0.225311
1.000000 0.489624 0.281921
1.000000 0.582886 0.311981
1.000000 0.719299 0.265564
0.817474 0.355347 0.011841
0.825562 0.328613 0.012604
0.849396 0.324799 0.026001
0.889069 0.341919 0.062592
0.933075 0.378418 0.115723
0.979279 0.423279 0.196533
1.000000 0.488708 0.320831
1.000000 0.583618 0.459076
1.000000 0.702881 0.571350
0.000000 0.040985 0.132172
0.110779 0.072327 0.154541
0.293762 0.089081 0.125580
0.457031 0.104614 0.082550
0.570221 0.125183 0.067902
0.667389 0.154114 0.065552
0.766479 0.181458 0.066467
0.865417 0.211456 0.069214
0.959259 0.243530 0.070587
0.004791 0.081573 0.170959
0.085266 0.105011 0.168976
0.243835 0.130310 0.135345
0.419403 0.154755 0.094574
0.565643 0.178253 0.073090
0.683655 0.204803 0.065430
0.785797 0.232697 0.063690
0.885895 0.266724 0.063690
0.981812 0.298706 0.063690
0.037872 0.126312 0.199310
0.108612 0.138123 0.174194
0.243408 0.170258 0.142639
0.409424 0.229248 0.119293
0.568726 0.246490 0.091217
0.700745 0.276184 0.075928
0.813477 0.302368 0.068207
0.911011 0.329773 0.063812
1.000000 0.362152 0.060364
0.101471 0.182739 0.211090
0.183533 0.176056 0.160675
0.309052 0.194763 0.135651
0.469666 0.238434 0.121460
0.589722 0.327209 0.112793
0.713104 0.365997 0.102203
0.834412 0.388153 0.082672
0.937988 0.411102 0.072083
1.000000 0.433533 0.064301
0.213745 0.237122 0.199310
0.308319 0.212219 0.133423
0.424927 0.216003 0.109711
0.557495 0.260315 0.123871
0.685425 0.324066 0.133759
0.760590 0.427338 0.121063
0.847839 0.483154 0.109344
0.954590 0.503235 0.091156
1.000000 0.520050 0.079803
0.372925 0.287048 0.157227
0.467163 0.248810 0.092224
0.564148 0.241943 0.073944
0.661346 0.280273 0.113495
0.761566 0.341125 0.162659
0.855438 0.417511 0.175903
0.904938 0.526794 0.143738
0.973877 0.591827 0.124878
1.000000 0.618927 0.114868
0.550293 0.320160 0.108154
0.619415 0.283752 0.058228
0.684845 0.274689 0.050812
0.757812 0.305145 0.094635
0.835266 0.364532 0.174927
0.913452 0.430267 0.228882
0.981354 0.510254 0.239838
1.000000 0.626373 0.205048
1.000000 0.703613 0.177185
0.696747 0.360291 0.072876
0.734741 0.320160 0.040985
0.773987 0.308563 0.040192
0.827759 0.331268 0.080597
0.889343 0.381622 0.155884
0.951416 0.438751 0.245117
1.000000 0.513000 0.315002
1.000000 0.606873 0.355713
1.000000 0.737244 0.335663
0.810791 0.417786 0.070648
0.833130 0.378998 0.040985
0.856781 0.361328 0.040985
0.885223 0.368011 0.070648
0.925385 0.395294 0.124908
0.967224 0.440216 0.209534
1.000000 0.506989 0.336639
1.000000 0.600494 0.479614
1.000000 0.717651 0.599915
0.000000 0.084473 0.253357
0.074707 0.118591 0.314728
0.275116 0.135712 0.285706
0.484070 0.130157 0.208740
0.609344 0.134216 0.162109
0.697235 0.156982 0.146423
0.779663 0.182129 0.143768
0.870728 0.207794 0.145813
0.958954 0.238007 0.144714
0.000000 0.125977 0.293121
0.042969 0.145660 0.313599
0.187836 0.175568 0.289032
0.406372 0.186981 0.222717
0.581329 0.194336 0.170502
0.698090 0.212219 0.142944
0.794617 0.234406 0.138062
0.886139 0.265472 0.136383
0.978821 0.296051 0.133362
0.000000 0.179993 0.337555
0.036316 0.189178 0.322662
0.150909 0.218231 0.296967
0.360046 0.248505 0.248413
0.561249 0.268951 0.196533
0.703064 0.287262 0.164978
0.813446 0.308319 0.147247
0.907928 0.332642 0.137848
0.999603 0.362793 0.130219
0.011871 0.241608 0.376648
0.064484 0.239105 0.330597
0.177460 0.261536 0.291473
0.368896 0.297424 0.256866
0.554565 0.361237 0.238159
0.709473 0.378113 0.203735
0.832153 0.397217 0.176666
0.935303 0.416656 0.153381
1.000000 0.435638 0.138794
0.056549 0.317627 0.397003
0.150635 0.298065 0.319489
0.282196 0.294830 0.259705
0.458710 0.321655 0.239136
0.635651 0.374817 0.229980
0.741455 0.459198 0.223877
0.842072 0.495209 0.213531
0.952972 0.510651 0.187744
1.000000 0.523804 0.164978
0.161896 0.389862 0.385529
0.300568 0.347198 0.273224
0.450378 0.321442 0.196320
0.594971 0.334991 0.189606
0.724213 0.388611 0.226379
0.834442 0.458313 0.247284
0.894257 0.556030 0.236877
0.967072 0.606293 0.223083
1.000000 0.625061 0.209534
0.335052 0.435699 0.333038
0.492157 0.378998 0.204468
0.626129 0.339142 0.128906
0.725983 0.348907 0.135956
0.816467 0.398163 0.207123
0.897705 0.467590 0.276154
0.969910 0.541565 0.299896
1.000000 0.652130 0.284882
1.000000 0.717529 0.269440
0.515015 0.474182 0.283722
0.659821 0.403107 0.149292
0.756378 0.364227 0.084473
0.819336 0.368530 0.104156
0.879456 0.408295 0.178070
0.941895 0.470520 0.273529
0.997681 0.541748 0.354309
1.000000 0.632599 0.408722
1.000000 0.760040 0.407623
0.649353 0.526276 0.283295
0.783386 0.446625 0.133453
0.849731 0.405457 0.072327
0.883209 0.399841 0.086304
0.919037 0.420563 0.141144
0.959137 0.467163 0.232117
1.000000 0.529602 0.358612
1.000000 0.620087 0.507019
1.000000 0.733093 0.627258
0.000000 0.122009 0.346985
0.033936 0.162750 0.436127
0.191895 0.196625 0.449432
0.453949 0.186310 0.366180
0.639984 0.165802 0.285278
0.731567 0.165039 0.252380
0.805115 0.180023 0.241058
0.880554 0.205200 0.236359
0.958221 0.236603 0.226379
0.000000 0.173431 0.384460
0.010284 0.184326 0.417633
0.114990 0.218048 0.437317
0.344269 0.233521 0.386139
0.577362 0.223358 0.306946
0.716583 0.221161 0.255432
0.808350 0.235565 0.235840
0.888855 0.265320 0.222534
0.968658 0.297394 0.213776
0.000000 0.224609 0.419495
0.001617 0.227264 0.425079
0.066620 0.263214 0.437653
0.257904 0.298462 0.408356
0.518372 0.306274 0.339081
0.703674 0.307281 0.277039
0.816101 0.319427 0.245300
0.903198 0.340637 0.225281
0.990173 0.368866 0.215210
0.000000 0.285797 0.459015
0.005554 0.289581 0.450836
0.062286 0.315094 0.444183
0.231476 0.360382 0.421082
0.491760 0.388550 0.376129
0.698090 0.401733 0.321747
0.828186 0.414520 0.280396
0.927765 0.429626 0.255676
1.000000 0.445770 0.235565
0.000000 0.358582 0.496948
0.035522 0.360901 0.469543
0.114990 0.371735 0.437164
0.287720 0.400513 0.405609
0.526764 0.437988 0.380280
0.701752 0.495026 0.366547
0.838409 0.511322 0.333588
0.947540 0.524902 0.299469
1.000000 0.534302 0.267883
0.022919 0.435974 0.530426
0.115356 0.427002 0.464355
0.248077 0.415253 0.389954
0.430634 0.421570 0.344360
0.631561 0.460571 0.348755
0.792969 0.513367 0.358917
0.874939 0.592133 0.356873
0.958771 0.625793 0.348724
1.000000 0.634735 0.320496
0.097534 0.511414 0.543640
0.271820 0.476837 0.417572
0.452606 0.436371 0.305023
0.619232 0.425812 0.254150
0.757599 0.461609 0.289429
0.869507 0.520905 0.357422
0.953613 0.591644 0.391174
0.994965 0.684662 0.388916
1.000000 0.734619 0.379272
0.208954 0.575653 0.551849
0.454254 0.505554 0.358826
0.645782 0.445892 0.216919
0.768402 0.427521 0.175659
0.851776 0.458466 0.225311
0.926086 0.514191 0.327881
0.987244 0.586639 0.416656
1.000000 0.669678 0.475128
1.000000 0.782837 0.485809
0.314819 0.638977 0.588501
0.608795 0.541687 0.330719
0.792725 0.474060 0.169769
0.870056 0.444794 0.128601
0.908478 0.459900 0.172943
0.951416 0.498871 0.264526
0.995605 0.563629 0.394836
1.000000 0.645966 0.538635
1.000000 0.755310 0.660309
0.000000 0.158569 0.414795
0.003204 0.191986 0.507660
0.092712 0.244049 0.570282
0.330750 0.256439 0.525726
0.595367 0.220642 0.427490
0.748962 0.198090 0.368439
0.825134 0.196228 0.341125
0.891968 0.209717 0.332001
0.961639 0.232513 0.323792
0.000000 0.214294 0.447937
0.000000 0.214294 0.483276
0.047089 0.255035 0.533936
0.225891 0.289307 0.534607
0.504181 0.279694 0.463867
0.713074 0.255951 0.386810
0.823059 0.247162 0.343750
0.896179 0.265625 0.327026
0.966339 0.290375 0.314117
0.000000 0.271088 0.477814
0.000000 0.265472 0.489166
0.018188 0.292175 0.522522
0.152527 0.339355 0.542694
0.420410 0.358490 0.504913
0.678925 0.338440 0.422913
0.819824 0.330902 0.368439
0.902771 0.342438 0.336761
0.979095 0.368195 0.316162
0.000000 0.324280 0.511566
0.000000 0.327332 0.517975
0.010284 0.353821 0.532379
0.114319 0.401245 0.549622
0.365540 0.435608 0.533173
0.646576 0.438324 0.469299
0.819672 0.435364 0.404694
0.918365 0.442505 0.361725
0.993469 0.459778 0.330444
0.000000 0.388519 0.544495
0.000000 0.398865 0.548492
0.022125 0.417511 0.548981
0.128418 0.458923 0.550110
0.368896 0.499664 0.540192
0.649506 0.524078 0.505768
0.829498 0.536072 0.455841
0.937683 0.543579 0.411469
1.000000 0.549957 0.375366
0.000000 0.460327 0.585968
0.020538 0.472717 0.577972
0.081268 0.482422 0.550690
0.221191 0.500916 0.525269
0.454590 0.534485 0.515381
0.702576 0.580109 0.510223
0.839752 0.629517 0.504822
0.953888 0.642609 0.474152
1.000000 0.647369 0.436279
0.010315 0.529083 0.624390
0.094269 0.532837 0.583160
0.221344 0.524597 0.513245
0.396606 0.520233 0.451416
0.602112 0.542114 0.445099
0.794739 0.594116 0.481506
0.924103 0.652252 0.512054
0.981262 0.722076 0.512390
1.000000 0.757477 0.502289
0.047791 0.597290 0.669525
0.215240 0.581146 0.568604
0.411774 0.544647 0.440521
0.599243 0.519501 0.345825
0.757812 0.529785 0.343170
0.880249 0.578918 0.415070
0.963470 0.640991 0.504822
1.000000 0.712982 0.559509
1.000000 0.810608 0.577667
0.102631 0.665192 0.724792
0.350586 0.622894 0.554657
0.596832 0.567566 0.374847
0.771912 0.520691 0.256073
0.872589 0.513397 0.245117
0.936005 0.542297 0.317261
0.986603 0.602997 0.443359
1.000000 0.683685 0.584167
1.000000 0.777954 0.694183
0.000000 0.188110 0.463318
0.000000 0.215240 0.550415
0.023895 0.279114 0.643524
0.176086 0.315216 0.659332
0.460266 0.293243 0.585327
0.701996 0.256897 0.499939
0.823730 0.235748 0.455566
0.892029 0.237122 0.440430
0.952972 0.254822 0.426666
0.000000 0.257050 0.494232
0.000000 0.243073 0.531128
0.007141 0.277283 0.592865
0.104919 0.326843 0.643219
0.349854 0.338196 0.617920
0.636627 0.309662 0.539734
0.812775 0.286499 0.473755
0.896118 0.286743 0.442963
0.955688 0.301849 0.418640
0.000000 0.312622 0.527679
0.000000 0.299377 0.538452
0.000000 0.314087 0.574982
0.062286 0.367279 0.625885
0.277008 0.402985 0.646667
0.583038 0.390015 0.589722
0.800323 0.364716 0.512238
0.899170 0.360168 0.460449
0.960175 0.371216 0.422424
0.000000 0.367584 0.555756
0.000000 0.367065 0.568298
0.000000 0.379761 0.586243
0.045776 0.421875 0.623718
0.233368 0.472534 0.659821
0.542145 0.481537 0.634399
0.785339 0.464447 0.557983
0.903931 0.455688 0.493500
0.969421 0.458618 0.444855
0.000000 0.422150 0.589661
0.000000 0.431488 0.600555
0.001617 0.446106 0.612000
0.049103 0.485046 0.638123
0.225342 0.533142 0.665192
0.527863 0.566833 0.659576
0.783356 0.569458 0.604919
0.918976 0.563141 0.539001
0.988464 0.556580 0.475067
0.000000 0.485657 0.623749
0.003967 0.500183 0.637939
0.019745 0.515076 0.643127
0.082611 0.541473 0.648895
0.268890 0.588043 0.661469
0.564819 0.634125 0.668152
0.805969 0.661682 0.644104
0.939209 0.668030 0.596130
1.000000 0.661224 0.537567
0.009491 0.544067 0.664001
0.032349 0.563049 0.666840
0.075684 0.574310 0.655548
0.178375 0.588226 0.635254
0.374817 0.617798 0.623596
0.640656 0.667389 0.641083
0.852570 0.713898 0.653839
0.953766 0.761871 0.648804
1.000000 0.769958 0.619171
0.032349 0.599548 0.704956
0.079895 0.611664 0.686707
0.179932 0.613220 0.642792
0.335846 0.608917 0.578094
0.536652 0.618378 0.539032
0.751190 0.657288 0.557068
0.906982 0.709747 0.615479
0.996185 0.768616 0.664276
1.000000 0.841949 0.675903
0.062286 0.652191 0.747650
0.153320 0.660309 0.709076
0.308289 0.644196 0.615326
0.511292 0.617584 0.501099
0.700287 0.599945 0.421692
0.848816 0.611420 0.426727
0.951111 0.660370 0.517822
1.000000 0.728180 0.643890
1.000000 0.809143 0.742004
0.000000 0.219543 0.503998
0.000000 0.238617 0.590179
0.000061 0.300812 0.686279
0.069733 0.359222 0.745422
0.288940 0.359741 0.724365
0.580414 0.319305 0.646210
0.777374 0.292450 0.583466
0.875153 0.287170 0.556763
0.935333 0.296783 0.548798
0.000000 0.295593 0.538116
0.000000 0.275848 0.573059
0.000000 0.295074 0.632507
0.033936 0.348480 0.703674
0.190033 0.385864 0.734711
0.481506 0.372314 0.692200
0.744293 0.338684 0.620789
0.877625 0.329926 0.577393
0.942413 0.339996 0.549622
0.000000 0.356903 0.572632
0.000000 0.331818 0.581390
0.000000 0.333527 0.610474
0.015015 0.377594 0.672302
0.139160 0.428223 0.735321
0.421204 0.436768 0.736084
0.714966 0.410309 0.670135
0.878845 0.395447 0.604736
0.948822 0.399414 0.557251
0.000000 0.405518 0.600677
0.000000 0.399261 0.607513
0.000000 0.401428 0.622803
0.012665 0.431061 0.665619
0.124634 0.485352 0.730713
0.396423 0.512238 0.762970
0.701447 0.498138 0.719727
0.881165 0.479156 0.645874
0.956207 0.472839 0.579498
0.000000 0.458954 0.632935
0.000000 0.463470 0.643890
0.002411 0.470428 0.655365
0.022125 0.495178 0.680328
0.129974 0.541351 0.732056
0.390900 0.585724 0.776581
0.697327 0.592468 0.755066
0.886627 0.577850 0.687286
0.967255 0.561707 0.609375
0.008698 0.512054 0.666748
0.012665 0.522339 0.678680
0.018982 0.532715 0.689423
0.047791 0.558563 0.709961
0.157806 0.601746 0.742310
0.406372 0.656128 0.781372
0.704376 0.686859 0.782684
0.897339 0.687561 0.733704
0.988342 0.669678 0.658539
0.027008 0.568268 0.703979
0.036316 0.580292 0.715912
0.049103 0.592438 0.723969
0.084381 0.611237 0.731415
0.208344 0.649994 0.746857
0.452698 0.706024 0.774841
0.743866 0.764832 0.793884
0.924530 0.784973 0.776611
1.000000 0.784210 0.731018
0.051025 0.614075 0.738464
0.061737 0.625458 0.744720
0.085693 0.636566 0.744110
0.152252 0.651581 0.733459
0.290924 0.676544 0.721405
0.525055 0.717407 0.724548
0.776703 0.774384 0.750000
0.946014 0.821899 0.779663
1.000000 0.879425 0.789795
0.077576 0.659882 0.776184
0.095093 0.668793 0.774994
0.135376 0.676086 0.755768
0.233215 0.678650 0.716980
0.396515 0.679321 0.659576
0.608856 0.691101 0.621002
0.818298 0.727142 0.649139
0.956238 0.789551 0.729279
1.000000 0.859985 0.807434
0.000000 0.262146 0.539093
0.000000 0.267242 0.622681
0.000000 0.318573 0.721527
0.025482 0.383240 0.795654
0.164154 0.403442 0.817261
0.428741 0.376617 0.774841
0.691803 0.341003 0.708282
0.837952 0.333527 0.674042
0.919403 0.345276 0.670197
0.000000 0.334076 0.577271
0.000000 0.303772 0.606232
0.000000 0.312866 0.663910
0.006348 0.363373 0.738007
0.095093 0.411224 0.800598
0.327850 0.417236 0.806335
0.629333 0.391357 0.752380
0.831390 0.379944 0.707123
0.930878 0.392487 0.686188
0.000000 0.393707 0.607941
0.000000 0.364838 0.613770
0.000000 0.355621 0.643280
0.000092 0.383911 0.698212
0.062836 0.437347 0.779724
0.271545 0.470428 0.826294
0.585297 0.455719 0.799988
0.825775 0.436371 0.742096
0.942230 0.443817 0.708344
0.000000 0.439301 0.640045
0.000000 0.425568 0.642456
0.000000 0.418121 0.653900
0.001617 0.434967 0.688324
0.061188 0.483795 0.758514
0.255310 0.524323 0.835724
0.570587 0.525360 0.839294
0.825134 0.509583 0.783325
0.952911 0.507843 0.730194
0.005554 0.487946 0.670105
0.004761 0.484467 0.674286
0.004761 0.482788 0.681488
0.013458 0.495880 0.706177
0.075195 0.533020 0.755219
0.267670 0.582916 0.829102
0.573669 0.603363 0.860413
0.830566 0.595428 0.818848
0.963165 0.585663 0.758118
0.022125 0.534058 0.705017
0.025421 0.536926 0.712555
0.030182 0.539917 0.720062
0.042999 0.556335 0.734436
0.105286 0.590240 0.772491
0.286774 0.641022 0.828308
0.581482 0.685883 0.870789
0.836853 0.696228 0.855347
0.979034 0.686829 0.800964
0.047058 0.584534 0.736938
0.052917 0.590912 0.745514
0.058899 0.597656 0.754120
0.073242 0.610382 0.769653
0.133911 0.641724 0.793549
0.305511 0.699188 0.837463
0.588409 0.761963 0.875427
0.845947 0.799316 0.882233
0.997009 0.805267 0.853149
0.071777 0.628265 0.772400
0.078033 0.635620 0.779968
0.086090 0.643555 0.787109
0.106415 0.658936 0.794434
0.164612 0.683319 0.806152
0.317383 0.728546 0.826660
0.579956 0.794006 0.858429
0.849792 0.864380 0.887329
1.000000 0.899475 0.894348
0.103394 0.672272 0.804260
0.107910 0.678009 0.808350
0.114685 0.684052 0.810791
0.133911 0.692017 0.809814
0.192322 0.704132 0.802429
0.330566 0.727020 0.792480
0.549011 0.774689 0.800079
0.804565 0.842712 0.843903
1.000000 0.925354 0.897766
0.000000 0.299103 0.572327
0.000000 0.287720 0.650421
0.000000 0.331329 0.743011
0.012665 0.396759 0.821320
0.100708 0.428406 0.868896
0.309052 0.413849 0.860291
0.592133 0.381989 0.806519
0.794128 0.373932 0.774536
0.899780 0.390045 0.775208
0.000000 0.372620 0.606415
0.000000 0.329376 0.635956
0.000000 0.329254 0.686676
0.000092 0.373230 0.759735
0.051025 0.424713 0.836151
0.220093 0.445404 0.871216
0.514343 0.428070 0.847900
0.771088 0.417694 0.808167
0.911194 0.434387 0.801147
0.000000 0.425720 0.641205
0.000000 0.390900 0.643707
0.000000 0.372345 0.665863
0.000000 0.389374 0.720673
0.031555 0.438812 0.798950
0.170258 0.484375 0.871216
0.457794 0.485352 0.880432
0.752197 0.474548 0.846985
0.926117 0.487152 0.826599
0.000000 0.472412 0.670105
0.000000 0.448090 0.666901
0.000000 0.430756 0.673615
0.000000 0.435211 0.706818
0.028595 0.475006 0.773132
0.159119 0.522308 0.860779
0.432587 0.541534 0.905914
0.742950 0.535309 0.879395
0.937927 0.541840 0.855469
0.014221 0.512726 0.702454
0.009491 0.500336 0.696960
0.004761 0.488770 0.697418
0.005554 0.489197 0.715393
0.039337 0.514709 0.759003
0.166870 0.565521 0.846436
0.436432 0.602020 0.913544
0.747070 0.609070 0.910919
0.949615 0.613373 0.883240
0.040100 0.555664 0.733093
0.037079 0.546112 0.732727
0.033142 0.539246 0.733307
0.034729 0.539490 0.740814
0.063416 0.563690 0.772919
0.185303 0.609833 0.839539
0.450134 0.665802 0.912231
0.753876 0.695465 0.933899
0.962341 0.708099 0.922272
0.062836 0.595734 0.760559
0.065033 0.594849 0.766632
0.066101 0.594055 0.771515
0.071259 0.596893 0.778992
0.100708 0.614502 0.798676
0.202576 0.662445 0.846985
0.437683 0.724792 0.911041
0.742432 0.784485 0.950165
0.980316 0.822144 0.959625
0.091064 0.637329 0.794617
0.097137 0.640381 0.800079
0.102264 0.643646 0.806030
0.109375 0.650482 0.814026
0.126862 0.665802 0.828674
0.193359 0.699554 0.860718
0.374542 0.764954 0.910065
0.678406 0.844971 0.955536
0.992310 0.928772 0.989655
0.122070 0.681458 0.828186
0.127502 0.686371 0.837616
0.133026 0.690826 0.843170
0.139191 0.695496 0.849121
0.150116 0.701538 0.856567
0.167358 0.715790 0.868591
0.257904 0.764771 0.898010
0.546417 0.865723 0.946625
1.000000 1.000000 1.000000
