design/ux_analyses/Resolume/Resolume Arena/luts/Quoria.cube
# Copyright: (C) Copyright 2010-2018 by IWLTBAP SAS
# Cannot be resold, shared or otherwise redistributed
# Website: https://luts.iwltbap.com
TITLE "IWLTBAP Quoria (Rec.709, sRGB, DCI-P3)"
LUT_3D_SIZE 33
0.000000 0.000793 0.000000
0.028046 0.007080 0.000000
0.057831 0.012726 0.001404
0.089783 0.019104 0.002106
0.124969 0.025482 0.002838
0.163971 0.031860 0.002838
0.200562 0.038177 0.002136
0.240936 0.044586 0.001434
0.281250 0.055511 0.000702
0.316620 0.062836 0.000702
0.354248 0.070496 0.000000
0.390411 0.078766 0.000000
0.421112 0.086700 0.000000
0.454346 0.095398 0.000000
0.482635 0.104065 0.000000
0.513947 0.112640 0.000000
0.540649 0.121185 0.000000
0.570618 0.129669 0.000702
0.596191 0.138092 0.000702
0.625153 0.148285 0.000702
0.649811 0.158691 0.001404
0.677826 0.166931 0.002106
0.702271 0.175140 0.002838
0.726227 0.183289 0.003540
0.753998 0.191559 0.004944
0.777710 0.199738 0.005676
0.805359 0.208191 0.007080
0.828918 0.216736 0.008514
0.853912 0.225433 0.009216
0.879700 0.234039 0.010620
0.902893 0.242798 0.012054
0.929993 0.255524 0.012756
0.952972 0.264160 0.014160
0.007141 0.008667 0.002350
0.035522 0.015778 0.003937
0.060547 0.025482 0.003448
0.093964 0.029907 0.004028
0.125427 0.034943 0.005188
0.162506 0.040680 0.004944
0.197540 0.047791 0.004517
0.237213 0.058167 0.003967
0.277039 0.065430 0.003357
0.312439 0.072998 0.002716
0.350616 0.080811 0.002045
0.387543 0.089142 0.001373
0.419220 0.097168 0.000671
0.453461 0.105865 0.000702
0.482788 0.114532 0.000702
0.515137 0.123138 0.000702
0.542725 0.131927 0.000702
0.573486 0.140381 0.000702
0.599762 0.152832 0.000702
0.629395 0.161255 0.001404
0.654663 0.169708 0.001404
0.683319 0.177917 0.002106
0.707794 0.186096 0.002808
0.734497 0.194366 0.003510
0.759827 0.202576 0.004913
0.783661 0.211060 0.005646
0.811310 0.219421 0.007050
0.834778 0.228027 0.008484
0.862061 0.236633 0.009186
0.885284 0.245422 0.010590
0.908356 0.257996 0.012024
0.935181 0.266785 0.012726
0.958038 0.275635 0.013428
0.015808 0.016541 0.006287
0.042969 0.022858 0.007874
0.067657 0.029968 0.009460
0.096710 0.044434 0.007263
0.126373 0.056274 0.005615
0.162292 0.059296 0.006775
0.195923 0.064514 0.006866
0.234802 0.070526 0.006073
0.274017 0.077362 0.005676
0.309418 0.084656 0.004517
0.347900 0.092255 0.003296
0.385437 0.100403 0.002655
0.417908 0.108612 0.002014
0.453125 0.116882 0.001343
0.483398 0.125671 0.000702
0.516602 0.134216 0.000702
0.545074 0.143127 0.000702
0.576630 0.155640 0.000702
0.603668 0.164154 0.000702
0.633789 0.172638 0.001373
0.659546 0.181000 0.001404
0.688629 0.189148 0.002075
0.713470 0.197449 0.002777
0.741791 0.205811 0.004181
0.765869 0.214111 0.004883
0.791260 0.222473 0.006317
0.817352 0.230927 0.007019
0.840790 0.239532 0.008423
0.867920 0.249359 0.009827
0.890961 0.260925 0.010559
0.917725 0.269623 0.011261
0.940430 0.278412 0.012665
0.963074 0.287231 0.013397
0.031525 0.023651 0.010254
0.052277 0.029968 0.011810
0.075195 0.037048 0.012604
0.103760 0.044006 0.013397
0.130188 0.065552 0.010834
0.163574 0.077118 0.007965
0.195862 0.081879 0.007538
0.233765 0.085846 0.007416
0.272491 0.091125 0.006836
0.307556 0.097443 0.005981
0.346252 0.104675 0.004944
0.384064 0.112274 0.003815
0.417297 0.120422 0.003235
0.453369 0.128906 0.001953
0.484497 0.137421 0.001312
0.518463 0.147186 0.001343
0.547760 0.158752 0.000671
0.580109 0.167358 0.000702
0.607758 0.175934 0.001373
0.638611 0.184418 0.001373
0.664764 0.192688 0.002045
0.694275 0.201080 0.002747
0.719330 0.209381 0.003448
0.747894 0.217621 0.004150
0.772095 0.225952 0.005554
0.799927 0.234375 0.006256
0.823578 0.242828 0.007660
0.846893 0.255371 0.008392
0.873962 0.264038 0.009796
0.896790 0.272705 0.010498
0.923370 0.281464 0.011200
0.945892 0.290161 0.012604
0.968231 0.298950 0.013336
0.045074 0.031525 0.013397
0.064484 0.037842 0.014191
0.085693 0.044006 0.015778
0.112549 0.054932 0.016541
0.138580 0.062592 0.016541
0.169220 0.081635 0.013306
0.198669 0.096497 0.010162
0.233826 0.106567 0.007721
0.272156 0.108704 0.007874
0.307007 0.113434 0.007507
0.345703 0.119415 0.006256
0.383667 0.126221 0.005341
0.417633 0.133728 0.004272
0.454254 0.141815 0.003143
0.486115 0.154144 0.002563
0.520905 0.162628 0.001953
0.550903 0.171356 0.001312
0.583984 0.180023 0.001312
0.612640 0.188660 0.001343
0.643616 0.197083 0.002014
0.670319 0.205475 0.002014
0.700226 0.213806 0.002716
0.725525 0.222076 0.004089
0.754181 0.230286 0.004791
0.778534 0.238586 0.005493
0.806396 0.246979 0.006866
0.829987 0.259277 0.007599
0.855560 0.267792 0.009003
0.880127 0.276398 0.009705
0.902832 0.285156 0.010437
0.929138 0.293793 0.011139
0.951416 0.302460 0.011841
0.977509 0.311188 0.012543
0.061157 0.038635 0.014984
0.079437 0.044739 0.015778
0.102997 0.053650 0.017334
0.124329 0.061371 0.018127
0.152802 0.068451 0.018921
0.179932 0.076538 0.018921
0.210693 0.097748 0.015808
0.239655 0.115173 0.011871
0.274200 0.127625 0.009155
0.307281 0.133392 0.008209
0.346039 0.137207 0.007568
0.384521 0.142548 0.006500
0.418610 0.153198 0.005676
0.455811 0.160553 0.004730
0.488312 0.168457 0.003632
0.523804 0.176819 0.002472
0.556030 0.185272 0.002533
0.588165 0.193939 0.001923
0.620972 0.202484 0.001953
0.648926 0.210846 0.002625
0.679993 0.219177 0.002625
0.706299 0.227509 0.003326
0.734314 0.235779 0.004028
0.760773 0.243896 0.005371
0.785217 0.256042 0.006073
0.813110 0.264435 0.006805
0.836578 0.272644 0.008179
0.863647 0.281128 0.008911
0.886505 0.289520 0.009613
0.908997 0.298065 0.010315
0.935150 0.306763 0.011047
0.957123 0.315369 0.011749
0.982910 0.323853 0.012451
0.080353 0.046173 0.015778
0.101074 0.054932 0.016541
0.119415 0.060760 0.018127
0.139435 0.066742 0.018921
0.166107 0.073944 0.020508
0.191681 0.082062 0.021271
0.223877 0.090881 0.021271
0.250610 0.113403 0.017609
0.282593 0.133484 0.014130
0.312317 0.151215 0.010712
0.346649 0.163208 0.008575
0.385406 0.166351 0.007629
0.419983 0.171356 0.007202
0.457672 0.177521 0.005981
0.490784 0.184784 0.005096
0.526917 0.192688 0.004089
0.562164 0.200867 0.003601
0.592590 0.209259 0.003082
0.625946 0.217743 0.003113
0.654449 0.226013 0.003174
0.685944 0.234283 0.003204
0.712585 0.242584 0.003906
0.742371 0.254242 0.004578
0.767456 0.262726 0.005951
0.795776 0.270874 0.006653
0.819885 0.278961 0.007355
0.843384 0.287140 0.008087
0.870300 0.295380 0.009430
0.892944 0.303772 0.010162
0.919250 0.312073 0.010864
0.941223 0.320496 0.010925
0.962982 0.328979 0.011627
0.988495 0.337372 0.012360
0.106018 0.056946 0.015778
0.121735 0.061371 0.016541
0.138580 0.066742 0.018127
0.161377 0.072327 0.019714
0.182648 0.079102 0.021271
0.210480 0.087280 0.022064
0.237274 0.096100 0.022858
0.270355 0.106171 0.022858
0.296692 0.129578 0.020111
0.327362 0.155945 0.015869
0.355804 0.172791 0.012238
0.389008 0.185822 0.009521
0.421112 0.192963 0.008087
0.459503 0.197418 0.007324
0.493225 0.203430 0.006775
0.530090 0.210510 0.005463
0.565979 0.218140 0.005096
0.597046 0.226166 0.004669
0.630981 0.234436 0.004181
0.659943 0.242645 0.004272
0.691864 0.254547 0.004333
0.718842 0.262848 0.005035
0.748901 0.270782 0.005737
0.774200 0.278717 0.006439
0.802734 0.286713 0.007141
0.826752 0.294647 0.007874
0.850189 0.302704 0.008575
0.877106 0.310760 0.009308
0.899597 0.318939 0.010010
0.925659 0.327087 0.010742
0.947418 0.335266 0.010773
0.969238 0.343506 0.011505
0.994202 0.355560 0.011536
0.129974 0.064392 0.014984
0.148376 0.067902 0.015778
0.164368 0.072327 0.017334
0.181976 0.077576 0.018921
0.203735 0.083984 0.021271
0.228149 0.091797 0.022858
0.253418 0.100647 0.024445
0.284973 0.111084 0.025238
0.314697 0.122009 0.026001
0.344238 0.147614 0.022614
0.369446 0.175171 0.018188
0.400391 0.193848 0.014343
0.428467 0.208588 0.011383
0.461029 0.220245 0.009033
0.496246 0.224854 0.008362
0.532745 0.230530 0.007477
0.569366 0.237457 0.006836
0.601135 0.244812 0.006012
0.635651 0.256592 0.005676
0.665192 0.264618 0.005249
0.697571 0.272522 0.005371
0.724976 0.280518 0.006073
0.755280 0.288269 0.006165
0.780853 0.296112 0.006866
0.809448 0.303802 0.007599
0.833557 0.311646 0.008301
0.860931 0.319397 0.009033
0.883759 0.327179 0.009766
0.906250 0.335114 0.009827
0.932098 0.343048 0.010559
0.953644 0.354919 0.011261
0.978821 0.362885 0.011322
0.999969 0.370789 0.011383
0.159851 0.071777 0.014191
0.173767 0.074463 0.014984
0.188477 0.078094 0.015778
0.208740 0.082550 0.018127
0.227112 0.088654 0.020508
0.248230 0.096100 0.022858
0.275848 0.105011 0.025238
0.302094 0.115448 0.027740
0.334229 0.126648 0.029327
0.364197 0.139038 0.029327
0.392975 0.168152 0.025116
0.416443 0.194794 0.021179
0.444611 0.215424 0.017059
0.472534 0.231781 0.013824
0.503967 0.244934 0.010773
0.534454 0.257263 0.009308
0.571991 0.262726 0.008606
0.604492 0.269226 0.008087
0.639801 0.276398 0.007416
0.669952 0.283936 0.007141
0.702820 0.291626 0.006805
0.731873 0.299347 0.006958
0.761322 0.306915 0.007111
0.787170 0.314423 0.007843
0.816010 0.322021 0.007965
0.840149 0.329529 0.008698
0.867554 0.337097 0.009430
0.890442 0.344635 0.009552
0.915710 0.356201 0.010254
0.938538 0.363800 0.010345
0.959869 0.371521 0.011078
0.984863 0.379242 0.011139
1.000000 0.386902 0.011200
0.187439 0.079102 0.012634
0.200928 0.081085 0.013428
0.218048 0.083527 0.014191
0.233185 0.087738 0.016541
0.250458 0.093109 0.018921
0.273956 0.100250 0.022064
0.296387 0.108856 0.026001
0.324738 0.119293 0.029327
0.351898 0.131104 0.034027
0.384338 0.143677 0.036255
0.414154 0.161438 0.036255
0.438293 0.186890 0.030670
0.463989 0.215363 0.024200
0.487885 0.237610 0.020416
0.517090 0.259491 0.016388
0.543335 0.273895 0.013550
0.574097 0.285889 0.010773
0.606842 0.291565 0.010071
0.642914 0.297791 0.009735
0.677094 0.304718 0.009216
0.707336 0.311859 0.008514
0.739655 0.319214 0.008270
0.766846 0.326630 0.008484
0.796906 0.333893 0.008698
0.822144 0.341156 0.008850
0.846466 0.351898 0.009003
0.874023 0.359619 0.009766
0.896881 0.366943 0.009918
0.923065 0.374298 0.010010
0.944794 0.381653 0.010742
0.966003 0.389008 0.010834
0.990753 0.396332 0.010925
1.000000 0.403687 0.011017
0.219696 0.086334 0.011047
0.231995 0.087738 0.011841
0.244690 0.089569 0.012634
0.258820 0.093109 0.014984
0.278839 0.098206 0.018127
0.297150 0.104645 0.021271
0.318756 0.113281 0.025238
0.345581 0.123352 0.030914
0.371124 0.135132 0.037048
0.402344 0.151215 0.039368
0.430878 0.166046 0.040985
0.464294 0.180908 0.041779
0.487701 0.206787 0.038483
0.511749 0.236694 0.031036
0.534058 0.264343 0.024445
0.561859 0.283600 0.020050
0.586761 0.299347 0.016449
0.612885 0.312256 0.013855
0.644775 0.321045 0.011871
0.680481 0.326874 0.011261
0.710907 0.333374 0.010895
0.743835 0.340210 0.010345
0.771606 0.349213 0.010162
0.802185 0.358032 0.009918
0.827728 0.365051 0.009613
0.853729 0.372101 0.009827
0.880035 0.379089 0.010040
0.903015 0.386108 0.010193
0.929260 0.393127 0.010345
0.950836 0.400177 0.010468
0.975220 0.407227 0.011200
0.996490 0.414215 0.011322
1.000000 0.421295 0.011414
0.248871 0.093933 0.010254
0.261810 0.094818 0.010254
0.276154 0.096100 0.011047
0.289062 0.099030 0.012604
0.304016 0.103455 0.015778
0.324982 0.109589 0.019714
0.345032 0.117859 0.024445
0.367188 0.127625 0.030914
0.395477 0.139313 0.037842
0.421509 0.156158 0.041779
0.452911 0.170532 0.044922
0.481354 0.185669 0.047150
0.514252 0.201569 0.047943
0.536987 0.227783 0.044647
0.557800 0.262756 0.038300
0.580048 0.287781 0.030975
0.602417 0.308228 0.024414
0.629822 0.324951 0.020447
0.654144 0.338684 0.016632
0.682861 0.353943 0.013794
0.713196 0.360077 0.013123
0.747009 0.366119 0.012451
0.775452 0.372589 0.011536
0.806610 0.379150 0.011444
0.832672 0.385864 0.010742
0.861542 0.392517 0.010498
0.885590 0.399231 0.010742
0.908752 0.405975 0.010406
0.935028 0.412659 0.010590
0.956665 0.419312 0.010742
0.981537 0.425995 0.010895
1.000000 0.432648 0.011047
1.000000 0.439362 0.011139
0.282166 0.102234 0.008667
0.292816 0.102234 0.008667
0.303741 0.103058 0.009460
0.315918 0.105408 0.011017
0.333771 0.109222 0.014191
0.349945 0.115082 0.018127
0.368591 0.123016 0.023651
0.393585 0.132660 0.030914
0.416687 0.143951 0.038635
0.444244 0.160675 0.044159
0.472076 0.174866 0.048676
0.503357 0.190277 0.052216
0.531403 0.206390 0.054260
0.563721 0.223358 0.054901
0.585785 0.252289 0.051697
0.602509 0.285645 0.045013
0.625488 0.311676 0.039001
0.646362 0.333069 0.031464
0.668365 0.354553 0.024628
0.695221 0.369080 0.020477
0.718811 0.380951 0.016937
0.748871 0.389465 0.014404
0.778198 0.395111 0.013916
0.810120 0.401062 0.013123
0.836792 0.407349 0.012146
0.866211 0.413605 0.012054
0.890594 0.420013 0.011322
0.917908 0.426361 0.011078
0.940399 0.432709 0.011322
0.962097 0.439056 0.011536
0.986908 0.445374 0.011719
1.000000 0.455566 0.011902
1.000000 0.461823 0.012054
0.311523 0.110718 0.007904
0.325439 0.110352 0.007111
0.335602 0.110718 0.007904
0.346771 0.112549 0.009460
0.359741 0.115784 0.012604
0.374908 0.121338 0.016541
0.396606 0.128571 0.022064
0.416504 0.138153 0.029327
0.438782 0.152893 0.038635
0.466766 0.165802 0.045685
0.492218 0.179779 0.052216
0.522552 0.194763 0.056915
0.549622 0.211060 0.061371
0.580963 0.228180 0.063202
0.608521 0.245850 0.063782
0.633789 0.276062 0.059998
0.648773 0.308899 0.052399
0.666199 0.335815 0.045044
0.689392 0.361877 0.038757
0.709961 0.380157 0.030243
0.733704 0.395294 0.023987
0.757935 0.407776 0.019714
0.780914 0.418060 0.016418
0.812561 0.424011 0.015259
0.839996 0.429596 0.014160
0.869995 0.435486 0.013306
0.894867 0.441376 0.012787
0.922577 0.447723 0.012115
0.945282 0.457306 0.011932
0.967041 0.463165 0.012177
0.991852 0.469086 0.011871
1.000000 0.475006 0.012085
1.000000 0.480927 0.012299
0.344788 0.119995 0.006317
0.354034 0.118958 0.005524
0.363373 0.118958 0.006317
0.373718 0.120331 0.007874
0.389771 0.123352 0.011017
0.404083 0.128265 0.014984
0.420898 0.135437 0.020508
0.440826 0.144257 0.026794
0.465363 0.158844 0.038635
0.488556 0.171265 0.046448
0.516998 0.184998 0.054260
0.542572 0.199951 0.061371
0.572632 0.216003 0.067322
0.599182 0.233032 0.071228
0.629639 0.254547 0.073944
0.656158 0.273132 0.073944
0.680603 0.299194 0.069702
0.693939 0.332550 0.060699
0.709717 0.364044 0.052185
0.727478 0.386749 0.044312
0.750549 0.405640 0.037811
0.770844 0.421326 0.028595
0.796021 0.434265 0.023071
0.818024 0.445007 0.019104
0.842133 0.456848 0.016510
0.872925 0.462036 0.015137
0.898438 0.467407 0.014374
0.926544 0.472931 0.013947
0.949554 0.478394 0.013367
0.974304 0.483978 0.013245
0.996338 0.489471 0.013031
1.000000 0.494873 0.013306
1.000000 0.500397 0.013000
0.373932 0.129547 0.005524
0.386292 0.128265 0.004730
0.394897 0.127930 0.004730
0.404541 0.128906 0.006287
0.415894 0.131439 0.009460
0.429474 0.136047 0.013397
0.449463 0.142548 0.018921
0.467896 0.155090 0.026001
0.488495 0.165558 0.037842
0.514801 0.177460 0.047150
0.538635 0.190918 0.056274
0.567230 0.205597 0.064972
0.592529 0.221375 0.072845
0.622009 0.238129 0.079102
0.647705 0.259705 0.083496
0.675812 0.278015 0.085419
0.702423 0.297058 0.084930
0.722137 0.322540 0.079987
0.737732 0.360107 0.069305
0.751984 0.388153 0.059296
0.768250 0.411438 0.050507
0.786102 0.430908 0.042603
0.809143 0.447052 0.035828
0.829315 0.464325 0.026489
0.850311 0.475555 0.021881
0.875916 0.484833 0.018158
0.901062 0.490387 0.016479
0.929749 0.495270 0.015869
0.953156 0.500305 0.015076
0.979218 0.505341 0.014587
1.000000 0.510345 0.014496
1.000000 0.515411 0.014343
1.000000 0.520538 0.014679
0.406525 0.139923 0.004730
0.414307 0.138458 0.003937
0.422272 0.137573 0.003937
0.431213 0.138153 0.005524
0.444733 0.140198 0.007874
0.458832 0.144531 0.011810
0.474274 0.154541 0.017334
0.492065 0.162750 0.024445
0.515869 0.172943 0.037048
0.537598 0.184540 0.047150
0.564636 0.197693 0.057587
0.588562 0.212036 0.067871
0.614227 0.227448 0.078094
0.641632 0.243896 0.086304
0.666382 0.265015 0.092224
0.694885 0.283020 0.098907
0.719269 0.301849 0.101410
0.747101 0.320953 0.098907
0.765930 0.346832 0.090637
0.776123 0.383728 0.078491
0.789673 0.412109 0.067230
0.807770 0.435852 0.056763
0.824402 0.459686 0.048065
0.842346 0.476257 0.040466
0.865326 0.490143 0.032990
0.885284 0.501678 0.025177
0.906036 0.511292 0.020813
0.932098 0.518524 0.018616
0.955994 0.522919 0.017731
0.982422 0.527405 0.017059
1.000000 0.531982 0.016693
1.000000 0.536621 0.016724
1.000000 0.541382 0.016144
0.434937 0.154816 0.003937
0.444916 0.152893 0.003174
0.453400 0.150726 0.003174
0.461823 0.151276 0.004730
0.472015 0.153748 0.007080
0.484406 0.157532 0.011017
0.503143 0.163513 0.016541
0.520325 0.171265 0.023651
0.539703 0.180939 0.036255
0.564758 0.192230 0.047150
0.587128 0.205200 0.058228
0.610321 0.219177 0.070129
0.637939 0.234222 0.082062
0.661835 0.253265 0.092224
0.689575 0.270966 0.104553
0.713226 0.288544 0.110840
0.740540 0.306763 0.114258
0.763519 0.325684 0.114624
0.786102 0.344940 0.112366
0.808044 0.373169 0.105438
0.816833 0.407135 0.087799
0.828339 0.435791 0.075012
0.841949 0.463867 0.063507
0.861237 0.484161 0.053680
0.878021 0.501160 0.045319
0.895966 0.515503 0.038239
0.918793 0.527405 0.030182
0.938416 0.537354 0.024445
0.958740 0.546112 0.021179
0.984833 0.554352 0.019928
1.000000 0.558411 0.019440
1.000000 0.562622 0.019196
1.000000 0.567017 0.018860
0.466675 0.166077 0.003937
0.473358 0.163788 0.002380
0.480225 0.162506 0.003143
0.488190 0.162262 0.003937
0.501678 0.163788 0.006287
0.513702 0.167328 0.009460
0.528046 0.172699 0.014984
0.544739 0.180237 0.022064
0.567474 0.189636 0.035461
0.588043 0.200562 0.046448
0.609772 0.213165 0.058868
0.636230 0.226929 0.071777
0.659149 0.241608 0.084930
0.686157 0.261078 0.100555
0.709137 0.277435 0.112000
0.734314 0.294434 0.120392
0.758240 0.312164 0.125916
0.780396 0.330536 0.128571
0.805939 0.353302 0.127930
0.827118 0.372650 0.124542
0.844330 0.396149 0.116882
0.852631 0.430237 0.100861
0.865906 0.462952 0.083405
0.878326 0.487518 0.070953
0.892426 0.508240 0.060150
0.908051 0.525696 0.051117
0.928711 0.540375 0.043701
0.946411 0.556610 0.037872
0.965027 0.566803 0.030975
0.988220 0.575439 0.025513
1.000000 0.581970 0.023285
1.000000 0.585754 0.022583
1.000000 0.589844 0.022064
0.494263 0.177704 0.003174
0.504150 0.175110 0.002380
0.510590 0.173462 0.002380
0.518066 0.172974 0.003143
0.527374 0.174377 0.005524
0.538818 0.177216 0.009460
0.552765 0.182312 0.014191
0.572937 0.189423 0.021271
0.591187 0.198517 0.034027
0.611237 0.209320 0.045685
0.636230 0.221741 0.058868
0.658173 0.235077 0.072845
0.684326 0.251984 0.087280
0.706635 0.268738 0.104950
0.728729 0.284576 0.117889
0.754517 0.301086 0.128571
0.776093 0.317993 0.136566
0.801270 0.335785 0.141449
0.822083 0.357880 0.143219
0.842377 0.376740 0.141449
0.865967 0.395844 0.136871
0.882263 0.418701 0.128357
0.888550 0.456665 0.111725
0.897552 0.485840 0.092560
0.908630 0.510773 0.079285
0.925415 0.531921 0.067627
0.939728 0.553772 0.058044
0.955261 0.568878 0.050385
0.975037 0.581573 0.044220
0.993286 0.592224 0.039124
1.000000 0.601257 0.034760
1.000000 0.609009 0.027802
1.000000 0.613831 0.026611
0.524841 0.189423 0.002380
0.530548 0.186584 0.002380
0.536530 0.184570 0.002380
0.543610 0.183899 0.003143
0.552490 0.184784 0.005524
0.567535 0.187439 0.008667
0.581024 0.192230 0.013397
0.596771 0.198944 0.020508
0.617462 0.207764 0.032501
0.638000 0.218231 0.045685
0.658569 0.230438 0.058868
0.683746 0.243561 0.073395
0.705261 0.261688 0.088654
0.726776 0.276581 0.107758
0.751953 0.292053 0.122498
0.773041 0.307922 0.135315
0.797668 0.324280 0.145569
0.818054 0.341248 0.152893
0.838013 0.362671 0.157227
0.861389 0.380737 0.157776
0.880249 0.399445 0.155090
0.898468 0.418488 0.149567
0.917511 0.440521 0.140472
0.922791 0.478729 0.122772
0.930389 0.508240 0.106842
0.940216 0.533630 0.088928
0.951813 0.559204 0.076874
0.964813 0.577698 0.067108
0.983124 0.593323 0.058899
0.998627 0.606567 0.052124
1.000000 0.617798 0.046722
1.000000 0.627502 0.041962
1.000000 0.636078 0.037811
0.551025 0.201202 0.002380
0.559570 0.198334 0.002380
0.565735 0.196045 0.002380
0.572479 0.195007 0.003143
0.581024 0.195618 0.004730
0.591736 0.197906 0.008667
0.604767 0.202209 0.013397
0.623962 0.208557 0.020508
0.641266 0.216949 0.030914
0.660156 0.227295 0.044922
0.684082 0.239136 0.058228
0.704712 0.256134 0.073395
0.725525 0.270081 0.089081
0.750305 0.284576 0.109711
0.770782 0.299652 0.125580
0.793762 0.315094 0.140228
0.814789 0.330780 0.152893
0.834351 0.348969 0.164734
0.855927 0.367615 0.173187
0.875977 0.384918 0.176636
0.894104 0.402832 0.176147
0.913025 0.421326 0.172699
0.931885 0.440430 0.164734
0.945923 0.465790 0.153564
0.949829 0.500366 0.135223
0.956268 0.530396 0.118958
0.964783 0.560333 0.104614
0.979004 0.582611 0.088257
0.990936 0.601715 0.078033
1.000000 0.618042 0.069366
1.000000 0.632019 0.062073
1.000000 0.644165 0.055786
1.000000 0.658813 0.050171
0.580322 0.213013 0.002380
0.585114 0.209930 0.002380
0.590302 0.207397 0.002380
0.596710 0.206024 0.003143
0.604828 0.206207 0.004730
0.618561 0.208191 0.007874
0.631683 0.212036 0.012604
0.646515 0.218048 0.019714
0.663208 0.226227 0.029327
0.685425 0.236267 0.044159
0.704865 0.248505 0.057587
0.724823 0.264587 0.072327
0.748901 0.278168 0.089081
0.768890 0.292572 0.110077
0.789124 0.307190 0.127258
0.812042 0.322144 0.143219
0.831085 0.337341 0.158020
0.849854 0.356720 0.174194
0.872009 0.372650 0.183472
0.889923 0.389099 0.189392
0.907074 0.406158 0.191803
0.927582 0.424042 0.190948
0.943268 0.442627 0.187378
0.957977 0.465698 0.181152
0.972595 0.486786 0.172546
0.977234 0.521912 0.149933
0.982452 0.556610 0.133545
0.989777 0.583313 0.118866
0.999054 0.606354 0.106323
1.000000 0.626343 0.091553
1.000000 0.643585 0.082184
1.000000 0.662567 0.073914
1.000000 0.675934 0.066650
0.604980 0.225189 0.002380
0.609344 0.221741 0.002380
0.616608 0.218811 0.002380
0.624176 0.217163 0.003143
0.631927 0.216949 0.005524
0.641693 0.218445 0.007874
0.653809 0.222107 0.012604
0.667999 0.227661 0.019714
0.688110 0.235260 0.029327
0.705811 0.245026 0.043365
0.724518 0.260162 0.056274
0.747681 0.272705 0.071228
0.767090 0.286102 0.088196
0.786438 0.300049 0.109314
0.809448 0.314331 0.127258
0.828064 0.328949 0.144684
0.846344 0.343658 0.160675
0.868134 0.362366 0.179016
0.885681 0.377625 0.190918
0.902679 0.393250 0.199738
0.923065 0.409546 0.205109
0.938782 0.426575 0.207336
0.953613 0.444550 0.206329
0.967407 0.467316 0.202881
0.984039 0.486969 0.197632
0.994995 0.507904 0.190430
0.996704 0.543793 0.171783
1.000000 0.579254 0.151245
1.000000 0.606842 0.136627
1.000000 0.630981 0.123474
1.000000 0.655945 0.112000
1.000000 0.674408 0.101166
1.000000 0.690887 0.088348
0.632935 0.237457 0.003143
0.636871 0.233734 0.002380
0.641327 0.230652 0.003143
0.647003 0.228546 0.003937
0.654297 0.227844 0.005524
0.663696 0.229065 0.008667
0.679108 0.232025 0.012604
0.692780 0.237122 0.018921
0.708282 0.244385 0.027740
0.725189 0.257538 0.041779
0.747040 0.268311 0.054901
0.765594 0.280426 0.069580
0.784180 0.293518 0.086304
0.806671 0.307190 0.107758
0.824921 0.321106 0.125916
0.842804 0.335236 0.143799
0.864197 0.353302 0.162109
0.881348 0.367706 0.181366
0.898010 0.382324 0.195496
0.918152 0.397156 0.206940
0.933807 0.412659 0.215576
0.948761 0.429016 0.220886
0.962799 0.446289 0.223480
0.979645 0.468597 0.223297
0.991425 0.487946 0.220886
1.000000 0.508362 0.216919
1.000000 0.529541 0.211609
1.000000 0.570282 0.193604
1.000000 0.602844 0.177094
1.000000 0.631622 0.158020
1.000000 0.660828 0.144409
1.000000 0.683167 0.131958
1.000000 0.703217 0.120605
0.656677 0.253937 0.003174
0.660217 0.246338 0.003174
0.664246 0.242767 0.003143
0.669495 0.240295 0.003937
0.680267 0.239136 0.005524
0.689026 0.239807 0.008667
0.699982 0.242279 0.012604
0.712860 0.247009 0.018921
0.727539 0.257568 0.026794
0.747650 0.266205 0.040985
0.764740 0.276459 0.053589
0.782318 0.287994 0.067871
0.804047 0.300568 0.083984
0.821716 0.313751 0.104950
0.839111 0.327240 0.123199
0.860107 0.340942 0.141449
0.876770 0.358612 0.159607
0.893066 0.372467 0.180878
0.908997 0.386444 0.196991
0.928375 0.400726 0.210907
0.943268 0.415619 0.222351
0.957336 0.431183 0.235229
0.972534 0.448578 0.241394
