design/ux_analyses/Resolume/Resolume Arena/luts/Quoria.cube
# Copyright: (C) Copyright 2010-2018 by IWLTBAP SAS
# Cannot be resold, shared or otherwise redistributed
# Website: https://luts.iwltbap.com
TITLE "IWLTBAP Quoria (Rec.709, sRGB, DCI-P3)"
LUT_3D_SIZE 5
0.000000 0.000793 0.000000
0.281250 0.055511 0.000702
0.540649 0.121185 0.000000
0.753998 0.191559 0.004944
0.952972 0.264160 0.014160
0.129974 0.064392 0.014984
0.314697 0.122009 0.026001
0.569366 0.237457 0.006836
0.809448 0.303802 0.007599
0.999969 0.370789 0.011383
0.373932 0.129547 0.005524
0.488495 0.165558 0.037842
0.702423 0.297058 0.084930
0.850311 0.475555 0.021881
1.000000 0.520538 0.014679
0.604980 0.225189 0.002380
0.688110 0.235260 0.029327
0.846344 0.343658 0.160675
0.984039 0.486969 0.197632
1.000000 0.690887 0.088348
0.817474 0.355347 0.011841
0.849396 0.324799 0.026001
0.933075 0.378418 0.115723
1.000000 0.488708 0.320831
1.000000 0.702881 0.571350
0.000000 0.084473 0.253357
0.275116 0.135712 0.285706
0.609344 0.134216 0.162109
0.779663 0.182129 0.143768
0.958954 0.238007 0.144714
0.000000 0.179993 0.337555
0.150909 0.218231 0.296967
0.561249 0.268951 0.196533
0.813446 0.308319 0.147247
0.999603 0.362793 0.130219
0.056549 0.317627 0.397003
0.282196 0.294830 0.259705
0.635651 0.374817 0.229980
0.842072 0.495209 0.213531
1.000000 0.523804 0.164978
0.335052 0.435699 0.333038
0.626129 0.339142 0.128906
0.816467 0.398163 0.207123
0.969910 0.541565 0.299896
1.000000 0.717529 0.269440
0.649353 0.526276 0.283295
0.849731 0.405457 0.072327
0.919037 0.420563 0.141144
1.000000 0.529602 0.358612
1.000000 0.733093 0.627258
0.000000 0.158569 0.414795
0.092712 0.244049 0.570282
0.595367 0.220642 0.427490
0.825134 0.196228 0.341125
0.961639 0.232513 0.323792
0.000000 0.271088 0.477814
0.018188 0.292175 0.522522
0.420410 0.358490 0.504913
0.819824 0.330902 0.368439
0.979095 0.368195 0.316162
0.000000 0.388519 0.544495
0.022125 0.417511 0.548981
0.368896 0.499664 0.540192
0.829498 0.536072 0.455841
1.000000 0.549957 0.375366
0.010315 0.529083 0.624390
0.221344 0.524597 0.513245
0.602112 0.542114 0.445099
0.924103 0.652252 0.512054
1.000000 0.757477 0.502289
0.102631 0.665192 0.724792
0.596832 0.567566 0.374847
0.872589 0.513397 0.245117
0.986603 0.602997 0.443359
1.000000 0.777954 0.694183
0.000000 0.219543 0.503998
0.000061 0.300812 0.686279
0.288940 0.359741 0.724365
0.777374 0.292450 0.583466
0.935333 0.296783 0.548798
0.000000 0.356903 0.572632
0.000000 0.333527 0.610474
0.139160 0.428223 0.735321
0.714966 0.410309 0.670135
0.948822 0.399414 0.557251
0.000000 0.458954 0.632935
0.002411 0.470428 0.655365
0.129974 0.541351 0.732056
0.697327 0.592468 0.755066
0.967255 0.561707 0.609375
0.027008 0.568268 0.703979
0.049103 0.592438 0.723969
0.208344 0.649994 0.746857
0.743866 0.764832 0.793884
1.000000 0.784210 0.731018
0.077576 0.659882 0.776184
0.135376 0.676086 0.755768
0.396515 0.679321 0.659576
0.818298 0.727142 0.649139
1.000000 0.859985 0.807434
0.000000 0.299103 0.572327
0.000000 0.331329 0.743011
0.100708 0.428406 0.868896
0.592133 0.381989 0.806519
0.899780 0.390045 0.775208
0.000000 0.425720 0.641205
0.000000 0.372345 0.665863
0.031555 0.438812 0.798950
0.457794 0.485352 0.880432
0.926117 0.487152 0.826599
0.014221 0.512726 0.702454
0.004761 0.488770 0.697418
0.039337 0.514709 0.759003
0.436432 0.602020 0.913544
0.949615 0.613373 0.883240
0.062836 0.595734 0.760559
0.066101 0.594055 0.771515
0.100708 0.614502 0.798676
0.437683 0.724792 0.911041
0.980316 0.822144 0.959625
0.122070 0.681458 0.828186
0.133026 0.690826 0.843170
0.150116 0.701538 0.856567
0.257904 0.764771 0.898010
1.000000 1.000000 1.000000
