design/ux_analyses/Resolume/Resolume Arena/luts/Wakino.cube
# Copyright: (C) Copyright 2010-2018 by IWLTBAP SAS
# Cannot be resold, shared or otherwise redistributed
# Website: https://luts.iwltbap.com
TITLE "IWLTBAP Wakino (Rec.709, sRGB, DCI-P3)"
LUT_3D_SIZE 5
0.000000 0.000000 0.000000
0.206573 0.000000 0.000000
0.484741 0.000000 0.000000
0.754669 0.012634 0.000000
1.000000 0.050690 0.000000
0.146881 0.000000 0.056366
0.211548 0.062164 0.089294
0.464966 0.208466 0.013367
0.748810 0.245514 0.003326
1.000000 0.280548 0.014069
0.375641 0.000000 0.141815
0.399628 0.000000 0.188354
0.527679 0.143097 0.277802
0.778778 0.417755 0.087219
1.000000 0.492645 0.075562
0.618317 0.018982 0.276550
0.664337 0.000000 0.317841
0.726410 0.086884 0.418274
0.872986 0.198578 0.501953
1.000000 0.651062 0.183838
0.826721 0.130615 0.414062
0.836029 0.190582 0.474915
0.914642 0.254639 0.579681
0.956177 0.339966 0.650208
1.000000 0.460480 0.736115
0.000000 0.036499 0.130585
0.142853 0.029999 0.173309
0.479279 0.000000 0.197174
0.762543 0.008850 0.181061
0.995270 0.060852 0.224579
0.029480 0.137360 0.224762
0.118469 0.177643 0.237701
0.494202 0.231812 0.209656
0.765015 0.253632 0.218719
1.000000 0.289917 0.255157
0.161163 0.270386 0.348572
0.390869 0.207764 0.260651
0.569733 0.232422 0.369324
0.789062 0.480469 0.276550
1.000000 0.521423 0.281830
0.615143 0.233673 0.311584
0.660370 0.183838 0.365143
0.754211 0.239380 0.480560
0.847412 0.407837 0.583191
1.000000 0.705383 0.357849
0.819672 0.342651 0.442566
0.861969 0.332611 0.521271
0.906708 0.410919 0.639984
0.950439 0.446777 0.693207
1.000000 0.576172 0.784180
0.059509 0.093536 0.332306
0.114380 0.038788 0.372864
0.369171 0.075592 0.358307
0.688507 0.144775 0.388489
0.999451 0.081757 0.485229
0.096832 0.214691 0.347687
0.131287 0.187531 0.400818
0.415222 0.240723 0.445526
0.723267 0.315674 0.436554
1.000000 0.301239 0.489777
0.165894 0.344879 0.508942
0.214783 0.384827 0.539551
0.445831 0.480896 0.528137
0.773041 0.545166 0.515259
1.000000 0.542603 0.522339
0.316071 0.498322 0.647736
0.459564 0.537018 0.569611
0.690491 0.559723 0.588806
0.838562 0.593079 0.683868
1.000000 0.774780 0.555939
0.561218 0.666412 0.675354
0.745667 0.676178 0.612579
0.933716 0.570374 0.695374
0.966553 0.633179 0.776794
1.000000 0.733917 0.850800
0.142853 0.160217 0.572083
0.183136 0.039307 0.607269
0.486206 0.132172 0.649536
0.760895 0.255341 0.638428
0.913849 0.318085 0.689850
0.191833 0.322998 0.537506
0.227661 0.295929 0.589874
0.503204 0.297516 0.696014
0.759125 0.386108 0.656342
0.920441 0.452942 0.708130
0.217987 0.438934 0.654144
0.282959 0.487610 0.691895
0.508179 0.540314 0.701294
0.798065 0.588165 0.720245
0.966675 0.636536 0.736969
0.333710 0.573242 0.799133
0.423279 0.622223 0.812561
0.582458 0.713409 0.846802
0.806274 0.801086 0.798798
0.996246 0.850220 0.815613
0.485199 0.721283 0.930206
0.566559 0.765320 0.938324
0.694641 0.829803 0.927826
0.927094 0.867157 0.864014
1.000000 0.897583 0.936127
0.252930 0.300659 0.760101
0.424255 0.176849 0.879333
0.620636 0.246552 0.892090
0.814911 0.298126 0.877258
0.976685 0.377075 0.923553
0.309326 0.465088 0.741669
0.389587 0.417908 0.800110
0.613525 0.358887 0.906616
0.830536 0.392609 0.925995
0.990784 0.569092 0.920990
0.323059 0.572571 0.820068
0.415314 0.618134 0.842438
0.596985 0.628662 0.863495
0.845703 0.607910 0.932892
1.000000 0.725250 0.933624
0.409882 0.678497 0.943726
0.482513 0.719269 0.960480
0.614563 0.789673 0.982269
0.798492 0.846039 0.934357
1.000000 0.877472 0.985138
0.536774 0.789795 1.000000
0.609680 0.820343 1.000000
0.696747 0.861267 1.000000
0.822876 0.915985 1.000000
1.000000 0.998505 0.997833
