design/ux_analyses/Resolume/Resolume Arena/luts/Wakino.cube
# Copyright: (C) Copyright 2010-2018 by IWLTBAP SAS
# Cannot be resold, shared or otherwise redistributed
# Website: https://luts.iwltbap.com
TITLE "IWLTBAP Wakino (Rec.709, sRGB, DCI-P3)"
LUT_3D_SIZE 9
0.000000 0.000000 0.000000
0.078857 0.000000 0.000000
0.206573 0.000000 0.000000
0.341095 0.000000 0.000000
0.484741 0.000000 0.000000
0.626221 0.004120 0.000000
0.754669 0.012634 0.000000
0.874176 0.029999 0.000000
1.000000 0.050690 0.000000
0.057098 0.000000 0.028351
0.091583 0.032410 0.024200
0.206390 0.086884 0.000000
0.333588 0.097198 0.000000
0.472321 0.104279 0.000000
0.619843 0.114685 0.000000
0.756622 0.131653 0.000000
0.879669 0.143555 0.000000
1.000000 0.159332 0.000153
0.146881 0.000000 0.056366
0.161774 0.000000 0.071686
0.211548 0.062164 0.089294
0.340790 0.184021 0.022919
0.464966 0.208466 0.013367
0.603943 0.231812 0.003326
0.748810 0.245514 0.003326
0.884247 0.259094 0.003326
1.000000 0.280548 0.014069
0.252075 0.000000 0.086884
0.266418 0.000000 0.110077
0.290619 0.009613 0.146545
0.359100 0.101440 0.182281
0.488708 0.283386 0.060852
0.620361 0.324432 0.040955
0.756195 0.349426 0.024811
0.891388 0.370270 0.021606
1.000000 0.396301 0.035370
0.375641 0.000000 0.141815
0.381378 0.000000 0.158020
0.399628 0.000000 0.188354
0.438049 0.065979 0.261078
0.527679 0.143097 0.277802
0.648468 0.378021 0.106140
0.778778 0.417755 0.087219
0.908173 0.440186 0.086487
1.000000 0.492645 0.075562
0.510101 0.000000 0.206451
0.514282 0.000000 0.222382
0.533905 0.000000 0.246674
0.553314 0.048218 0.309204
0.603394 0.108582 0.375275
0.702087 0.159790 0.379730
0.805634 0.430511 0.173737
0.923920 0.510101 0.142792
1.000000 0.574463 0.127991
0.618317 0.018982 0.276550
0.625458 0.012634 0.293518
0.664337 0.000000 0.317841
0.698822 0.004883 0.345673
0.726410 0.086884 0.418274
0.786285 0.132721 0.485229
0.872986 0.198578 0.501953
0.929962 0.534393 0.256287
1.000000 0.651062 0.183838
0.723511 0.045715 0.335846
0.727905 0.073517 0.360107
0.754425 0.091492 0.397705
0.819763 0.079865 0.437103
0.854736 0.136078 0.493744
0.877838 0.191895 0.551727
0.902863 0.264893 0.602997
0.943604 0.360687 0.609436
1.000000 0.631439 0.344666
0.826721 0.130615 0.414062
0.827820 0.153473 0.442017
0.836029 0.190582 0.474915
0.871033 0.222687 0.528259
0.914642 0.254639 0.579681
0.933044 0.297668 0.614471
0.956177 0.339966 0.650208
0.993774 0.379425 0.694489
1.000000 0.460480 0.736115
0.000000 0.004120 0.060394
0.064178 0.004120 0.071686
0.204224 0.000000 0.081543
0.342621 0.000000 0.086487
0.490570 0.000000 0.086884
0.634033 0.002533 0.083344
0.759003 0.011139 0.080444
0.874298 0.027496 0.081177
0.999512 0.054535 0.102386
0.010376 0.055908 0.091309
0.058319 0.066406 0.094452
0.205383 0.092834 0.086151
0.342316 0.095215 0.084778
0.484528 0.097870 0.085114
0.628632 0.108856 0.086151
0.762695 0.127930 0.086487
0.884735 0.141327 0.088593
1.000000 0.162689 0.110077
0.072998 0.092834 0.126129
0.128326 0.074310 0.118744
0.206909 0.106750 0.129028
0.347382 0.201263 0.106445
0.481934 0.221008 0.096405
0.622803 0.231323 0.097015
0.762573 0.244751 0.097687
0.894226 0.262939 0.105499
1.000000 0.283997 0.134430
0.177124 0.125153 0.148865
0.264557 0.054047 0.136932
0.310669 0.042572 0.166809
0.369263 0.133728 0.211304
0.503021 0.305145 0.141327
0.637817 0.342865 0.123993
0.772003 0.364655 0.115906
0.900970 0.382812 0.124786
1.000000 0.401215 0.155609
0.327087 0.149017 0.176971
0.399811 0.051178 0.184967
0.440552 0.013367 0.211975
0.473602 0.079865 0.274506
0.555603 0.176208 0.321075
0.666229 0.394196 0.197723
0.794281 0.436279 0.182281
0.906982 0.477692 0.172882
1.000000 0.513641 0.172058
0.502686 0.124634 0.220642
0.521423 0.062164 0.243774
0.547424 0.033600 0.267365
0.589142 0.048737 0.313782
0.651184 0.129791 0.402100
0.751404 0.192657 0.435638
0.816895 0.463013 0.263092
0.912140 0.555298 0.223663
1.000000 0.606934 0.205414
0.626221 0.084717 0.291382
0.630829 0.081757 0.313782
0.650543 0.093201 0.340454
0.698303 0.085083 0.375702
0.758209 0.128723 0.450592
0.814667 0.183258 0.527283
0.861023 0.285522 0.536316
0.919037 0.579132 0.329224
1.000000 0.674866 0.267487
0.731750 0.101440 0.350281
0.736237 0.130341 0.379822
0.754364 0.176636 0.417450
0.786804 0.200012 0.465729
0.839844 0.224457 0.521149
0.870178 0.270660 0.578918
0.888947 0.335083 0.620087
0.931213 0.415955 0.632080
1.000000 0.667999 0.415039
0.831665 0.194519 0.426941
0.838928 0.212677 0.459259
0.853394 0.251862 0.497559
0.878204 0.287170 0.553162
0.909332 0.328461 0.604675
0.928772 0.364258 0.640472
0.949646 0.390015 0.668762
0.986145 0.430511 0.715118
1.000000 0.514496 0.755402
0.000000 0.036499 0.130585
0.041138 0.020996 0.163452
0.142853 0.029999 0.173309
0.292816 0.013367 0.169220
0.479279 0.000000 0.197174
0.634644 0.001770 0.189667
0.762543 0.008850 0.181061
0.876129 0.031830 0.191162
0.995270 0.060852 0.224579
0.005920 0.093201 0.171692
0.036926 0.094879 0.182281
0.133484 0.100464 0.189880
0.310425 0.104584 0.176971
0.489349 0.100159 0.195374
0.639343 0.110077 0.192627
0.767517 0.132446 0.192993
0.886200 0.150238 0.203827
0.996307 0.173126 0.236206
0.029480 0.137360 0.224762
0.047577 0.150726 0.241852
0.118469 0.177643 0.237701
0.322052 0.214691 0.201599
0.494202 0.231812 0.209656
0.634521 0.237091 0.212830
0.765015 0.253632 0.218719
0.891449 0.274811 0.232239
1.000000 0.289917 0.255157
0.068329 0.190765 0.290649
0.111694 0.201630 0.278564
0.180145 0.204620 0.260529
0.331299 0.229279 0.262817
0.509369 0.338440 0.239929
0.647064 0.366791 0.236206
0.773102 0.379761 0.239777
0.897003 0.393921 0.255310
1.000000 0.409698 0.271271
0.161163 0.270386 0.348572
0.274384 0.254608 0.274750
0.390869 0.207764 0.260651
0.454071 0.196350 0.311127
0.569733 0.232422 0.369324
0.671844 0.426331 0.295502
0.789062 0.480469 0.276550
0.901459 0.511139 0.272064
1.000000 0.521423 0.281830
0.380310 0.320618 0.301178
0.501129 0.227173 0.273865
0.557526 0.170807 0.305603
0.598541 0.177643 0.355225
0.679047 0.197449 0.436951
0.759613 0.280670 0.492554
0.801971 0.531982 0.349976
0.907043 0.603516 0.312775
1.000000 0.629456 0.303894
0.615143 0.233673 0.311584
0.644379 0.173950 0.333344
0.660370 0.183838 0.365143
0.685150 0.233368 0.411255
0.754211 0.239380 0.480560
0.815277 0.305847 0.571350
0.847412 0.407837 0.583191
0.916901 0.626190 0.411102
1.000000 0.705383 0.357849
0.730927 0.231506 0.371399
0.747345 0.227173 0.399139
0.763336 0.256012 0.440247
0.781769 0.300507 0.487823
0.817078 0.334656 0.550079
0.861206 0.374237 0.612000
0.888458 0.415375 0.655518
0.930756 0.478271 0.666443
1.000000 0.709412 0.489777
0.819672 0.342651 0.442566
0.838043 0.325439 0.476166
0.861969 0.332611 0.521271
0.888336 0.362610 0.583344
0.906708 0.410919 0.639984
0.929138 0.431305 0.666351
0.950439 0.446777 0.693207
0.982605 0.492584 0.738922
1.000000 0.576172 0.784180
0.024170 0.078339 0.219177
0.044708 0.047729 0.249390
0.127838 0.049225 0.267487
0.248474 0.057281 0.260376
0.376862 0.053558 0.246246
0.588226 0.029999 0.290649
0.752106 0.026245 0.316376
0.871948 0.045166 0.331146
0.994751 0.066986 0.353363
0.045593 0.136597 0.242737
0.057495 0.117554 0.253357
0.096222 0.087616 0.290527
0.214935 0.105499 0.299286
0.392792 0.124634 0.253906
0.603271 0.132721 0.293976
0.762329 0.143066 0.326904
0.883392 0.160431 0.341156
0.996948 0.179871 0.357178
0.051849 0.174347 0.282196
0.066071 0.181458 0.292206
0.109222 0.184814 0.313782
0.252655 0.222992 0.323059
0.453979 0.253479 0.302612
0.626801 0.250580 0.323914
0.765930 0.266876 0.348572
0.891998 0.285645 0.361176
1.000000 0.297272 0.373596
0.076141 0.222656 0.346375
0.095306 0.236176 0.359161
0.119995 0.255463 0.381073
0.234100 0.301117 0.378540
0.473541 0.362701 0.349457
0.641296 0.386292 0.359619
0.771820 0.390259 0.373138
0.896393 0.405731 0.382080
1.000000 0.416199 0.386871
0.139160 0.297150 0.435699
0.177490 0.320740 0.439209
0.241333 0.344879 0.427551
0.312347 0.375092 0.427429
0.502686 0.389557 0.422577
0.657013 0.483765 0.400482
0.782684 0.515503 0.387665
0.902496 0.522217 0.391876
1.000000 0.530609 0.399384
0.248474 0.390442 0.497803
0.340485 0.389557 0.421417
0.465881 0.374817 0.373138
0.520142 0.413635 0.408386
0.613312 0.389374 0.474945
0.721069 0.433899 0.538727
0.796265 0.586487 0.442017
0.909210 0.630615 0.413330
1.000000 0.651459 0.413055
0.444366 0.439453 0.426300
0.574829 0.376312 0.378815
0.646332 0.361511 0.390656
0.673004 0.412964 0.444580
0.727783 0.397461 0.530090
0.786896 0.446533 0.607574
0.845154 0.499481 0.635345
0.921265 0.671448 0.505096
1.000000 0.746246 0.455048
0.637756 0.463226 0.412415
0.710724 0.423584 0.415192
0.749023 0.421387 0.452515
0.778656 0.433167 0.510162
0.818054 0.434448 0.589661
0.859039 0.473236 0.648865
0.897461 0.504578 0.693634
0.940643 0.565643 0.718933
1.000000 0.764099 0.573578
0.762024 0.537201 0.458984
0.805756 0.509308 0.482422
0.850006 0.485443 0.534210
0.897186 0.455566 0.606049
0.919525 0.479828 0.670990
0.933319 0.518982 0.706207
0.960510 0.535400 0.734985
0.993256 0.577698 0.778839
1.000000 0.652771 0.814331
0.059509 0.093536 0.332306
0.068298 0.038208 0.353363
0.114380 0.038788 0.372864
0.216553 0.056366 0.383148
0.369171 0.075592 0.358307
0.534149 0.117004 0.347687
0.688507 0.144775 0.388489
0.866364 0.077148 0.466217
0.999451 0.081757 0.485229
0.079865 0.175812 0.314667
0.080872 0.125153 0.353363
0.112244 0.070221 0.404297
0.188904 0.083252 0.420593
0.347687 0.128723 0.402344
0.542603 0.191162 0.361725
0.695557 0.223145 0.402100
0.871704 0.182465 0.468628
1.000000 0.188110 0.482819
0.096832 0.214691 0.347687
0.106720 0.213715 0.358032
0.131287 0.187531 0.400818
0.227509 0.177429 0.458588
0.415222 0.240723 0.445526
0.589050 0.289917 0.403625
0.723267 0.315674 0.436554
0.889801 0.296295 0.481232
1.000000 0.301239 0.489777
0.106720 0.272003 0.418030
0.124146 0.285034 0.435333
0.145111 0.295471 0.448456
0.238098 0.324768 0.463531
0.450012 0.382263 0.474945
0.628204 0.425079 0.470428
0.756958 0.423584 0.479279
0.897980 0.414062 0.497375
1.000000 0.424805 0.507050
0.165894 0.344879 0.508942
0.188538 0.364471 0.519806
0.214783 0.384827 0.539551
0.281708 0.424408 0.559998
0.445831 0.480896 0.528137
0.652771 0.531921 0.508667
0.773041 0.545166 0.515259
0.903412 0.531830 0.514374
1.000000 0.542603 0.522339
0.237823 0.425842 0.588043
0.268524 0.439240 0.588715
0.320526 0.466400 0.587708
0.403381 0.511353 0.593719
0.521088 0.537079 0.566284
0.691101 0.559692 0.583282
0.794220 0.624603 0.568298
0.908173 0.657227 0.531860
1.000000 0.665497 0.535461
0.316071 0.498322 0.647736
0.376404 0.513763 0.611633
0.459564 0.537018 0.569611
0.545685 0.579498 0.569672
0.690491 0.559723 0.588806
0.774506 0.563446 0.648468
0.838562 0.593079 0.683868
0.920746 0.719177 0.597900
1.000000 0.774780 0.555939
0.424591 0.579193 0.677094
0.512054 0.593201 0.604828
0.611664 0.610748 0.566284
0.701538 0.621033 0.580841
0.833679 0.556732 0.642365
0.870544 0.578552 0.696838
0.901855 0.612488 0.737976
0.943329 0.661407 0.771362
1.000000 0.814697 0.657410
0.561218 0.666412 0.675354
0.652527 0.673676 0.623810
0.745667 0.676178 0.612579
0.857117 0.634705 0.632874
0.933716 0.570374 0.695374
0.944000 0.609467 0.747650
0.966553 0.633179 0.776794
0.998871 0.675873 0.816284
1.000000 0.733917 0.850800
0.099518 0.120422 0.453125
0.100403 0.033051 0.479797
0.137054 0.028137 0.482422
0.229248 0.043091 0.511200
0.409180 0.081757 0.508820
0.585541 0.146210 0.482880
0.710968 0.210724 0.503937
0.805817 0.252045 0.549561
0.959534 0.176636 0.603790
0.115967 0.211365 0.402618
0.115173 0.143311 0.469604
0.144196 0.079468 0.520752
0.227509 0.087250 0.531982
0.379456 0.137360 0.536743
0.579834 0.212677 0.504333
0.704346 0.280426 0.519928
0.804871 0.320190 0.559692
0.960876 0.262695 0.602844
0.141693 0.266998 0.438232
0.145325 0.254883 0.448853
0.170715 0.230072 0.499725
0.271667 0.202148 0.569000
0.436890 0.250732 0.584808
0.614532 0.317261 0.545258
0.721436 0.362396 0.548035
0.818787 0.388733 0.573547
0.970367 0.357483 0.601166
0.153961 0.328369 0.503723
0.168304 0.339630 0.516144
0.199249 0.350220 0.530518
0.284180 0.364929 0.547089
0.455841 0.382172 0.601746
0.652618 0.430664 0.585846
0.750824 0.453369 0.578918
0.847351 0.472595 0.588654
0.995636 0.471497 0.617645
0.185608 0.390900 0.582397
0.207245 0.409241 0.595062
0.239716 0.432251 0.616821
0.313324 0.471344 0.637573
0.467896 0.518738 0.616211
0.676910 0.562134 0.610748
0.782349 0.580963 0.615692
0.875763 0.578552 0.622986
1.000000 0.580536 0.645233
0.242462 0.458313 0.653961
0.269196 0.473755 0.663208
0.313446 0.505859 0.681030
0.389832 0.546967 0.696320
0.508240 0.603180 0.696808
0.689484 0.659332 0.656342
0.797363 0.684967 0.655853
0.888031 0.708252 0.668488
1.000000 0.696930 0.669586
0.309448 0.528503 0.726074
0.346497 0.549713 0.730743
0.403961 0.579529 0.738220
0.481293 0.622375 0.744843
0.612122 0.670685 0.723358
0.766022 0.677307 0.701599
0.831116 0.703674 0.733948
0.899750 0.758575 0.738098
1.000000 0.806274 0.693329
0.399933 0.612854 0.796906
0.444580 0.631226 0.792664
0.507080 0.660767 0.783875
0.585388 0.702271 0.774384
0.737030 0.723175 0.725189
0.872284 0.690796 0.745087
0.902588 0.712616 0.781708
0.943024 0.746582 0.815186
1.000000 0.853363 0.757385
0.489288 0.695709 0.858643
0.540680 0.714264 0.839844
0.608765 0.745300 0.814819
0.693298 0.774231 0.789581
0.848022 0.754608 0.753021
0.954315 0.709106 0.787018
0.975098 0.728119 0.819153
1.000000 0.770996 0.853210
1.000000 0.818359 0.890472
0.142853 0.160217 0.572083
0.141266 0.054047 0.609344
0.183136 0.039307 0.607269
0.288696 0.065155 0.631775
0.486206 0.132172 0.649536
0.661041 0.202698 0.627686
0.760895 0.255341 0.638428
0.838226 0.290070 0.657837
0.913849 0.318085 0.689850
0.161377 0.261292 0.506989
0.163025 0.196167 0.576630
0.200806 0.128204 0.637421
0.303314 0.140625 0.652191
0.477264 0.200012 0.668182
0.655884 0.271454 0.643646
0.758240 0.320312 0.645233
0.837036 0.349426 0.663605
0.915802 0.381348 0.697449
0.191833 0.322998 0.537506
0.194855 0.314941 0.543365
0.227661 0.295929 0.589874
0.333679 0.264587 0.667511
0.503204 0.297516 0.696014
0.663696 0.347473 0.665436
0.759125 0.386108 0.656342
0.837860 0.416199 0.673401
0.920441 0.452942 0.708130
0.215912 0.380432 0.588226
0.229401 0.392853 0.599670
0.262939 0.416199 0.615204
0.347198 0.415192 0.641144
0.512573 0.392944 0.723572
0.689392 0.434845 0.702881
0.779205 0.469482 0.683075
0.854126 0.494720 0.692596
0.935730 0.535004 0.716766
0.217987 0.438934 0.654144
0.237793 0.459930 0.670563
0.282959 0.487610 0.691895
0.369354 0.525360 0.703125
0.508179 0.540314 0.701294
0.694702 0.558319 0.730011
0.798065 0.588165 0.720245
0.872925 0.609528 0.722198
0.966675 0.636536 0.736969
0.266296 0.503876 0.726959
0.295624 0.521820 0.738678
0.347107 0.554169 0.753632
0.424652 0.592377 0.770782
0.535370 0.649017 0.780029
0.688599 0.697235 0.744293
0.807220 0.718872 0.751099
0.893402 0.740753 0.760895
0.993896 0.745667 0.779114
0.333710 0.573242 0.799133
0.372131 0.591858 0.803833
0.423279 0.622223 0.812561
0.490570 0.662628 0.830505
0.582458 0.713409 0.846802
0.706299 0.763733 0.821411
0.806274 0.801086 0.798798
0.899445 0.822754 0.804840
0.996246 0.850220 0.815613
0.413147 0.651093 0.865875
0.452820 0.668793 0.867157
0.501434 0.696686 0.875214
0.555664 0.729187 0.890167
0.640259 0.774384 0.892822
0.751495 0.813782 0.865479
0.856384 0.832245 0.839203
0.935150 0.843597 0.857361
1.000000 0.899078 0.864929
0.485199 0.721283 0.930206
0.521057 0.741974 0.932648
0.566559 0.765320 0.938324
0.623260 0.797485 0.940155
0.694641 0.829803 0.927826
0.807098 0.859406 0.886536
0.927094 0.867157 0.864014
1.000000 0.865906 0.889160
1.000000 0.897583 0.936127
0.194489 0.227203 0.674683
0.208557 0.109192 0.732361
0.286163 0.102692 0.748657
0.419434 0.149048 0.781799
0.582672 0.209656 0.788391
0.702576 0.256165 0.767548
0.791046 0.285797 0.757935
0.869598 0.315094 0.772064
0.944305 0.342987 0.806091
0.209900 0.324005 0.612915
0.226685 0.278595 0.668457
0.295380 0.206726 0.745697
0.415314 0.222992 0.787781
0.576477 0.273071 0.796234
0.706726 0.308136 0.777924
0.794983 0.336639 0.774658
0.874237 0.372253 0.786499
0.953796 0.412689 0.817261
0.244507 0.387207 0.645874
0.259918 0.389740 0.651642
0.304596 0.367859 0.688385
0.412384 0.318512 0.779541
0.563416 0.334961 0.806641
0.701172 0.363983 0.793457
0.796082 0.392242 0.785706
0.879669 0.435638 0.795105
0.958496 0.479828 0.826355
0.269592 0.443268 0.678406
0.286041 0.464905 0.688416
0.339233 0.482361 0.699890
0.414154 0.457855 0.743256
0.554993 0.410919 0.834106
0.706360 0.426086 0.835968
0.803467 0.469482 0.806641
0.886322 0.518036 0.807404
0.963379 0.564667 0.836731
0.268951 0.505402 0.738342
0.294220 0.524109 0.751862
0.350708 0.554413 0.766693
0.434204 0.583252 0.774536
0.548523 0.571442 0.796387
0.699646 0.552704 0.850311
0.821716 0.593506 0.831970
0.897675 0.634552 0.825348
0.973022 0.670898 0.845459
0.312500 0.563263 0.804993
0.347595 0.580383 0.812744
0.402252 0.610291 0.823975
0.471008 0.649323 0.843658
0.563782 0.695496 0.851105
0.687225 0.718567 0.820648
0.816193 0.726013 0.844452
0.906952 0.753357 0.857605
0.994446 0.771851 0.866364
0.372162 0.624603 0.869110
0.408356 0.644623 0.874786
0.452301 0.669495 0.885620
0.511230 0.705841 0.906403
0.590118 0.750031 0.918854
0.688538 0.792297 0.910858
0.789307 0.822998 0.881104
0.901093 0.854279 0.882294
1.000000 0.870697 0.901733
0.427246 0.689880 0.935211
0.461426 0.708099 0.939514
0.507141 0.730438 0.948761
0.558777 0.763184 0.961060
0.627777 0.800232 0.970276
0.704346 0.835602 0.963531
0.790680 0.865631 0.948334
0.901154 0.908417 0.920685
1.000000 0.946777 0.928680
0.485046 0.753845 0.999359
0.521759 0.770142 1.000000
0.566925 0.794800 1.000000
0.620209 0.817535 1.000000
0.678436 0.845062 1.000000
0.744385 0.870850 0.996368
0.828094 0.906128 0.979034
0.948792 0.951843 0.945068
1.000000 0.979462 0.973785
0.252930 0.300659 0.760101
0.315613 0.172089 0.840637
0.424255 0.176849 0.879333
0.516022 0.205353 0.900085
0.620636 0.246552 0.892090
0.722565 0.277832 0.876404
0.814911 0.298126 0.877258
0.897430 0.325684 0.894775
0.976685 0.377075 0.923553
0.279846 0.406036 0.729095
0.311005 0.341705 0.775757
0.409424 0.258240 0.860718
0.513489 0.268372 0.893677
0.621002 0.298737 0.892090
0.725159 0.324554 0.893738
0.821594 0.342865 0.907684
0.905975 0.379761 0.917145
0.984314 0.468140 0.922211
0.309326 0.465088 0.741669
0.336517 0.466553 0.748291
0.389587 0.417908 0.800110
0.505127 0.355713 0.882599
0.613525 0.358887 0.906616
0.724609 0.370087 0.920197
0.830536 0.392609 0.925995
0.919830 0.442841 0.929413
0.990784 0.569092 0.920990
0.319489 0.523346 0.768799
0.352905 0.537659 0.774597
0.412384 0.546112 0.786804
0.486023 0.506470 0.839691
0.606873 0.445099 0.920380
0.719238 0.437073 0.945892
0.834656 0.470123 0.938141
0.925995 0.531738 0.928741
0.995209 0.655243 0.921936
0.323059 0.572571 0.820068
0.363556 0.590363 0.829651
0.415314 0.618134 0.842438
0.490936 0.646637 0.848938
0.596985 0.628662 0.863495
0.721375 0.585510 0.925201
0.845703 0.607910 0.932892
0.929871 0.657074 0.922943
1.000000 0.725250 0.933624
0.368256 0.623627 0.879608
0.402954 0.641693 0.887360
0.446075 0.667328 0.903656
0.510376 0.703033 0.917511
0.596588 0.743134 0.919525
0.699738 0.756653 0.890045
0.832397 0.750549 0.915436
0.936401 0.766968 0.938385
1.000000 0.807007 0.958710
0.409882 0.678497 0.943726
0.441925 0.697784 0.950134
0.482513 0.719269 0.960480
0.540985 0.752563 0.976685
0.614563 0.789673 0.982269
0.695740 0.819458 0.973114
0.798492 0.846039 0.934357
0.925507 0.853912 0.951569
1.000000 0.877472 0.985138
0.451447 0.731964 1.000000
0.486786 0.751953 1.000000
0.532867 0.772888 1.000000
0.587158 0.800995 1.000000
0.649811 0.826050 1.000000
0.717438 0.854706 1.000000
0.797333 0.885284 0.993408
0.901703 0.919525 0.964935
1.000000 0.951477 0.995331
0.536774 0.789795 1.000000
0.570343 0.804352 1.000000
0.609680 0.820343 1.000000
0.651154 0.841644 1.000000
0.696747 0.861267 1.000000
0.751495 0.888763 1.000000
0.822876 0.915985 1.000000
0.910431 0.954285 1.000000
1.000000 0.998505 0.997833
