design/ux_analyses/Resolume/Resolume Arena/luts/Wakino.cube
# Copyright: (C) Copyright 2010-2018 by IWLTBAP SAS
# Cannot be resold, shared or otherwise redistributed
# Website: https://luts.iwltbap.com
TITLE "IWLTBAP Wakino (Rec.709, sRGB, DCI-P3)"
LUT_3D_SIZE 33
0.000000 0.000000 0.000000
0.001221 0.000000 0.000000
0.023590 0.000000 0.000000
0.050140 0.000000 0.000000
0.078857 0.000000 0.000000
0.109741 0.000000 0.000000
0.141479 0.000000 0.000000
0.173645 0.000000 0.000000
0.206573 0.000000 0.000000
0.239716 0.000000 0.000000
0.272949 0.000000 0.000000
0.306641 0.000000 0.000000
0.341095 0.000000 0.000000
0.376404 0.000000 0.000000
0.412384 0.000000 0.000000
0.448608 0.000000 0.000000
0.484741 0.000000 0.000000
0.520538 0.000000 0.000000
0.555908 0.000000 0.000000
0.591217 0.001770 0.000000
0.626221 0.004120 0.000000
0.660309 0.006500 0.000000
0.692932 0.008850 0.000000
0.724182 0.010406 0.000000
0.754669 0.012634 0.000000
0.785004 0.015533 0.000000
0.815521 0.018311 0.000000
0.846191 0.023682 0.000000
0.874176 0.029999 0.000000
0.905884 0.034210 0.000000
0.937836 0.038788 0.000000
0.969757 0.044159 0.000000
1.000000 0.050690 0.000000
0.006592 0.000153 0.007263
0.013824 0.000000 0.000000
0.029480 0.000153 0.000000
0.053497 0.003326 0.000000
0.079193 0.005676 0.000000
0.109741 0.007263 0.000000
0.141235 0.008057 0.000000
0.173462 0.008850 0.000000
0.205902 0.009613 0.000000
0.238831 0.010376 0.000000
0.271790 0.011139 0.000000
0.305145 0.011871 0.000000
0.339325 0.011871 0.000000
0.374481 0.012634 0.000000
0.410370 0.014069 0.000000
0.446533 0.016205 0.000000
0.482727 0.018280 0.000000
0.518738 0.022339 0.000000
0.554535 0.027496 0.000000
0.590179 0.030609 0.000000
0.625519 0.033020 0.000000
0.659912 0.035370 0.000000
0.693115 0.038208 0.000000
0.725006 0.040405 0.000000
0.755920 0.043091 0.000000
0.786530 0.046204 0.000000
0.817017 0.049225 0.000000
0.847717 0.052124 0.000000
0.875031 0.055908 0.000000
0.906158 0.059509 0.000000
0.937836 0.063873 0.000000
0.969696 0.071075 0.000000
1.000000 0.078705 0.000000
0.023071 0.000183 0.015503
0.028442 0.004120 0.013367
0.037872 0.009613 0.006470
0.057892 0.017609 0.000000
0.080536 0.028748 0.000000
0.110291 0.032410 0.000000
0.141479 0.034790 0.000000
0.173218 0.037079 0.000000
0.205566 0.038208 0.000000
0.238098 0.039276 0.000000
0.270630 0.040405 0.000000
0.303558 0.040955 0.000000
0.337250 0.041504 0.000000
0.372040 0.042572 0.000000
0.407562 0.043610 0.000000
0.443787 0.045166 0.000000
0.480194 0.047180 0.000000
0.516479 0.049713 0.000000
0.552673 0.052612 0.000000
0.588837 0.055450 0.000000
0.624512 0.058167 0.000000
0.659393 0.060852 0.000000
0.693115 0.063873 0.000000
0.725494 0.066925 0.000000
0.756927 0.073517 0.000000
0.787720 0.076782 0.000000
0.818237 0.079865 0.000000
0.848755 0.082886 0.000000
0.876495 0.085815 0.000000
0.906525 0.089386 0.000000
0.938019 0.093201 0.000000
0.969879 0.098206 0.000000
1.000000 0.103638 0.000000
0.036926 0.000000 0.022278
0.041595 0.001740 0.024200
0.050140 0.008850 0.022278
0.063782 0.020996 0.014069
0.083313 0.038208 0.002533
0.111420 0.049225 0.000000
0.142151 0.055908 0.000000
0.173645 0.059082 0.000000
0.205719 0.061707 0.000000
0.237793 0.063873 0.000000
0.269836 0.065155 0.000000
0.302155 0.066406 0.000000
0.335175 0.068634 0.000000
0.369171 0.070221 0.000000
0.404327 0.072662 0.000000
0.440186 0.075195 0.000000
0.476562 0.077148 0.000000
0.513184 0.079468 0.000000
0.549896 0.082520 0.000000
0.586487 0.085083 0.000000
0.622803 0.087952 0.000000
0.658142 0.090790 0.000000
0.692383 0.093872 0.000000
0.725372 0.097198 0.000000
0.757233 0.100800 0.000000
0.788391 0.103943 0.000000
0.819092 0.107056 0.000000
0.849548 0.110077 0.000000
0.877960 0.112732 0.000000
0.907196 0.117554 0.000000
0.938599 0.123260 0.000000
0.970490 0.127930 0.000000
1.000000 0.132935 0.000000
0.057098 0.000000 0.028351
0.060699 0.000000 0.035370
0.065704 0.003326 0.037628
0.073700 0.012634 0.036499
0.091583 0.032410 0.024200
0.113037 0.052612 0.011139
0.143066 0.071869 0.000153
0.174622 0.082123 0.000000
0.206390 0.086884 0.000000
0.238098 0.090088 0.000000
0.269714 0.092834 0.000000
0.301453 0.095215 0.000000
0.333588 0.097198 0.000000
0.366730 0.098846 0.000000
0.400848 0.100464 0.000000
0.436218 0.102051 0.000000
0.472321 0.104279 0.000000
0.508911 0.106445 0.000000
0.545929 0.108856 0.000000
0.583069 0.111542 0.000000
0.619843 0.114685 0.000000
0.655823 0.120972 0.000000
0.690674 0.124359 0.000000
0.724182 0.127930 0.000000
0.756622 0.131653 0.000000
0.788177 0.135040 0.000000
0.819275 0.138367 0.000000
0.850098 0.141083 0.000000
0.879669 0.143555 0.000000
0.908295 0.146454 0.000000
0.939911 0.150024 0.000000
0.971924 0.154388 0.000000
1.000000 0.159332 0.000153
0.075775 0.000000 0.038208
0.078186 0.000000 0.041504
0.081512 0.000000 0.045166
0.090942 0.004120 0.048218
0.100403 0.015503 0.048218
0.116486 0.039856 0.039856
0.143738 0.066925 0.020966
0.175385 0.092163 0.008057
0.207397 0.104279 0.000946
0.239136 0.110077 0.000000
0.270508 0.115234 0.000000
0.301697 0.121857 0.000000
0.332825 0.124908 0.000000
0.365295 0.127655 0.000000
0.397003 0.130066 0.000000
0.430420 0.132446 0.000000
0.465881 0.135040 0.000000
0.504456 0.137360 0.000000
0.541290 0.139862 0.000000
0.578522 0.142334 0.000000
0.615662 0.145020 0.000000
0.652191 0.147888 0.000000
0.687653 0.151184 0.000000
0.721924 0.154846 0.000000
0.754974 0.158447 0.000000
0.787170 0.163116 0.000000
0.818787 0.169312 0.000000
0.850220 0.172058 0.000000
0.881378 0.174774 0.000000
0.909821 0.177643 0.000000
0.941895 0.181061 0.000000
0.973938 0.185394 0.000153
1.000000 0.190216 0.003326
0.099518 0.000000 0.044128
0.101562 0.000000 0.047729
0.104462 0.000000 0.051178
0.108398 0.000000 0.054932
0.114655 0.004120 0.059967
0.129089 0.018280 0.061279
0.146454 0.047180 0.054047
0.175385 0.083252 0.037628
0.208069 0.110077 0.017609
0.240723 0.129272 0.008850
0.272186 0.136597 0.004883
0.303223 0.141571 0.003326
0.334229 0.145996 0.001740
0.365692 0.149780 0.000946
0.395782 0.153717 0.000153
0.427429 0.157074 0.000000
0.461731 0.160431 0.000000
0.500092 0.166595 0.000000
0.537201 0.170593 0.000000
0.574097 0.173126 0.000000
0.611176 0.175812 0.000000
0.647919 0.178650 0.000000
0.683960 0.181854 0.000000
0.718903 0.185394 0.000000
0.752625 0.188873 0.000000
0.785431 0.192474 0.000153
0.817749 0.195984 0.000153
0.850006 0.198914 0.000000
0.882660 0.201782 0.000000
0.913239 0.204803 0.000000
0.944183 0.208466 0.000153
0.976288 0.214020 0.003326
1.000000 0.221680 0.006470
0.124146 0.000000 0.050201
0.126587 0.000000 0.053558
0.129089 0.000000 0.056824
0.132263 0.000000 0.060852
0.137054 0.000000 0.066406
0.144196 0.005676 0.073242
0.158173 0.026245 0.077484
0.178070 0.054504 0.070862
0.208069 0.095215 0.052612
0.241760 0.131409 0.030731
0.274628 0.149780 0.017609
0.306061 0.158661 0.013367
0.336853 0.167877 0.011871
0.367950 0.173126 0.010376
0.399323 0.178253 0.008057
0.428955 0.183044 0.006470
0.461487 0.187714 0.004883
0.497467 0.192078 0.002533
0.532623 0.195984 0.000946
0.569244 0.199280 0.000153
0.607056 0.202332 0.000153
0.644135 0.205322 0.000153
0.680328 0.208466 0.000946
0.715820 0.212006 0.000946
0.750305 0.218719 0.001740
0.783783 0.222839 0.001740
0.816803 0.226074 0.001740
0.849915 0.229279 0.001740
0.883392 0.232422 0.000946
0.916290 0.235809 0.000946
0.947205 0.239838 0.002533
0.978271 0.244324 0.006470
1.000000 0.249176 0.010376
0.146881 0.000000 0.056366
0.148438 0.000000 0.059509
0.150604 0.000000 0.062561
0.154755 0.000000 0.066406
0.161774 0.000000 0.071686
0.167114 0.000000 0.079712
0.175385 0.009613 0.089294
0.191833 0.032410 0.097015
0.211548 0.062164 0.089294
0.242188 0.107056 0.068878
0.276154 0.147644 0.045685
0.309204 0.173523 0.029510
0.340790 0.184021 0.022919
0.371857 0.190582 0.020966
0.403290 0.196533 0.018982
0.434998 0.202515 0.016205
0.464966 0.208466 0.013367
0.500336 0.216705 0.010376
0.533112 0.223328 0.007263
0.567902 0.227814 0.004883
0.603943 0.231812 0.003326
0.640869 0.235199 0.003326
0.678162 0.238617 0.003326
0.713867 0.242096 0.003326
0.748810 0.245514 0.003326
0.782867 0.248871 0.003326
0.816589 0.252197 0.003326
0.850311 0.255615 0.003326
0.884247 0.259094 0.003326
0.918182 0.266510 0.003326
0.950012 0.270935 0.005676
0.979675 0.275604 0.008850
1.000000 0.280548 0.014069
0.173462 0.000000 0.062561
0.174622 0.000000 0.065552
0.176727 0.000000 0.068878
0.179749 0.000000 0.072876
0.183685 0.000000 0.077850
0.192505 0.000000 0.085114
0.199249 0.000153 0.097015
0.208557 0.015503 0.111542
0.225159 0.039276 0.119324
0.246613 0.074310 0.113312
0.277191 0.122131 0.086487
0.311218 0.166168 0.059967
0.344757 0.193573 0.042572
0.376770 0.206207 0.035950
0.408173 0.215729 0.030731
0.439789 0.224457 0.026672
0.471924 0.231171 0.023560
0.504669 0.238159 0.019653
0.537964 0.244629 0.015503
0.571503 0.250580 0.011871
0.605957 0.255890 0.008850
0.641663 0.262146 0.007263
0.678162 0.268372 0.006470
0.713684 0.271881 0.005676
0.748749 0.275330 0.005676
0.783112 0.278717 0.005676
0.817108 0.282227 0.005676
0.851166 0.285645 0.005676
0.885284 0.289307 0.004913
0.919250 0.293396 0.005676
0.951965 0.297882 0.008057
0.980774 0.302887 0.012634
1.000000 0.310211 0.017609
0.200104 0.000000 0.069672
0.201141 0.000000 0.073242
0.203033 0.000000 0.076721
0.206238 0.000000 0.080811
0.210541 0.000000 0.085815
0.215424 0.000000 0.092316
0.222961 0.000000 0.105499
0.232880 0.007263 0.118195
0.243469 0.027496 0.131866
0.261322 0.047180 0.140594
0.282562 0.082886 0.134186
0.313232 0.132935 0.109161
0.347290 0.183258 0.074036
0.381104 0.216034 0.053101
0.413483 0.232758 0.044647
0.445251 0.241333 0.040955
0.477112 0.248871 0.037628
0.509491 0.256439 0.031891
0.542419 0.267944 0.024811
0.576019 0.275330 0.020294
0.610260 0.282104 0.016205
0.645020 0.287933 0.012634
0.680206 0.292755 0.011139
0.715271 0.297028 0.009613
0.750031 0.300751 0.008850
0.784393 0.304321 0.008850
0.818481 0.309723 0.008057
0.852539 0.315430 0.008057
0.886688 0.319305 0.008057
0.920502 0.323547 0.008850
0.953552 0.328461 0.011139
0.982483 0.333801 0.015503
1.000000 0.339417 0.021606
0.227509 0.000000 0.077484
0.228485 0.000000 0.081543
0.230316 0.000000 0.085815
0.233643 0.000000 0.090302
0.238098 0.000000 0.096405
0.243011 0.000000 0.104889
0.248749 0.000000 0.113037
0.255890 0.000153 0.124512
0.268127 0.016205 0.139130
0.279694 0.036499 0.154053
0.298828 0.056366 0.165161
0.319672 0.092163 0.155823
0.350311 0.144287 0.128235
0.384247 0.198914 0.089294
0.418213 0.237854 0.064301
0.450836 0.255890 0.053101
0.482849 0.269714 0.048218
0.515045 0.277954 0.044128
0.547821 0.286163 0.039276
0.581055 0.294373 0.034271
0.614960 0.302185 0.025452
0.649200 0.312531 0.021606
0.683716 0.319061 0.018280
0.718292 0.324097 0.016205
0.752594 0.328369 0.014801
0.786652 0.332306 0.014069
0.820618 0.336121 0.013367
0.854614 0.339935 0.012634
0.888641 0.343964 0.012634
0.922272 0.348694 0.014069
0.954956 0.355103 0.016205
0.984558 0.363983 0.020294
1.000000 0.370453 0.025452
0.252075 0.000000 0.086884
0.253052 0.000000 0.091309
0.254883 0.000000 0.097687
0.261322 0.000000 0.104889
0.266418 0.000000 0.110077
0.271423 0.000000 0.115356
0.276672 0.000000 0.122345
0.282837 0.000000 0.132660
0.290619 0.009613 0.146545
0.304138 0.030609 0.164307
0.316498 0.047180 0.181702
0.336639 0.065979 0.190430
0.359100 0.101440 0.182281
0.388611 0.155334 0.148407
0.422211 0.215729 0.108856
0.455994 0.257965 0.075195
0.488708 0.283386 0.060852
0.521027 0.294739 0.054932
0.553619 0.303589 0.050690
0.586823 0.316132 0.045685
0.620361 0.324432 0.040955
0.654236 0.332184 0.037079
0.688324 0.338776 0.030731
0.722260 0.344482 0.026672
0.756195 0.349426 0.024811
0.789886 0.354736 0.023560
0.823578 0.361816 0.022278
0.857483 0.365906 0.021606
0.891388 0.370270 0.021606
0.924713 0.375397 0.022278
0.957031 0.381531 0.024811
0.987366 0.388733 0.028351
1.000000 0.396301 0.035370
0.281830 0.000000 0.101532
0.282837 0.000000 0.106140
0.284424 0.000000 0.110962
0.287384 0.000000 0.116211
0.292999 0.000000 0.121521
0.300171 0.000000 0.126678
0.304932 0.000000 0.132904
0.310547 0.000000 0.142059
0.317261 0.004120 0.154724
0.325989 0.022339 0.174347
0.340271 0.042572 0.191162
0.353882 0.058167 0.206604
0.375366 0.080231 0.214661
0.401550 0.110962 0.205231
0.428955 0.169983 0.172882
0.461121 0.232758 0.125061
0.494904 0.281830 0.086487
0.527191 0.307648 0.069275
0.559906 0.323669 0.062164
0.592865 0.332947 0.057739
0.626190 0.341400 0.054047
0.659668 0.349121 0.050201
0.693390 0.359070 0.046722
0.726990 0.366119 0.043610
0.760529 0.371307 0.041504
0.793915 0.376038 0.040405
0.827515 0.380432 0.039276
0.861267 0.384766 0.038208
0.894989 0.389557 0.038208
0.928009 0.395355 0.038757
0.959656 0.405182 0.040405
0.989532 0.415100 0.042023
1.000000 0.424561 0.043610
0.312469 0.000000 0.114197
0.313324 0.000000 0.118469
0.314789 0.000000 0.122894
0.317383 0.000000 0.127991
0.320953 0.000000 0.133148
0.325195 0.000000 0.138397
0.333344 0.000000 0.143951
0.338074 0.000000 0.152039
0.343842 0.000000 0.166016
0.351196 0.016205 0.182281
0.364166 0.037628 0.199677
0.376587 0.054504 0.217438
0.392334 0.071869 0.236328
0.415649 0.090424 0.243317
0.442780 0.124634 0.229492
0.472961 0.180695 0.193726
0.504913 0.246979 0.142273
0.537506 0.300903 0.103333
0.567902 0.333588 0.078583
0.599152 0.347992 0.070465
0.632172 0.361023 0.066803
0.665466 0.368652 0.063873
0.698822 0.375580 0.061279
0.732086 0.381653 0.058624
0.765289 0.387024 0.056824
0.798523 0.391815 0.055450
0.832092 0.396332 0.054504
0.865784 0.401947 0.054047
0.899323 0.410156 0.054047
0.931763 0.416809 0.054504
0.962585 0.425354 0.054504
0.991455 0.435730 0.054047
1.000000 0.447449 0.053101
0.343750 0.000000 0.127472
0.344360 0.000000 0.131378
0.345490 0.000000 0.135681
0.347595 0.000000 0.140350
0.350800 0.000000 0.145386
0.354645 0.000000 0.150452
0.360260 0.000000 0.155823
0.366364 0.000000 0.165161
0.371002 0.000000 0.177155
0.376862 0.011139 0.191162
0.385071 0.033600 0.208313
0.400055 0.051666 0.227203
0.414459 0.068634 0.249268
0.436188 0.084717 0.262939
0.457367 0.100464 0.267883
0.485016 0.134003 0.255310
0.514679 0.190796 0.214996
0.545410 0.261597 0.160889
0.577118 0.322754 0.117615
0.609406 0.357361 0.089630
0.641296 0.374542 0.080444
0.675171 0.383209 0.077484
0.706726 0.389923 0.075195
0.737518 0.395813 0.073639
0.770325 0.401947 0.072479
0.803589 0.409729 0.071686
0.837036 0.414368 0.070862
0.870667 0.419434 0.070465
0.903839 0.425446 0.070465
0.935638 0.433105 0.070465
0.965454 0.442932 0.069672
0.993317 0.458984 0.067230
1.000000 0.472473 0.063873
0.375641 0.000000 0.141815
0.376038 0.000000 0.145386
0.376862 0.000000 0.149078
0.378540 0.000000 0.153381
0.381378 0.000000 0.158020
0.384979 0.000000 0.165161
0.388763 0.000000 0.172058
0.392487 0.000000 0.178741
0.399628 0.000000 0.188354
0.404327 0.007263 0.201416
0.411041 0.029999 0.218079
0.420898 0.049225 0.241272
0.438049 0.065979 0.261078
0.454437 0.083984 0.277802
0.477753 0.095551 0.289062
0.503845 0.110077 0.291718
0.527679 0.143097 0.277802
0.556427 0.200195 0.240540
0.585938 0.275879 0.184021
0.616669 0.338440 0.133423
0.648468 0.378021 0.106140
0.681061 0.394836 0.091644
0.713867 0.406281 0.088593
0.746765 0.412720 0.087555
0.778778 0.417755 0.087219
0.809784 0.422455 0.086884
0.845337 0.427551 0.086487
0.876862 0.433258 0.086487
0.908173 0.440186 0.086487
0.939056 0.450989 0.086151
0.967957 0.464111 0.084412
0.995056 0.477692 0.080444
1.000000 0.492645 0.075562
0.408752 0.000000 0.156494
0.409027 0.000000 0.159973
0.409607 0.000000 0.166443
0.410950 0.000000 0.171265
0.413300 0.000000 0.175568
0.416626 0.000000 0.180084
0.420410 0.000000 0.185333
0.424103 0.000000 0.192078
0.427338 0.000000 0.200897
0.434082 0.003326 0.213348
0.439789 0.024963 0.231018
0.447998 0.046204 0.252380
0.459747 0.064728 0.272827
0.478333 0.083618 0.291473
0.497162 0.095215 0.309296
0.519592 0.105194 0.317474
0.546021 0.122437 0.318146
0.573730 0.150726 0.304016
0.597961 0.207611 0.262939
0.626495 0.284790 0.205078
0.656311 0.350647 0.151154
0.687531 0.393768 0.120148
0.719666 0.416382 0.107666
0.752289 0.424438 0.104889
0.785065 0.429565 0.104889
0.818176 0.434692 0.104889
0.851440 0.440277 0.104889
0.884277 0.446930 0.104889
0.914215 0.458984 0.104889
0.941895 0.469116 0.103943
0.970001 0.481598 0.100922
0.996765 0.498322 0.093292
1.000000 0.515778 0.087555
0.442932 0.000000 0.175354
0.443176 0.000000 0.178955
0.443634 0.000000 0.182648
0.444702 0.000000 0.186310
0.446747 0.000000 0.190247
0.449768 0.000000 0.194641
0.453522 0.000000 0.199677
0.457458 0.000000 0.206116
0.460938 0.000000 0.214478
0.465149 0.000000 0.226318
0.471710 0.017609 0.245667
0.478333 0.042572 0.264282
0.488159 0.062164 0.284790
0.504669 0.082520 0.308044
0.519440 0.094879 0.323486
0.540680 0.104279 0.334076
0.561005 0.112732 0.340057
0.587769 0.129272 0.340271
0.615784 0.156219 0.326813
0.643585 0.212738 0.286285
0.668243 0.290070 0.227203
0.696198 0.363098 0.173950
0.726532 0.410400 0.135193
0.758209 0.431305 0.120697
0.790710 0.440430 0.117615
0.823669 0.446472 0.117615
0.856445 0.456787 0.118195
0.888519 0.464478 0.118469
0.919159 0.473969 0.118195
0.944244 0.485535 0.117065
0.971741 0.503296 0.114197
0.998352 0.518555 0.109467
1.000000 0.534332 0.103638
0.477051 0.000000 0.190613
0.477264 0.000000 0.194458
0.477783 0.000000 0.198242
0.478912 0.000000 0.202118
0.480896 0.000000 0.205933
0.483704 0.000000 0.210175
0.487457 0.000000 0.214813
0.491821 0.000000 0.220795
0.497711 0.000000 0.229492
0.503296 0.000000 0.243317
0.506744 0.011139 0.257935
0.511780 0.035950 0.276031
0.519501 0.057281 0.297882
0.530060 0.079102 0.319122
0.545898 0.092499 0.335632
0.560364 0.103027 0.348083
0.581787 0.110992 0.356903
0.605347 0.122711 0.364410
0.630005 0.134033 0.365753
0.658356 0.159332 0.350677
0.686035 0.215424 0.314575
0.713013 0.291534 0.254761
0.736572 0.368073 0.194458
0.765900 0.420166 0.152039
0.797058 0.445557 0.134430
0.829132 0.461517 0.130066
0.861206 0.469696 0.130341
0.892242 0.478638 0.130859
0.921875 0.489563 0.130859
0.946960 0.506683 0.129547
0.973083 0.521545 0.126160
0.999939 0.537079 0.121246
1.000000 0.556458 0.115631
0.510101 0.000000 0.206451
0.510162 0.000000 0.210510
0.510712 0.000000 0.214478
0.512054 0.000000 0.218567
0.514282 0.000000 0.222382
0.517456 0.000000 0.226471
0.521698 0.000000 0.234070
0.526581 0.000000 0.239777
0.533905 0.000000 0.246674
0.539825 0.000000 0.256287
0.543335 0.002533 0.269592
0.547455 0.026245 0.286285
0.553314 0.048218 0.309204
0.561310 0.068634 0.328278
0.575104 0.087616 0.345367
0.586975 0.099487 0.359741
0.603394 0.108582 0.375275
0.623718 0.118713 0.384155
0.649139 0.127136 0.390259
0.677124 0.136841 0.391541
0.702087 0.159790 0.379730
0.729584 0.212372 0.340240
0.755585 0.290924 0.279846
0.781708 0.371613 0.216766
0.805634 0.430511 0.173737
0.835388 0.465973 0.148407
0.865784 0.482025 0.142548
0.895508 0.493561 0.142548
0.923920 0.510101 0.142792
0.949524 0.524719 0.141113
0.974243 0.540466 0.137695
1.000000 0.559784 0.133179
1.000000 0.574463 0.127991
0.540924 0.000946 0.223022
0.540985 0.000000 0.227051
0.541504 0.000000 0.235291
0.542969 0.000000 0.239502
0.545746 0.000000 0.243469
0.549835 0.000000 0.247253
0.555054 0.000000 0.251251
0.561188 0.000000 0.255707
0.570221 0.000000 0.261475
0.576660 0.000000 0.269440
0.580597 0.000000 0.280457
0.584076 0.011139 0.296234
0.588562 0.035950 0.316711
0.594788 0.056824 0.335114
0.605530 0.078705 0.352966
0.616669 0.093201 0.373230
0.629028 0.104584 0.387421
0.648224 0.113037 0.399414
0.667145 0.124084 0.408813
0.692993 0.129822 0.415527
0.721863 0.138123 0.417297
0.751160 0.159332 0.406067
0.776154 0.211060 0.371124
0.798798 0.292053 0.309998
0.822571 0.378204 0.243927
0.847778 0.444489 0.192261
0.870819 0.486725 0.166016
0.898529 0.512238 0.155182
0.925598 0.528320 0.153625
0.951599 0.544220 0.151825
0.975220 0.563843 0.148865
1.000000 0.578613 0.144684
1.000000 0.592651 0.140381
0.566254 0.006470 0.244080
0.566376 0.006470 0.248108
0.567657 0.004120 0.252380
0.570892 0.000183 0.256683
0.574982 0.000000 0.260651
0.580017 0.000000 0.264435
0.586639 0.000000 0.268280
0.594482 0.000000 0.272583
0.604919 0.000000 0.277588
0.613068 0.000000 0.283691
0.617798 0.000000 0.292328
0.621155 0.000153 0.308289
0.624725 0.018280 0.323700
0.629669 0.043610 0.341370
0.637390 0.063873 0.359619
0.648834 0.085083 0.381348
0.659393 0.098846 0.397766
0.676270 0.109192 0.412506
0.692169 0.121033 0.425049
0.715515 0.127380 0.438995
0.739929 0.132477 0.446014
0.768005 0.140137 0.448181
0.796967 0.162262 0.437622
0.822266 0.218109 0.399414
0.839966 0.299469 0.337677
0.859650 0.391357 0.268921
0.880341 0.468750 0.212830
0.901550 0.518494 0.182281
0.927094 0.546722 0.170044
0.953247 0.568207 0.163513
0.976288 0.583649 0.159546
1.000000 0.601227 0.156525
1.000000 0.613861 0.153412
0.592194 0.013367 0.260803
0.592438 0.013367 0.264984
0.593140 0.011902 0.269196
0.595062 0.008057 0.273499
0.598663 0.002533 0.277466
0.608154 0.000000 0.281464
0.615814 0.000000 0.285675
0.625092 0.000000 0.290161
0.635101 0.000000 0.296051
0.647919 0.000000 0.304047
0.654358 0.000000 0.310455
0.658356 0.000000 0.319702
0.661560 0.008057 0.332611
0.665588 0.031830 0.348877
0.675201 0.052612 0.370819
0.682800 0.075989 0.389465
0.692169 0.092163 0.407471
0.705017 0.104889 0.424255
0.720917 0.114685 0.443390
0.737610 0.125458 0.456451
0.761444 0.131683 0.466675
0.788696 0.137604 0.473785
0.817108 0.147186 0.476501
0.839722 0.175598 0.466949
0.860535 0.232758 0.431335
0.873169 0.321869 0.370911
0.889496 0.418762 0.295990
0.905151 0.501831 0.236786
0.928497 0.556549 0.196075
0.954315 0.585602 0.179749
0.977661 0.606689 0.174347
1.000000 0.619385 0.172302
1.000000 0.630829 0.170868
0.618317 0.018982 0.276550
0.618805 0.019714 0.280853
0.619781 0.018982 0.285065
0.621857 0.016235 0.289215
0.625458 0.012634 0.293518
0.630951 0.008057 0.302063
0.641663 0.004120 0.307129
0.652435 0.000000 0.312500
0.664337 0.000000 0.317841
0.680115 0.000000 0.322601
0.689392 0.000000 0.327667
0.695099 0.000000 0.334930
0.698822 0.004883 0.345673
0.702820 0.023621 0.359802
0.711212 0.045166 0.380798
0.717987 0.065155 0.399475
0.726410 0.086884 0.418274
0.736450 0.101440 0.440247
0.751953 0.112457 0.457062
0.765686 0.124939 0.472351
0.786285 0.132721 0.485229
0.806061 0.140625 0.496765
0.831482 0.149780 0.506927
0.856110 0.167938 0.510681
0.872986 0.198578 0.501953
0.888519 0.263794 0.464203
0.897614 0.353760 0.399658
0.909149 0.455139 0.323914
0.929962 0.534393 0.256287
0.955383 0.588867 0.210358
0.979309 0.620850 0.190826
1.000000 0.636169 0.184967
1.000000 0.651062 0.183838
0.644775 0.028137 0.291138
0.645569 0.028778 0.296478
0.646820 0.028778 0.303467
0.648895 0.028137 0.308075
0.652191 0.027496 0.312805
0.656921 0.024963 0.318146
0.663757 0.023621 0.324463
0.677307 0.018982 0.331055
0.690369 0.013367 0.337280
0.707703 0.005707 0.342407
0.721252 0.000183 0.347321
0.729889 0.000946 0.353668
0.735291 0.009613 0.365326
0.741333 0.027496 0.379639
0.747894 0.044647 0.395203
0.753876 0.063873 0.413086
0.761383 0.086182 0.435638
0.770081 0.101440 0.453827
0.783905 0.113617 0.471161
0.795227 0.127380 0.487396
0.809235 0.136841 0.506042
0.828247 0.146942 0.518677
0.849365 0.158691 0.529205
0.866180 0.177856 0.537628
0.884430 0.199646 0.541840
0.895294 0.240265 0.532379
0.903625 0.304901 0.492828
0.916656 0.393951 0.426086
0.931732 0.486572 0.347717
0.956238 0.565826 0.276672
0.981140 0.619110 0.226471
1.000000 0.651306 0.203491
1.000000 0.667023 0.195892
0.669586 0.031830 0.308411
0.671356 0.033600 0.312805
0.674042 0.035370 0.317383
0.676270 0.037079 0.322266
0.679016 0.039276 0.327881
0.682831 0.042023 0.334290
0.688416 0.044647 0.341492
0.697205 0.044647 0.349182
0.714050 0.039307 0.356415
0.729858 0.029999 0.364410
0.749023 0.018311 0.372040
0.760803 0.016907 0.378662
0.768860 0.026245 0.387787
0.776642 0.038208 0.399658
0.783691 0.053558 0.414215
0.789368 0.074799 0.434265
0.795898 0.092163 0.452362
0.803284 0.107666 0.469879
0.815033 0.124634 0.486664
0.824463 0.135559 0.506561
0.834930 0.145996 0.521576
0.850830 0.157562 0.535522
0.863464 0.175812 0.548035
